%
(Header)
(Generated by gcodetools from Inkscape.)
(Using default header. To add your own header create file "header" in the output dir.)
M3
(Header end.)
G21 (All units in mm)

(Start cutting path id: path826)
(Change tool to Plasma cutter)
 
G00 Z5.000000
G00 X158.910410 Y456.633840
G31 Z-100 F500 (find metal)
G92 Z0 (zero z)
G00 Z10 F500 (going up)
M03 (turn on plasma)
G04 P0.2 (pause)
G01 Z1 (going to cutting z)
G01 Z-1.000000 F100.0(Penetrate)
G02 X121.002175 Y431.983438 Z-1.000000 I-581.344960 J852.538737 F400.000000
G02 X119.295180 Y432.091370 Z-1.000000 I-0.777552 J1.255086
G03 X118.020209 Y432.742514 Z-1.000000 I-2.174292 J-2.683568
G03 X117.719285 Y432.510584 Z-1.000000 I-0.062169 J-0.230524
G03 X117.883821 Y431.679790 Z-1.000000 I2.246561 J0.013235
G03 X119.315980 Y428.561970 Z-1.000000 I34.987407 J14.183492
G02 X120.779617 Y425.217547 Z-1.000000 I-25.555136 J-13.176309
G02 X138.030090 Y377.134214 Z-1.000000 I-5290.807439 J-1925.276728
G03 X155.126623 Y328.990173 Z-1.000000 I18536.907582 J6555.573122
G03 X155.340330 Y328.588497 Z-1.000000 I1.468624 J0.523676
G03 X155.703398 Y328.381078 Z-1.000000 I0.416046 J0.306784
G03 X168.094380 Y327.274450 Z-1.000000 I46.895010 J455.161571
G02 X180.473989 Y326.106136 Z-1.000000 I-25.184543 J-333.030849
G02 X181.118760 Y325.800183 Z-1.000000 I-0.123734 J-1.093137
G02 X181.048028 Y325.382456 Z-1.000000 I-0.180003 J-0.184373
G02 X158.028460 Y314.987867 Z-1.000000 I-388.329611 J829.297460
G01 X134.394820 Y304.705987 Z-1.000000
G01 X129.719310 Y289.131438 Z-1.000000
G02 X125.037706 Y273.558722 Z-1.000000 I-19952.311174 J5989.769559
G02 X119.327380 Y254.613017 Z-1.000000 I-29474.083944 J8873.253150
G01 X113.610960 Y235.669157 Z-1.000000
G01 X90.377145 Y208.535883 Z-1.000000
G03 X67.916065 Y181.265669 Z-1.000000 I701.196766 J-600.425027
G03 X67.701931 Y179.906450 Z-1.000000 I1.097709 J-0.869412
G02 X68.083353 Y178.367420 Z-1.000000 I-6.507089 J-2.429448
G02 X72.001790 Y146.641550 Z-1.000000 I-2799.860700 J-361.913515
G03 X75.981549 Y114.957428 Z-1.000000 I2052.169451 J241.675601
G03 X76.374997 Y113.874600 Z-1.000000 I2.666057 J0.355823
G03 X77.162706 Y113.317753 Z-1.000000 I1.069143 J0.676831
G03 X78.509530 Y113.387640 Z-1.000000 I0.550098 J2.411378
G02 X81.321010 Y114.058080 Z-1.000000 I4.965210 J-14.591356
G02 X176.826300 Y127.262010 Z-1.000000 I2396.550314 J-16982.476844
G03 X213.126972 Y132.281449 Z-1.000000 I-868.119735 J6412.030987
G03 X213.326760 Y132.414450 Z-1.000000 I-0.038796 J0.274834
G02 X213.872117 Y133.161022 Z-1.000000 I4.208762 J-2.501953
G02 X251.549160 Y175.582013 Z-1.000000 I26727.717506 J-23700.808802
G02 X288.928289 Y217.534074 Z-1.000000 I26784.426658 J-23827.194990
G02 X291.207990 Y219.961644 Z-1.000000 I48.928228 J-43.663700
G03 X294.102890 Y223.047339 Z-1.000000 I-58.162681 J57.467166
G03 X322.184600 Y254.741091 Z-1.000000 I-6115.155382 J5446.516901
G02 X349.699162 Y284.686116 Z-1.000000 I738.171758 J-650.645461
G02 X350.610210 Y284.422474 Z-1.000000 I0.386544 J-0.370190
G02 X350.382574 Y282.478962 Z-1.000000 I-3.075899 J-0.624820
G02 X347.282940 Y277.235846 Z-1.000000 I-27.595698 J12.776292
G01 X343.531690 Y272.136325 Z-1.000000
G01 X349.634720 Y266.267754 Z-1.000000
G01 X355.737760 Y260.399172 Z-1.000000
G01 X361.840790 Y266.267754 Z-1.000000
G01 X367.943820 Y272.136325 Z-1.000000
G01 X364.192580 Y277.235846 Z-1.000000
G02 X361.099065 Y282.481621 Z-1.000000 I24.230453 J17.824110
G02 X360.865310 Y284.463653 Z-1.000000 I2.934548 J1.350892
G02 X361.788871 Y284.732735 Z-1.000000 I0.531846 J-0.105944
G02 X389.282130 Y254.782282 Z-1.000000 I-699.683843 J-669.874476
G03 X417.363049 Y223.055135 Z-1.000000 I5585.887281 J4915.641239
G03 X420.278270 Y219.961644 Z-1.000000 I55.938099 J49.794175
G02 X422.497513 Y217.609539 Z-1.000000 I-41.209510 J-41.104730
G02 X459.873537 Y175.653249 Z-1.000000 I-25184.525099 J-22472.818039
G02 X497.512513 Y133.259036 Z-1.000000 I-25140.021147 J-22358.042575
G02 X498.124070 Y132.429600 Z-1.000000 I-4.296159 J-3.807804
G03 X498.312766 Y132.305432 Z-1.000000 I0.225066 J0.136566
G03 X560.540800 Y123.723050 Z-1.000000 I2813.172814 J20167.503925
G02 X622.807985 Y115.107002 Z-1.000000 I-2135.942841 J-15665.519755
G02 X628.710610 Y114.152090 Z-1.000000 I-19.889139 J-141.661772
G03 X634.381885 Y113.557307 Z-1.000000 I6.700621 J36.555320
G03 X635.163000 Y113.973300 Z-1.000000 I0.024793 J0.894796
G03 X635.516830 Y114.949304 Z-1.000000 I-2.040792 J1.291985
G03 X639.473710 Y146.641550 Z-1.000000 I-2266.377128 J299.057725
G02 X643.392161 Y178.367421 Z-1.000000 I2803.905563 J-330.204459
G02 X643.773580 Y179.906450 Z-1.000000 I6.888604 J-0.890431
G03 X643.559450 Y181.265670 Z-1.000000 I-1.311834 J0.489812
G03 X621.098370 Y208.535883 Z-1.000000 I-723.655347 J-573.152769
G01 X597.864550 Y235.669157 Z-1.000000
G01 X592.148130 Y254.613017 Z-1.000000
G02 X586.437809 Y273.558725 Z-1.000000 I29519.850233 J8907.771230
G02 X581.755650 Y289.133305 Z-1.000000 I19923.531982 J5998.055386
G01 X577.079580 Y304.709720 Z-1.000000
G01 X553.467500 Y315.010220 Z-1.000000
G02 X530.445822 Y325.418772 Z-1.000000 I380.814058 J872.950100
G02 X530.377760 Y325.820670 Z-1.000000 I0.105116 J0.224514
G02 X530.997821 Y326.114371 Z-1.000000 I0.737336 J-0.755276
G02 X543.381170 Y327.274450 Z-1.000000 I38.539209 J-344.716095
G03 X555.772146 Y328.381079 Z-1.000000 I-34.503793 J456.265078
G03 X556.135200 Y328.588497 Z-1.000000 I-0.052975 J0.514168
G03 X556.348907 Y328.990173 Z-1.000000 I-1.254920 J0.925354
G03 X573.445440 Y377.134214 Z-1.000000 I-18510.294906 J6600.337794
G02 X590.695913 Y425.217547 Z-1.000000 I5308.057912 J-1877.193395
G02 X592.159550 Y428.561970 Z-1.000000 I27.018774 J-9.831886
G03 X593.593506 Y431.684212 Z-1.000000 I-33.560764 J17.303904
G03 X593.755891 Y432.511729 Z-1.000000 I-2.055745 J0.833094
G03 X593.454312 Y432.742152 Z-1.000000 I-0.238360 J0.000599
G03 X592.168550 Y432.081300 Z-1.000000 I0.935810 J-3.401946
G02 X590.449338 Y431.973131 Z-1.000000 I-0.935667 J1.154815
G02 X552.608950 Y456.623760 Z-1.000000 I538.550066 J868.080014
G03 X514.602355 Y482.145261 Z-1.000000 I-1586.253834 J-2321.187258
G03 X513.360140 Y482.518120 Z-1.000000 I-1.242215 J-1.882849
G03 X512.017640 Y482.378439 Z-1.000000 I-0.000000 J-6.521336
G03 X468.104790 Y472.997820 Z-1.000000 I1485.924354 J-7063.429649
G02 X424.182457 Y463.608436 Z-1.000000 I-1605.864194 J7404.599967
G02 X419.174210 Y462.689360 Z-1.000000 I-20.076277 J95.295033
G03 X414.949149 Y460.797293 Z-1.000000 I1.363814 J-8.708850
G03 X411.321930 Y456.251530 Z-1.000000 I8.819990 J-10.757793
G03 X404.820274 Y442.609448 Z-1.000000 I372.356487 J-185.831085
G03 X376.458330 Y379.542989 Z-1.000000 I7931.948999 J-3605.028460
G02 X363.947756 Y351.966664 Z-1.000000 I-1906.953769 J848.503314
G02 X363.200860 Y350.874869 Z-1.000000 I-3.615463 J1.671960
G02 X362.661851 Y351.040131 Z-1.000000 I-0.227605 J0.219289
G02 X360.797850 Y364.725326 Z-1.000000 I186.897768 J32.426068
G03 X359.323371 Y379.542655 Z-1.000000 I-32578.983059 J-3234.492450
G03 X357.968540 Y393.092349 Z-1.000000 I-27400.142027 J-2732.872241
G03 X356.156343 Y406.139933 Z-1.000000 I-172.039458 J-17.245152
G03 X355.557390 Y406.641710 Z-1.000000 I-0.598953 J-0.106587
G03 X354.903036 Y406.239972 Z-1.000000 I-0.000000 J-0.733778
G03 X354.487890 Y404.534030 Z-1.000000 I3.421264 J-1.736058
G02 X354.294981 Y401.384024 Z-1.000000 I-29.614171 J0.232683
G02 X351.405832 Y377.051023 Z-1.000000 I-3281.844450 J377.327740
G02 X348.268125 Y352.230552 Z-1.000000 I-3216.836127 J394.051356
G02 X348.020100 Y351.734332 Z-1.000000 I-0.839254 J0.109388
G02 X347.716951 Y351.788235 Z-1.000000 I-0.132275 J0.135491
G02 X339.745840 Y369.063637 Z-1.000000 I652.418456 J311.511640
G03 X306.692269 Y442.553763 Z-1.000000 I-10469.269891 J-4664.573408
G03 X300.190940 Y456.188630 Z-1.000000 I-366.759550 J-166.509585
G01 X297.397300 Y461.775430 Z-1.000000
G01 X283.697620 Y464.427720 Z-1.000000
G02 X270.024017 Y467.206242 Z-1.000000 I143.587296 J741.653117
G02 X234.968900 Y474.799080 Z-1.000000 I1039.064157 J4881.938956
G03 X199.922639 Y482.359662 Z-1.000000 I-872.962525 J-3961.516794
G03 X198.404910 Y482.518120 Z-1.000000 I-1.517729 J-7.189245
G03 X196.999345 Y482.098560 Z-1.000000 I0.000000 J-2.564166
G03 X158.910780 Y456.633840 Z-1.000000 I1371.297942 J-2092.320931
G01 X158.910410 Y456.633840 Z-1.000000
G00 Z5.000000
M05 (turn off plasma)
(End cutting path id: path826)


(Start cutting path id: path826)
(Change tool to Plasma cutter)
 
G00 Z5.000000
G00 X204.921370 Y463.881460
G31 Z-100 F500 (find metal)
G92 Z0 (zero z)
G00 Z10 F500 (going up)
M03 (turn on plasma)
G04 P0.2 (pause)
G01 Z1 (going to cutting z)
G01 Z-1.000000 F100.0(Penetrate)
G02 X211.048234 Y447.327745 Z-1.000000 I-151.933101 J-65.644198 F400.000000
G02 X210.354970 Y446.386500 Z-1.000000 I-0.693264 J-0.215315
G03 X209.319676 Y446.298811 Z-1.000000 I-0.000000 J-6.155397
G03 X192.775150 Y443.386980 Z-1.000000 I270.670451 J-1586.360820
G02 X176.227577 Y440.503855 Z-1.000000 I-216.170548 J1191.772931
G02 X174.755790 Y440.376010 Z-1.000000 I-1.544166 J9.241157
G02 X174.384265 Y440.992190 Z-1.000000 I-0.003077 J0.418240
G02 X185.101850 Y459.634760 Z-1.000000 I329.212191 J-176.861535
G02 X197.106599 Y478.582253 Z-1.000000 I672.539511 J-412.830725
G02 X197.687610 Y478.888430 Z-1.000000 I0.566229 J-0.370132
G02 X198.223618 Y478.542654 Z-1.000000 I-0.014830 J-0.611326
G02 X204.921370 Y463.881460 Z-1.000000 I-350.940901 J-169.182694
G01 X204.921370 Y463.881460 Z-1.000000
G00 Z5.000000
M05 (turn off plasma)
(End cutting path id: path826)


(Start cutting path id: path826)
(Change tool to Plasma cutter)
 
G00 Z5.000000
G00 X225.419550 Y466.361500
G31 Z-100 F500 (find metal)
G92 Z0 (zero z)
G00 Z10 F500 (going up)
M03 (turn on plasma)
G04 P0.2 (pause)
G01 Z1 (going to cutting z)
G01 Z-1.000000 F100.0(Penetrate)
G02 X246.517932 Y454.094730 Z-1.000000 I-170.666280 J-317.817171 F400.000000
G02 X246.391980 Y453.199120 Z-1.000000 I-0.263358 J-0.419625
G02 X240.413623 Y451.803220 Z-1.000000 I-16.491492 J57.129744
G02 X227.892589 Y449.756575 Z-1.000000 I-71.378232 J397.355959
G02 X214.755011 Y448.081121 Z-1.000000 I-49.604550 J336.614505
G02 X213.901770 Y448.411270 Z-1.000000 I-0.106874 J0.991431
G02 X213.090392 Y449.666464 Z-1.000000 I3.714207 J3.290765
G02 X201.946570 Y474.990700 Z-1.000000 I1550.787374 J697.531392
G02 X200.873039 Y478.492051 Z-1.000000 I15.475558 J6.660129
G02 X201.203800 Y478.882220 Z-1.000000 I0.322820 J0.061618
G02 X202.091516 Y478.654924 Z-1.000000 I-0.049213 J-2.039363
G02 X225.419550 Y466.361500 Z-1.000000 I-775.955049 J-1500.734737
G01 X225.419550 Y466.361500 Z-1.000000
G00 Z5.000000
M05 (turn off plasma)
(End cutting path id: path826)


(Start cutting path id: path826)
(Change tool to Plasma cutter)
 
G00 Z5.000000
G00 X246.192530 Y470.475460
G31 Z-100 F500 (find metal)
G92 Z0 (zero z)
G00 Z10 F500 (going up)
M03 (turn on plasma)
G04 P0.2 (pause)
G01 Z1 (going to cutting z)
G01 Z-1.000000 F100.0(Penetrate)
G03 X284.827319 Y462.283484 Z-1.000000 I700.327835 J3207.668007 F400.000000
G03 X287.166160 Y462.044750 Z-1.000000 I2.344835 J11.396009
G02 X288.829587 Y461.758254 Z-1.000000 I-0.002531 J-4.986961
G02 X288.901840 Y461.429590 Z-1.000000 I-0.066217 J-0.186831
G02 X287.957277 Y460.926147 Z-1.000000 I-1.335670 J1.368172
G02 X272.283861 Y457.822210 Z-1.000000 I-155.712836 J745.152697
G02 X256.910972 Y455.101482 Z-1.000000 I-145.851901 J779.313804
G02 X253.605640 Y454.823770 Z-1.000000 I-3.352639 J20.094260
G02 X250.935575 Y455.423899 Z-1.000000 I-0.011960 J6.186619
G02 X228.315370 Y466.858220 Z-1.000000 I227.630271 J478.406359
G02 X206.661817 Y478.695984 Z-1.000000 I698.484552 J1303.386065
G02 X206.715030 Y478.902090 Z-1.000000 I0.053577 J0.096089
G02 X207.573633 Y478.812395 Z-1.000000 I0.008527 J-4.072682
G02 X246.192530 Y470.475460 Z-1.000000 I-1760.166257 J-8247.172877
G01 X246.192530 Y470.475460 Z-1.000000
G00 Z5.000000
M05 (turn off plasma)
(End cutting path id: path826)


(Start cutting path id: path826)
(Change tool to Plasma cutter)
 
G00 Z5.000000
G00 X504.909230 Y478.488390
G31 Z-100 F500 (find metal)
G92 Z0 (zero z)
G00 Z10 F500 (going up)
M03 (turn on plasma)
G04 P0.2 (pause)
G01 Z1 (going to cutting z)
G01 Z-1.000000 F100.0(Penetrate)
G02 X501.473816 Y476.221202 Z-1.000000 I-13.283581 J16.391892 F400.000000
G02 X480.884221 Y465.610009 Z-1.000000 I-553.321461 J1048.364644
G02 X459.757169 Y455.249895 Z-1.000000 I-519.408746 J1032.491853
G02 X457.871450 Y454.825410 Z-1.000000 I-1.873088 J3.920179
G02 X454.848550 Y455.077435 Z-1.000000 I0.058556 J18.957384
G02 X440.111955 Y457.644384 Z-1.000000 I132.313947 J803.185149
G02 X425.086787 Y460.556043 Z-1.000000 I141.549802 J770.669365
G02 X424.245490 Y461.001850 Z-1.000000 I0.337074 J1.652824
G02 X424.328792 Y461.299371 Z-1.000000 I0.122995 J0.125985
G02 X462.377552 Y469.958813 Z-1.000000 I1215.236996 J-5251.714588
G02 X500.079198 Y478.258704 Z-1.000000 I1215.946906 J-5433.570715
G02 X503.675560 Y478.777040 Z-1.000000 I5.490222 J-25.357263
G02 X504.864358 Y478.683728 Z-1.000000 I0.288679 J-3.941531
G02 X504.909230 Y478.488390 Z-1.000000 I-0.025416 J-0.108661
G01 X504.909230 Y478.488390 Z-1.000000
G00 Z5.000000
M05 (turn off plasma)
(End cutting path id: path826)


(Start cutting path id: path826)
(Change tool to Plasma cutter)
 
G00 Z5.000000
G00 X509.528920 Y474.990700
G31 Z-100 F500 (find metal)
G92 Z0 (zero z)
G00 Z10 F500 (going up)
M03 (turn on plasma)
G04 P0.2 (pause)
G01 Z1 (going to cutting z)
G01 Z-1.000000 F100.0(Penetrate)
G02 X498.378071 Y449.669563 Z-1.000000 I-1510.340153 J650.003354 F400.000000
G02 X497.542050 Y448.380340 Z-1.000000 I-4.624419 J2.083115
G02 X495.459431 Y447.624431 Z-1.000000 I-1.741043 J1.549893
G02 X465.613960 Y453.110110 Z-1.000000 I64.077217 J432.551215
G02 X465.423059 Y454.162191 Z-1.000000 I0.124466 J0.565945
G02 X485.969540 Y466.315210 Z-1.000000 I157.185266 J-242.300066
G02 X509.383979 Y478.654901 Z-1.000000 I804.981971 J-1499.060972
G02 X510.271690 Y478.882220 Z-1.000000 I0.936919 J-1.811820
G02 X510.602450 Y478.492037 Z-1.000000 I0.007929 J-0.328564
G02 X509.528920 Y474.990700 Z-1.000000 I-16.548579 J3.158645
G01 X509.528920 Y474.990700 Z-1.000000
G00 Z5.000000
M05 (turn off plasma)
(End cutting path id: path826)


(Start cutting path id: path826)
(Change tool to Plasma cutter)
 
G00 Z5.000000
G00 X526.373640 Y459.634760
G31 Z-100 F500 (find metal)
G92 Z0 (zero z)
G00 Z10 F500 (going up)
M03 (turn on plasma)
G04 P0.2 (pause)
G01 Z1 (going to cutting z)
G01 Z-1.000000 F100.0(Penetrate)
G02 X537.091234 Y440.991950 Z-1.000000 I-318.440459 J-195.470867 F400.000000
G02 X536.719700 Y440.376010 Z-1.000000 I-0.368310 J-0.197861
G02 X535.247915 Y440.503604 Z-1.000000 I0.068759 J9.345410
G02 X518.700350 Y443.386980 Z-1.000000 I200.080395 J1197.176755
G03 X502.155813 Y446.298811 Z-1.000000 I-287.219687 J-1583.476694
G03 X501.120520 Y446.386500 Z-1.000000 I-1.035293 J-6.067706
G02 X500.410138 Y446.719302 Z-1.000000 I0.000000 J0.924574
G02 X500.077340 Y447.638760 Z-1.000000 I1.103746 J0.919458
G02 X500.428777 Y449.420039 Z-1.000000 I4.689980 J0.000000
G02 X506.611419 Y463.981653 Z-1.000000 I613.185522 J-251.756011
G02 X513.199281 Y478.505158 Z-1.000000 I589.302324 J-258.551648
G02 X513.787880 Y478.888430 Z-1.000000 I0.603130 J-0.282642
G02 X514.368908 Y478.583119 Z-1.000000 I0.016360 J-0.674389
G02 X526.373640 Y459.634760 Z-1.000000 I-661.565177 J-432.411583
G01 X526.373640 Y459.634760 Z-1.000000
G00 Z5.000000
M05 (turn off plasma)
(End cutting path id: path826)


(Start cutting path id: path826)
(Change tool to Plasma cutter)
 
G00 Z5.000000
G00 X188.434580 Y468.366570
G31 Z-100 F500 (find metal)
G92 Z0 (zero z)
G00 Z10 F500 (going up)
M03 (turn on plasma)
G04 P0.2 (pause)
G01 Z1 (going to cutting z)
G01 Z-1.000000 F100.0(Penetrate)
G02 X171.124376 Y441.008786 Z-1.000000 I-698.966193 J423.104494 F400.000000
G02 X169.480940 Y439.685200 Z-1.000000 I-2.896052 J1.913813
G02 X166.150468 Y438.717344 Z-1.000000 I-7.254516 J18.749241
G02 X146.595831 Y434.992580 Z-1.000000 I-236.188169 J1186.771905
G02 X126.643376 Y431.545419 Z-1.000000 I-203.206271 J1116.707952
G02 X126.330750 Y431.833200 Z-1.000000 I-0.043576 J0.266360
G02 X126.696062 Y432.469937 Z-1.000000 I0.856350 J-0.068147
G02 X159.275713 Y454.970195 Z-1.000000 I2793.430851 J-4009.960803
G02 X191.964446 Y477.158051 Z-1.000000 I2772.803892 J-4049.918997
G02 X193.180480 Y477.602320 Z-1.000000 I1.507831 J-2.240799
G02 X193.408941 Y477.269978 Z-1.000000 I0.024766 J-0.227671
G02 X188.434580 Y468.366570 Z-1.000000 I-130.252961 J66.931422
G01 X188.434580 Y468.366570 Z-1.000000
G00 Z5.000000
M05 (turn off plasma)
(End cutting path id: path826)


(Start cutting path id: path826)
(Change tool to Plasma cutter)
 
G00 Z5.000000
G00 X552.084820 Y454.817210
G31 Z-100 F500 (find metal)
G92 Z0 (zero z)
G00 Z10 F500 (going up)
M03 (turn on plasma)
G04 P0.2 (pause)
G01 Z1 (going to cutting z)
G01 Z-1.000000 F100.0(Penetrate)
G02 X583.896873 Y432.447881 Z-1.000000 I-830.179931 J-1214.427349 F400.000000
G02 X583.730490 Y431.933840 Z-1.000000 I-0.166383 J-0.230093
G02 X581.068522 Y432.154213 Z-1.000000 I-0.000000 J16.187636
G02 X564.247509 Y435.089878 Z-1.000000 I185.012772 J1109.760556
G02 X547.662301 Y438.240139 Z-1.000000 I206.417166 J1131.959437
G02 X543.862810 Y439.203860 Z-1.000000 I7.121683 J36.049037
G02 X540.481983 Y440.788541 Z-1.000000 I4.076384 J13.095477
G02 X538.822110 Y442.469450 Z-1.000000 I2.985115 J4.607762
G02 X517.692194 Y477.110526 Z-1.000000 I1180.493111 J743.826743
G02 X518.029100 Y477.700570 Z-1.000000 I0.336906 J0.198838
G02 X518.559925 Y477.538793 Z-1.000000 I0.000000 J-0.951766
G02 X552.084820 Y454.817210 Z-1.000000 I-2827.478388 J-4207.937809
G01 X552.084820 Y454.817210 Z-1.000000
G00 Z5.000000
M05 (turn off plasma)
(End cutting path id: path826)


(Start cutting path id: path826)
(Change tool to Plasma cutter)
 
G00 Z5.000000
G00 X304.986220 Y423.202030
G31 Z-100 F500 (find metal)
G92 Z0 (zero z)
G00 Z10 F500 (going up)
M03 (turn on plasma)
G04 P0.2 (pause)
G01 Z1 (going to cutting z)
G01 Z-1.000000 F100.0(Penetrate)
G03 X313.946638 Y386.777290 Z-1.000000 I20709.439622 J5075.168902 F400.000000
G03 X316.733550 Y375.628730 Z-1.000000 I1942.900640 J479.762766
G02 X319.112674 Y364.867789 Z-1.000000 I-176.688872 J-44.707411
G02 X318.831600 Y364.561433 Z-1.000000 I-0.254837 J-0.048310
G02 X317.895759 Y365.092545 Z-1.000000 I0.134952 J1.327842
G02 X286.568605 Y407.566819 Z-1.000000 I5044.997158 J3753.757662
G02 X255.625170 Y450.265285 Z-1.000000 I5087.790814 J3719.666509
G02 X255.193490 Y451.606150 Z-1.000000 I1.866629 J1.340865
G02 X255.756953 Y452.331009 Z-1.000000 I0.747974 J0.000000
G02 X271.138935 Y455.895690 Z-1.000000 I90.466653 J-355.403533
G02 X286.107717 Y458.755358 Z-1.000000 I89.520115 J-427.981841
G02 X292.897060 Y459.492530 Z-1.000000 I9.220269 J-53.285094
G02 X294.913520 Y458.106666 Z-1.000000 I0.091216 J-2.027205
G02 X304.986220 Y423.202030 Z-1.000000 I-424.423449 J-141.384843
G01 X304.986220 Y423.202030 Z-1.000000
G00 Z5.000000
M05 (turn off plasma)
(End cutting path id: path826)


(Start cutting path id: path826)
(Change tool to Plasma cutter)
 
G00 Z5.000000
G00 X436.936160 Y456.463280
G31 Z-100 F500 (find metal)
G92 Z0 (zero z)
G00 Z10 F500 (going up)
M03 (turn on plasma)
G04 P0.2 (pause)
G01 Z1 (going to cutting z)
G01 Z-1.000000 F100.0(Penetrate)
G02 X454.892499 Y452.967653 Z-1.000000 I-83.368163 J-476.112498 F400.000000
G02 X456.113940 Y452.351760 Z-1.000000 I-0.566589 J-2.642790
G02 X456.224018 Y451.415354 Z-1.000000 I-0.467179 J-0.529591
G02 X425.379857 Y408.205542 Z-1.000000 I-3589.292006 J2529.505855
G02 X393.989680 Y365.330827 Z-1.000000 I-3599.071683 J2602.086221
G02 X392.643890 Y364.563251 Z-1.000000 I-1.545137 J1.145514
G02 X392.362868 Y364.868794 Z-1.000000 I-0.026814 J0.257344
G02 X394.741940 Y375.628730 Z-1.000000 I179.139953 J-33.965696
G03 X397.528852 Y386.777290 Z-1.000000 I-1940.113733 J490.911307
G03 X406.489270 Y423.202030 Z-1.000000 I-20700.479045 J5111.594285
G02 X416.048533 Y458.830651 Z-1.000000 I821.834140 J-201.403812
G02 X417.120830 Y459.634760 Z-1.000000 I1.072297 J-0.312910
G02 X418.812323 Y459.500252 Z-1.000000 I-0.000000 J-10.702884
G02 X436.936160 Y456.463280 Z-1.000000 I-198.403786 J-1239.618233
G01 X436.936160 Y456.463280 Z-1.000000
G00 Z5.000000
M05 (turn off plasma)
(End cutting path id: path826)


(Start cutting path id: path826)
(Change tool to Plasma cutter)
 
G00 Z5.000000
G00 X281.717440 Y411.429720
G31 Z-100 F500 (find metal)
G92 Z0 (zero z)
G00 Z10 F500 (going up)
M03 (turn on plasma)
G04 P0.2 (pause)
G01 Z1 (going to cutting z)
G01 Z-1.000000 F100.0(Penetrate)
G02 X307.732363 Y376.162123 Z-1.000000 I-37599.354742 J-27762.158050 F400.000000
G02 X312.609095 Y369.323174 Z-1.000000 I-216.386376 J-159.459466
G02 X314.459168 Y366.279304 Z-1.000000 I-25.427156 J-17.538874
G02 X314.348124 Y366.132267 Z-1.000000 I-0.089732 J-0.047683
G02 X313.784686 Y366.401867 Z-1.000000 I0.281332 J1.311522
G03 X311.604060 Y368.101308 Z-1.000000 I-45.189454 J-55.735777
G02 X303.265417 Y374.574189 Z-1.000000 I182.407469 J243.592686
G02 X260.667345 Y408.971772 Z-1.000000 I9243.247264 J11490.441219
G02 X216.698436 Y444.756610 Z-1.000000 I8966.266694 J11061.776149
G02 X216.421950 Y445.252410 Z-1.000000 I0.487930 J0.597089
G02 X216.945812 Y445.987418 Z-1.000000 I0.655731 J0.086831
G02 X250.875640 Y452.261810 Z-1.000000 I192.700473 J-947.182354
G02 X251.370870 Y452.064334 Z-1.000000 I0.084548 J-0.507677
G02 X281.717440 Y411.429720 Z-1.000000 I-3716.273827 J-2807.020800
G01 X281.717440 Y411.429720 Z-1.000000
G00 Z5.000000
M05 (turn off plasma)
(End cutting path id: path826)


(Start cutting path id: path826)
(Change tool to Plasma cutter)
 
G00 Z5.000000
G00 X479.413340 Y448.681080
G31 Z-100 F500 (find metal)
G92 Z0 (zero z)
G00 Z10 F500 (going up)
M03 (turn on plasma)
G04 P0.2 (pause)
G01 Z1 (going to cutting z)
G01 Z-1.000000 F100.0(Penetrate)
G02 X494.762360 Y445.689934 Z-1.000000 I-60.633477 J-352.016943 F400.000000
G02 X495.055410 Y445.275830 Z-1.000000 I-0.079968 J-0.367335
G02 X494.773026 Y444.764947 Z-1.000000 I-0.780006 J0.097656
G02 X450.851431 Y409.000153 Z-1.000000 I-8668.181769 J10600.263545
G02 X408.303042 Y374.635322 Z-1.000000 I-8938.506818 J11023.578821
G02 X399.878560 Y368.101308 Z-1.000000 I-187.872908 J233.531671
G03 X397.694622 Y366.402253 Z-1.000000 I42.989136 J-57.510653
G02 X397.129350 Y366.132215 Z-1.000000 I-0.847121 J1.046623
G02 X397.017884 Y366.279805 Z-1.000000 I-0.021355 J0.099759
G02 X398.866079 Y369.322102 Z-1.000000 I27.153228 J-14.413038
G02 X403.742132 Y376.158972 Z-1.000000 I220.368859 J-152.009770
G02 X429.758050 Y411.417650 Z-1.000000 I37472.577049 J-27622.234893
G02 X460.331627 Y451.360097 Z-1.000000 I1179.411619 J-871.097363
G02 X461.833520 Y451.865380 Z-1.000000 I1.140119 J-0.904125
G03 X463.698435 Y451.457696 Z-1.000000 I6.587441 J25.664392
G03 X479.413340 Y448.681080 Z-1.000000 I330.061091 J1822.198199
G01 X479.413340 Y448.681080 Z-1.000000
G00 Z5.000000
M05 (turn off plasma)
(End cutting path id: path826)


(Start cutting path id: path826)
(Change tool to Plasma cutter)
 
G00 Z5.000000
G00 X314.676350 Y420.492160
G31 Z-100 F500 (find metal)
G92 Z0 (zero z)
G00 Z10 F500 (going up)
M03 (turn on plasma)
G04 P0.2 (pause)
G01 Z1 (going to cutting z)
G01 Z-1.000000 F100.0(Penetrate)
G01 X327.121910 Y392.791252 Z-1.000000 F400.000000
G01 X324.740210 Y378.404747 Z-1.000000
G02 X322.224322 Y364.088235 Z-1.000000 I-724.682801 J119.971562
G02 X321.999930 Y363.668186 Z-1.000000 I-0.775182 J0.144146
G02 X321.760563 Y363.735288 Z-1.000000 I-0.100290 J0.102731
G02 X311.372100 Y405.153410 Z-1.000000 I4103.514662 J1051.252449
G03 X301.023239 Y446.965267 Z-1.000000 I-10865.577663 J-2667.154523
G03 X300.481100 Y448.795270 Z-1.000000 I-21.314370 J-5.319087
G02 X300.608662 Y449.392027 Z-1.000000 I0.559259 J0.192465
G02 X301.045070 Y449.397470 Z-1.000000 I0.220817 J-0.206799
G02 X301.996901 Y448.033067 Z-1.000000 I-3.535133 J-3.480379
G02 X314.676350 Y420.492160 Z-1.000000 I-1490.518233 J-702.902945
G01 X314.676350 Y420.492160 Z-1.000000
G00 Z5.000000
M05 (turn off plasma)
(End cutting path id: path826)


(Start cutting path id: path826)
(Change tool to Plasma cutter)
 
G00 Z5.000000
G00 X400.428800 Y406.362580
G31 Z-100 F500 (find metal)
G92 Z0 (zero z)
G00 Z10 F500 (going up)
M03 (turn on plasma)
G04 P0.2 (pause)
G01 Z1 (going to cutting z)
G01 Z-1.000000 F100.0(Penetrate)
G02 X389.706940 Y363.739147 Z-1.000000 I-4414.799668 J1087.875946 F400.000000
G02 X389.470650 Y363.672968 Z-1.000000 I-0.137282 J0.035239
G02 X389.249376 Y364.087309 Z-1.000000 I0.543103 J0.556292
G02 X386.734820 Y378.404747 Z-1.000000 I732.087953 J135.955351
G01 X384.352670 Y392.791252 Z-1.000000
G01 X396.090160 Y418.685580 Z-1.000000
G03 X407.761920 Y444.607717 Z-1.000000 I-5157.224842 J2337.692452
G03 X408.958000 Y447.456830 Z-1.000000 I-61.068081 J27.312479
G02 X410.139843 Y450.008007 Z-1.000000 I22.022261 J-8.652566
G02 X410.336183 Y449.983232 Z-1.000000 I0.093397 J-0.050210
G02 X410.363992 Y449.364231 Z-1.000000 I-1.534116 J-0.379047
G02 X409.509150 Y444.627278 Z-1.000000 I-91.132808 J14.000438
G02 X407.409354 Y435.195428 Z-1.000000 I-328.313368 J68.142166
G02 X400.428800 Y406.362580 Z-1.000000 I-3546.780113 J843.428967
G01 X400.428800 Y406.362580 Z-1.000000
G00 Z5.000000
M05 (turn off plasma)
(End cutting path id: path826)


(Start cutting path id: path826)
(Change tool to Plasma cutter)
 
G00 Z5.000000
G00 X220.949380 Y431.020780
G31 Z-100 F500 (find metal)
G92 Z0 (zero z)
G00 Z10 F500 (going up)
M03 (turn on plasma)
G04 P0.2 (pause)
G01 Z1 (going to cutting z)
G01 Z-1.000000 F100.0(Penetrate)
G03 X228.662901 Y416.886018 Z-1.000000 I7798.505953 J4246.572189 F400.000000
G03 X236.855520 Y401.936050 Z-1.000000 I8738.071942 J4778.765604
G02 X243.157498 Y389.114005 Z-1.000000 I-138.140310 J-75.855064
G02 X242.636920 Y388.687783 Z-1.000000 I-0.320324 J-0.139786
G02 X175.120720 Y436.812073 Z-1.000000 I2606.117291 J3727.687749
G02 X175.049090 Y437.798260 Z-1.000000 I0.380249 J0.523313
G02 X175.714199 Y438.154621 Z-1.000000 I0.948683 J-0.971757
G02 X192.145184 Y441.544788 Z-1.000000 I254.415791 J-1191.554034
G02 X208.189266 Y444.632470 Z-1.000000 I246.927952 J-1239.848584
G02 X211.398150 Y445.037530 Z-1.000000 I5.086592 J-27.383071
G02 X212.804337 Y444.353798 Z-1.000000 I0.106127 J-1.569608
G02 X220.949380 Y431.020780 Z-1.000000 I-129.815136 J-88.457501
G01 X220.949380 Y431.020780 Z-1.000000
G00 Z5.000000
M05 (turn off plasma)
(End cutting path id: path826)


(Start cutting path id: path826)
(Change tool to Plasma cutter)
 
G00 Z5.000000
G00 X515.997080 Y442.132660
G31 Z-100 F500 (find metal)
G92 Z0 (zero z)
G00 Z10 F500 (going up)
M03 (turn on plasma)
G04 P0.2 (pause)
G01 Z1 (going to cutting z)
G01 Z-1.000000 F100.0(Penetrate)
G02 X532.713815 Y438.887691 Z-1.000000 I-128.174017 J-704.980785 F400.000000
G02 X534.959750 Y438.217320 Z-1.000000 I-2.744583 J-13.292583
G02 X535.143750 Y436.853847 Z-1.000000 I-0.289905 J-0.733275
G02 X473.097890 Y391.697633 Z-1.000000 I-1474.296924 J1960.519440
G01 X466.413340 Y386.990850 Z-1.000000
G01 X474.619370 Y401.934930 Z-1.000000
G03 X482.812590 Y416.886012 Z-1.000000 I-8730.400152 J4793.996005
G03 X490.526110 Y431.020780 Z-1.000000 I-7792.898790 J4261.854192
G02 X498.353994 Y444.953245 Z-1.000000 I529.550212 J-288.359827
G02 X498.725670 Y445.172340 Z-1.000000 I0.380309 J-0.220356
G02 X499.220658 Y445.132782 Z-1.000000 I0.038426 J-2.635852
G02 X515.997080 Y442.132660 Z-1.000000 I-511.092726 J-2906.392169
G01 X515.997080 Y442.132660 Z-1.000000
G00 Z5.000000
M05 (turn off plasma)
(End cutting path id: path826)


(Start cutting path id: path826)
(Change tool to Plasma cutter)
 
G00 Z5.000000
G00 X273.367910 Y396.550784
G31 Z-100 F500 (find metal)
G92 Z0 (zero z)
G00 Z10 F500 (going up)
M03 (turn on plasma)
G04 P0.2 (pause)
G01 Z1 (going to cutting z)
G01 Z-1.000000 F100.0(Penetrate)
G02 X316.058385 Y361.779409 Z-1.000000 I-4580.933331 J-5667.822532 F400.000000
G02 X316.925340 Y360.798745 Z-1.000000 I-2.613296 J-3.183830
G02 X316.707703 Y360.432643 Z-1.000000 I-0.201817 J-0.127766
G02 X314.171830 Y360.981511 Z-1.000000 I0.587101 J8.845050
G03 X310.699099 Y362.258911 Z-1.000000 I-86.327263 J-229.329593
G03 X280.483760 Y373.085268 Z-1.000000 I-6235.666751 J-17355.578546
G02 X250.481482 Y384.239563 Z-1.000000 I422.044083 J1181.120016
G02 X248.799340 Y385.327362 Z-1.000000 I1.770532 J4.582410
G02 X247.646913 Y386.829023 Z-1.000000 I4.875132 J4.934384
G02 X232.659556 Y413.419175 Z-1.000000 I2988.757578 J1702.111503
G02 X217.830066 Y440.286680 Z-1.000000 I2989.873255 J1667.783578
G02 X217.566510 Y441.319160 Z-1.000000 I1.890588 J1.032480
G02 X217.773192 Y441.423274 Z-1.000000 I0.129564 J0.000000
G02 X224.043290 Y436.521760 Z-1.000000 I-91.197224 J-123.122154
G03 X230.542477 Y431.209409 Z-1.000000 I632.062214 J766.639879
G03 X273.367910 Y396.550784 Z-1.000000 I26966.939116 J33277.524127
G01 X273.367910 Y396.550784 Z-1.000000
G00 Z5.000000
M05 (turn off plasma)
(End cutting path id: path826)


(Start cutting path id: path826)
(Change tool to Plasma cutter)
 
G00 Z5.000000
G00 X479.037250 Y413.768390
G31 Z-100 F500 (find metal)
G92 Z0 (zero z)
G00 Z10 F500 (going up)
M03 (turn on plasma)
G04 P0.2 (pause)
G01 Z1 (going to cutting z)
G01 Z-1.000000 F100.0(Penetrate)
G02 X463.941778 Y386.940566 Z-1.000000 I-1482.866729 J816.718148 F400.000000
G02 X462.691830 Y385.327362 Z-1.000000 I-6.450650 J3.707267
G02 X460.996509 Y384.237655 Z-1.000000 I-3.498217 J3.578774
G02 X430.991730 Y373.085268 Z-1.000000 I-454.837288 J1177.771235
G03 X400.774063 Y362.265114 Z-1.000000 I8135.056033 J-22766.544877
G03 X397.065750 Y360.911837 Z-1.000000 I123.435774 J-344.001974
G01 X393.364730 Y359.538547 Z-1.000000
G01 X395.832080 Y361.962304 Z-1.000000
G02 X399.452611 Y365.204089 Z-1.000000 I36.847858 J-37.510229
G02 X445.918110 Y402.938011 Z-1.000000 I9614.783725 J-11792.155474
G02 X493.231303 Y441.048154 Z-1.000000 I9448.211641 J-11681.394379
G02 X493.599820 Y441.039370 Z-1.000000 I0.179043 J-0.223201
G02 X493.656660 Y440.723954 Z-1.000000 I-0.171148 J-0.193672
G02 X479.037250 Y413.768390 Z-1.000000 I-2087.339570 J1114.631059
G01 X479.037250 Y413.768390 Z-1.000000
G00 Z5.000000
M05 (turn off plasma)
(End cutting path id: path826)


(Start cutting path id: path826)
(Change tool to Plasma cutter)
 
G00 Z5.000000
G00 X172.411830 Y426.213000
G31 Z-100 F500 (find metal)
G92 Z0 (zero z)
G00 Z10 F500 (going up)
M03 (turn on plasma)
G04 P0.2 (pause)
G01 Z1 (going to cutting z)
G01 Z-1.000000 F100.0(Penetrate)
G02 X173.896149 Y412.510976 Z-1.000000 I-87.003149 J-16.356326 F400.000000
G02 X172.845900 Y411.742470 Z-1.000000 I-0.788979 J-0.023666
G02 X125.989940 Y428.706950 Z-1.000000 I823.721744 J2348.313112
G02 X126.001240 Y429.235330 Z-1.000000 I0.097918 J0.262217
G02 X128.763847 Y429.945825 Z-1.000000 I7.023533 J-21.583357
G02 X146.522803 Y433.235221 Z-1.000000 I297.463079 J-1556.374644
G02 X164.315891 Y436.321637 Z-1.000000 I279.757224 J-1559.960137
G02 X167.166210 Y436.617690 Z-1.000000 I3.788246 J-22.603111
G02 X169.317970 Y435.352753 Z-1.000000 I0.094292 J-2.302229
G02 X172.411830 Y426.213000 Z-1.000000 I-30.748090 J-15.501932
G01 X172.411830 Y426.213000 Z-1.000000
G00 Z5.000000
M05 (turn off plasma)
(End cutting path id: path826)


(Start cutting path id: path826)
(Change tool to Plasma cutter)
 
G00 Z5.000000
G00 X565.599670 Y433.039570
G31 Z-100 F500 (find metal)
G92 Z0 (zero z)
G00 Z10 F500 (going up)
M03 (turn on plasma)
G04 P0.2 (pause)
G01 Z1 (going to cutting z)
G01 Z-1.000000 F100.0(Penetrate)
G02 X585.753246 Y429.210174 Z-1.000000 I-300.152380 J-1634.607301 F400.000000
G02 X586.145580 Y429.004090 Z-1.000000 I-0.149487 J-0.761085
G02 X586.096595 Y428.773118 Z-1.000000 I-0.097607 J-0.099979
G02 X562.475058 Y420.114274 Z-1.000000 I-1078.270848 J2904.999422
G02 X538.808113 Y411.653431 Z-1.000000 I-1080.412099 J2984.832597
G02 X537.674840 Y411.459260 Z-1.000000 I-1.133273 J3.210064
G02 X537.079042 Y412.113776 Z-1.000000 I0.000000 J0.598432
G02 X539.063660 Y426.213000 Z-1.000000 I154.183234 J-14.513667
G02 X541.828152 Y435.807100 Z-1.000000 I51.875869 J-9.752434
G02 X543.215070 Y436.751400 Z-1.000000 I1.386918 J-0.546351
G02 X545.369120 Y436.574017 Z-1.000000 I0.000000 J-13.167512
G02 X565.599670 Y433.039570 Z-1.000000 I-194.515681 J-1173.038788
G01 X565.599670 Y433.039570 Z-1.000000
G00 Z5.000000
M05 (turn off plasma)
(End cutting path id: path826)


(Start cutting path id: path826)
(Change tool to Plasma cutter)
 
G00 Z5.000000
G00 X208.005550 Y411.137520
G31 Z-100 F500 (find metal)
G92 Z0 (zero z)
G00 Z10 F500 (going up)
M03 (turn on plasma)
G04 P0.2 (pause)
G01 Z1 (going to cutting z)
G01 Z-1.000000 F100.0(Penetrate)
G02 X239.615004 Y388.348656 Z-1.000000 I-2801.326686 J-3918.916359 F400.000000
G02 X239.772590 Y388.039233 Z-1.000000 I-0.224986 J-0.309423
G02 X239.589476 Y387.908742 Z-1.000000 I-0.138052 J0.000000
G02 X208.622390 Y398.796160 Z-1.000000 I960.428991 J2781.232140
G01 X177.472170 Y409.943590 Z-1.000000
G01 X176.007410 Y417.024450 Z-1.000000
G02 X173.540241 Y434.216663 Z-1.000000 I138.472711 J28.644663
G02 X174.558940 Y434.850170 Z-1.000000 I0.672356 J0.054634
G02 X176.196935 Y433.781841 Z-1.000000 I-12.945033 J-21.637594
G02 X208.005550 Y411.137520 Z-1.000000 I-5816.587841 J-8204.259360
G01 X208.005550 Y411.137520 Z-1.000000
G00 Z5.000000
M05 (turn off plasma)
(End cutting path id: path826)


(Start cutting path id: path826)
(Change tool to Plasma cutter)
 
G00 Z5.000000
G00 X536.530540 Y422.670680
G31 Z-100 F500 (find metal)
G92 Z0 (zero z)
G00 Z10 F500 (going up)
M03 (turn on plasma)
G04 P0.2 (pause)
G01 Z1 (going to cutting z)
G01 Z-1.000000 F100.0(Penetrate)
G02 X534.170447 Y411.027782 Z-1.000000 I-211.855996 J36.883974 F400.000000
G02 X533.621720 Y410.112870 Z-1.000000 I-1.689674 J0.391390
G02 X531.612956 Y408.928610 Z-1.000000 I-4.164683 J4.768432
G02 X502.038426 Y398.450548 Z-1.000000 I-764.765348 J2111.588428
G02 X473.281659 Y388.735270 Z-1.000000 I-644.802672 J1861.168705
G02 X473.049420 Y389.127577 Z-1.000000 I-0.072996 J0.221682
G02 X476.733024 Y392.149669 Z-1.000000 I25.479094 J-27.300259
G02 X506.741285 Y413.518065 Z-1.000000 I2422.586097 J-3370.353353
G02 X537.548578 Y435.035883 Z-1.000000 I2325.571696 J-3296.733749
G02 X538.067080 Y434.992130 Z-1.000000 I0.232703 J-0.336490
G02 X538.279627 Y434.384862 Z-1.000000 I-0.505429 J-0.517734
G02 X536.530540 Y422.670680 Z-1.000000 I-243.304868 J30.341069
G01 X536.530540 Y422.670680 Z-1.000000
G00 Z5.000000
M05 (turn off plasma)
(End cutting path id: path826)


(Start cutting path id: path826)
(Change tool to Plasma cutter)
 
G00 Z5.000000
G00 X150.948230 Y417.503850
G31 Z-100 F500 (find metal)
G92 Z0 (zero z)
G00 Z10 F500 (going up)
M03 (turn on plasma)
G04 P0.2 (pause)
G01 Z1 (going to cutting z)
G01 Z-1.000000 F100.0(Penetrate)
G02 X172.401178 Y409.678522 Z-1.000000 I-326.381636 J-928.086470 F400.000000
G02 X173.672890 Y408.914510 Z-1.000000 I-1.468045 J-3.883986
G02 X174.099763 Y407.795218 Z-1.000000 I-0.846310 J-0.963809
G02 X172.670076 Y398.854772 Z-1.000000 I-121.313706 J14.815006
G02 X170.651836 Y390.161019 Z-1.000000 I-134.760312 J26.703243
G02 X169.381630 Y387.258284 Z-1.000000 I-10.116937 J2.697782
G02 X168.272340 Y387.081909 Z-1.000000 I-0.632313 J0.400293
G02 X147.357520 Y405.474970 Z-1.000000 I293.277508 J354.574663
G02 X126.453201 Y425.256145 Z-1.000000 I1585.074636 J1696.008871
G02 X126.274790 Y425.674160 Z-1.000000 I0.400496 J0.418015
G02 X126.482932 Y425.876810 Z-1.000000 I0.202722 J0.000000
G02 X127.816890 Y425.632960 Z-1.000000 I-0.118113 J-4.416697
G02 X129.358152 Y425.093916 Z-1.000000 I-178.516743 J-512.897064
G02 X150.948230 Y417.503900 Z-1.000000 I-35225.644212 J-100234.925504
G01 X150.948230 Y417.503850 Z-1.000000
G00 Z5.000000
M05 (turn off plasma)
(End cutting path id: path826)


(Start cutting path id: path826)
(Change tool to Plasma cutter)
 
G00 Z5.000000
G00 X585.200700 Y425.545310
G31 Z-100 F500 (find metal)
G92 Z0 (zero z)
G00 Z10 F500 (going up)
M03 (turn on plasma)
G04 P0.2 (pause)
G01 Z1 (going to cutting z)
G01 Z-1.000000 F100.0(Penetrate)
G02 X584.821528 Y424.669092 Z-1.000000 I-1.201999 J0.000000 F400.000000
G02 X564.052405 Y405.431146 Z-1.000000 I-1416.668635 J1508.593360
G02 X543.047042 Y386.505017 Z-1.000000 I-1376.167670 J1506.234530
G02 X542.485010 Y386.518212 Z-1.000000 I-0.273933 J0.308297
G02 X541.751802 Y387.737942 Z-1.000000 I1.961820 J2.009536
G02 X539.335625 Y396.720921 Z-1.000000 I199.956694 J58.599334
G02 X537.328335 Y405.759137 Z-1.000000 I205.426379 J50.364992
G02 X537.331850 Y407.536650 Z-1.000000 I4.417153 J0.880024
G02 X538.440718 Y408.883770 Z-1.000000 I1.823092 J-0.370723
G02 X561.418360 Y417.979566 Z-1.000000 I277.455394 J-667.332234
G02 X584.365510 Y426.145875 Z-1.000000 I239.167293 J-635.731256
G02 X585.200700 Y425.545310 Z-1.000000 I0.201669 J-0.600565
G01 X585.200700 Y425.545310 Z-1.000000
G00 Z5.000000
M05 (turn off plasma)
(End cutting path id: path826)


(Start cutting path id: path826)
(Change tool to Plasma cutter)
 
G00 Z5.000000
G00 X164.938130 Y386.403711
G31 Z-100 F500 (find metal)
G92 Z0 (zero z)
G00 Z10 F500 (going up)
M03 (turn on plasma)
G04 P0.2 (pause)
G01 Z1 (going to cutting z)
G01 Z-1.000000 F100.0(Penetrate)
G01 X168.441820 Y382.797943 Z-1.000000 F400.000000
G01 X165.651650 Y370.597907 Z-1.000000
G02 X162.567053 Y359.470456 Z-1.000000 I-123.522839 J28.250025
G02 X161.969320 Y359.335330 Z-1.000000 I-0.339212 J0.110906
G02 X161.197884 Y360.362631 Z-1.000000 I4.001755 J3.808357
G02 X143.529100 Y390.984671 Z-1.000000 I3615.185085 J2106.354499
G03 X125.977299 Y421.694380 Z-1.000000 I-125306.220620 J-71597.022042
G03 X125.282530 Y422.900950 Z-1.000000 I-195.000122 J-111.481912
G02 X125.452217 Y423.038587 Z-1.000000 I0.095661 J0.055481
G02 X142.703516 Y407.328660 Z-1.000000 I-1479.360199 J-1641.833832
G02 X159.646880 Y391.598408 Z-1.000000 I-1804.114389 J-1960.237200
G02 X164.938130 Y386.403711 Z-1.000000 I-107.557637 J-114.848951
G01 X164.938130 Y386.403711 Z-1.000000
G00 Z5.000000
M05 (turn off plasma)
(End cutting path id: path826)


(Start cutting path id: path826)
(Change tool to Plasma cutter)
 
G00 Z5.000000
G00 X586.037230 Y422.599850
G31 Z-100 F500 (find metal)
G92 Z0 (zero z)
G00 Z10 F500 (going up)
M03 (turn on plasma)
G04 P0.2 (pause)
G01 Z1 (going to cutting z)
G01 Z-1.000000 F100.0(Penetrate)
G03 X585.504154 Y421.690864 Z-1.000000 I42.388539 J-25.469640 F400.000000
G03 X567.946390 Y390.984671 Z-1.000000 I48238.596657 J-27603.145110
G02 X550.277606 Y360.362631 Z-1.000000 I-3632.853869 J2075.732459
G02 X549.506170 Y359.335330 Z-1.000000 I-4.773191 J2.781056
G02 X548.908231 Y359.470775 Z-1.000000 I-0.258569 J0.246078
G02 X545.776240 Y370.777012 Z-1.000000 I124.275366 J40.512991
G01 X542.938470 Y383.156152 Z-1.000000
G01 X564.378010 Y403.305510 Z-1.000000
G02 X585.736589 Y422.849027 Z-1.000000 I743.440177 J-791.042696
G02 X586.037230 Y422.599850 Z-1.000000 I0.131362 J-0.147463
G01 X586.037230 Y422.599850 Z-1.000000
G00 Z5.000000
M05 (turn off plasma)
(End cutting path id: path826)


(Start cutting path id: path826)
(Change tool to Plasma cutter)
 
G00 Z5.000000
G00 X146.369880 Y382.527137
G31 Z-100 F500 (find metal)
G92 Z0 (zero z)
G00 Z10 F500 (going up)
M03 (turn on plasma)
G04 P0.2 (pause)
G01 Z1 (going to cutting z)
G01 Z-1.000000 F100.0(Penetrate)
G01 X161.856150 Y355.401583 Z-1.000000 F400.000000
G01 X159.233950 Y344.890027 Z-1.000000
G02 X156.363147 Y334.696712 Z-1.000000 I-170.947094 J42.643913
G02 X155.929490 Y334.378458 Z-1.000000 I-0.433657 J0.136326
G02 X155.590853 Y334.614015 Z-1.000000 I0.000000 J0.361190
G02 X142.122433 Y371.289145 Z-1.000000 I5534.518127 J2053.283820
G02 X129.395581 Y406.634061 Z-1.000000 I5856.352361 J2128.694971
G02 X126.598460 Y415.072420 Z-1.000000 I185.842950 J66.285415
G02 X127.073226 Y415.285426 Z-1.000000 I0.250678 J0.076871
G02 X146.369880 Y382.527137 Z-1.000000 I-1196.254281 J-726.730198
G01 X146.369880 Y382.527137 Z-1.000000
G00 Z5.000000
M05 (turn off plasma)
(End cutting path id: path826)


(Start cutting path id: path826)
(Change tool to Plasma cutter)
 
G00 Z5.000000
G00 X570.697300 Y374.940747
G31 Z-100 F500 (find metal)
G92 Z0 (zero z)
G00 Z10 F500 (going up)
M03 (turn on plasma)
G04 P0.2 (pause)
G01 Z1 (going to cutting z)
G01 Z-1.000000 F100.0(Penetrate)
G02 X556.000374 Y334.695331 Z-1.000000 I-2728.295542 J973.519875 F400.000000
G02 X555.543730 Y334.378458 Z-1.000000 I-0.456644 J0.170596
G02 X555.111534 Y334.695671 Z-1.000000 I0.000000 J0.453036
G02 X552.246170 Y344.871419 Z-1.000000 I168.058775 J52.814555
G01 X549.628620 Y355.364368 Z-1.000000
G01 X567.038610 Y385.786245 Z-1.000000
G02 X584.503518 Y415.814974 Z-1.000000 I2155.653003 J-1233.648826
G02 X584.809720 Y415.855570 Z-1.000000 I0.169037 J-0.099902
G02 X584.907682 Y415.442151 Z-1.000000 I-0.277230 J-0.284007
G02 X570.697300 Y374.940747 Z-1.000000 I-3829.412143 J1320.849551
G01 X570.697300 Y374.940747 Z-1.000000
G00 Z5.000000
M05 (turn off plasma)
(End cutting path id: path826)


(Start cutting path id: path826)
(Change tool to Plasma cutter)
 
G00 Z5.000000
G00 X210.396320 Y396.272330
G31 Z-100 F500 (find metal)
G92 Z0 (zero z)
G00 Z10 F500 (going up)
M03 (turn on plasma)
G04 P0.2 (pause)
G01 Z1 (going to cutting z)
G01 Z-1.000000 F100.0(Penetrate)
G02 X242.827533 Y384.622099 Z-1.000000 I-2435.700748 J-6831.322289 F400.000000
G02 X246.557800 Y383.185022 Z-1.000000 I-33.221838 J-91.794946
G03 X250.291847 Y381.758922 Z-1.000000 I32.359108 J79.126267
G03 X275.549080 Y372.882678 Z-1.000000 I1284.277715 J3614.022427
G02 X300.746265 Y363.927665 Z-1.000000 I-625.720907 J-1800.550167
G02 X301.714640 Y363.376279 Z-1.000000 I-1.130396 J-3.111317
G02 X301.591554 Y363.101396 Z-1.000000 I-0.098948 J-0.120693
G02 X238.458421 Y373.135383 Z-1.000000 I2124.684010 J13571.991768
G02 X175.254383 Y383.477602 Z-1.000000 I2263.977228 J14034.062980
G02 X172.437740 Y384.231248 Z-1.000000 I2.464383 J14.850504
G02 X171.799753 Y385.344480 Z-1.000000 I0.352747 J0.941587
G02 X175.746550 Y403.329640 Z-1.000000 I204.030401 J-35.348312
G02 X177.121570 Y407.623380 Z-1.000000 I44.093988 J-11.753545
G02 X177.443150 Y407.846100 Z-1.000000 I0.321580 J-0.120801
G02 X177.921764 Y407.764494 Z-1.000000 I-0.000000 J-1.444328
G02 X210.396320 Y396.272330 Z-1.000000 I-2409.630485 J-6860.762823
G01 X210.396320 Y396.272330 Z-1.000000
G00 Z5.000000
M05 (turn off plasma)
(End cutting path id: path826)


(Start cutting path id: path826)
(Change tool to Plasma cutter)
 
G00 Z5.000000
G00 X535.728950 Y403.329640
G31 Z-100 F500 (find metal)
G92 Z0 (zero z)
G00 Z10 F500 (going up)
M03 (turn on plasma)
G04 P0.2 (pause)
G01 Z1 (going to cutting z)
G01 Z-1.000000 F100.0(Penetrate)
G02 X539.708957 Y385.327362 Z-1.000000 I-207.626521 J-55.343895 F400.000000
G02 X539.095380 Y384.252843 Z-1.000000 I-0.953112 J-0.168193
G02 X536.195118 Y383.476116 Z-1.000000 I-5.450670 J14.549465
G02 X472.989279 Y373.108495 Z-1.000000 I-2270.095717 J13641.708460
G02 X409.845818 Y363.056233 Z-1.000000 I-2131.448624 J13185.387765
G02 X409.718110 Y363.338702 Z-1.000000 I-0.024898 J0.158847
G02 X410.736981 Y363.923292 Z-1.000000 I2.183911 J-2.626115
G02 X435.926410 Y372.848667 Z-1.000000 I602.972770 J-1661.717933
G03 X461.179337 Y381.690160 Z-1.000000 I-1147.212666 J3317.134301
G03 X463.684030 Y382.686019 Z-1.000000 I-11.899369 J33.575907
G02 X467.165243 Y384.085864 Z-1.000000 I22.347937 J-50.547542
G02 X499.616121 Y395.798923 Z-1.000000 I2971.179232 J-8180.804965
G02 X532.657966 Y407.575382 Z-1.000000 I2905.991271 J-8101.254356
G02 X533.647360 Y407.782480 Z-1.000000 I1.262839 J-3.566179
G02 X534.234387 Y407.438009 Z-1.000000 I0.043282 J-0.598666
G02 X535.728950 Y403.329640 Z-1.000000 I-22.429849 J-10.485675
G01 X535.728950 Y403.329640 Z-1.000000
G00 Z5.000000
M05 (turn off plasma)
(End cutting path id: path826)


(Start cutting path id: path826)
(Change tool to Plasma cutter)
 
G00 Z5.000000
G00 X358.995910 Y364.794818
G31 Z-100 F500 (find metal)
G92 Z0 (zero z)
G00 Z10 F500 (going up)
M03 (turn on plasma)
G04 P0.2 (pause)
G01 Z1 (going to cutting z)
G01 Z-1.000000 F100.0(Penetrate)
G02 X361.640055 Y337.411221 Z-1.000000 I-1785.647663 J-186.240603 F400.000000
G02 X361.523240 Y336.344006 Z-1.000000 I-2.723296 J-0.241915
G02 X361.228678 Y336.344462 Z-1.000000 I-0.147209 J0.046615
G02 X358.976610 Y344.473622 Z-1.000000 I120.835924 J37.852410
G03 X356.436987 Y353.237118 Z-1.000000 I-98.312527 J-23.740811
G03 X355.862720 Y353.648657 Z-1.000000 I-0.574267 J-0.194900
G03 X355.277030 Y353.236078 Z-1.000000 I0.000000 J-0.622007
G03 X351.663810 Y341.905879 Z-1.000000 I161.388005 J-57.708147
G02 X349.140154 Y333.396690 Z-1.000000 I-298.576603 J83.923053
G02 X348.841462 Y333.407753 Z-1.000000 I-0.147841 J0.046158
G02 X348.763782 Y334.602005 Z-1.000000 I3.577717 J0.832367
G02 X350.192730 Y348.228914 Z-1.000000 I1175.047777 J-116.329779
G03 X350.584994 Y351.842924 Z-1.000000 I-832.312413 J92.167408
G03 X352.783310 Y372.589205 Z-1.000000 I-27431.866961 J2917.223039
G02 X355.220147 Y392.653189 Z-1.000000 I641.339103 J-67.712784
G02 X355.555660 Y392.768272 Z-1.000000 I0.196766 J-0.027033
G02 X355.895124 Y392.082920 Z-1.000000 I-0.806686 J-0.826309
G02 X358.995910 Y364.794818 Z-1.000000 I-1477.825077 J-181.747602
G01 X358.995910 Y364.794818 Z-1.000000
G00 Z5.000000
M05 (turn off plasma)
(End cutting path id: path826)


(Start cutting path id: path826)
(Change tool to Plasma cutter)
 
G00 Z5.000000
G00 X345.508370 Y350.486960
G31 Z-100 F500 (find metal)
G92 Z0 (zero z)
G00 Z10 F500 (going up)
M03 (turn on plasma)
G04 P0.2 (pause)
G01 Z1 (going to cutting z)
G01 Z-1.000000 F100.0(Penetrate)
G02 X345.009018 Y350.367546 Z-1.000000 I-0.349587 J0.358089 F400.000000
G02 X334.836354 Y353.705612 Z-1.000000 I121.885090 J388.610992
G02 X324.825802 Y357.279394 Z-1.000000 I135.860107 J396.366131
G02 X323.803910 Y357.926473 Z-1.000000 I1.015212 J2.733707
G02 X323.609292 Y358.483077 Z-1.000000 I0.462958 J0.474201
G02 X325.401761 Y371.607536 Z-1.000000 I593.585027 J-74.384075
G02 X327.412236 Y384.314305 Z-1.000000 I629.191332 J-93.038702
G02 X328.152280 Y387.333124 Z-1.000000 I20.905883 J-3.524824
G02 X328.820304 Y387.391364 Z-1.000000 I0.346349 J-0.112391
G02 X337.340270 Y370.011900 Z-1.000000 I-268.016040 J-142.168097
G02 X345.610153 Y350.987549 Z-1.000000 I-683.092662 J-308.249912
G02 X345.508370 Y350.486960 Z-1.000000 I-0.419263 J-0.175395
G01 X345.508370 Y350.486960 Z-1.000000
G00 Z5.000000
M05 (turn off plasma)
(End cutting path id: path826)


(Start cutting path id: path826)
(Change tool to Plasma cutter)
 
G00 Z5.000000
G00 X385.915250 Y372.568803
G31 Z-100 F500 (find metal)
G92 Z0 (zero z)
G00 Z10 F500 (going up)
M03 (turn on plasma)
G04 P0.2 (pause)
G01 Z1 (going to cutting z)
G01 Z-1.000000 F100.0(Penetrate)
G02 X387.849303 Y358.459834 Z-1.000000 I-389.113143 J-60.526558 F400.000000
G02 X387.655200 Y357.910479 Z-1.000000 I-0.654552 J-0.077696
G02 X386.652938 Y357.276261 Z-1.000000 I-1.994707 J2.043208
G02 X376.637493 Y353.704845 Z-1.000000 I-148.593378 J400.876506
G02 X366.462628 Y350.364345 Z-1.000000 I-134.794075 J393.404509
G02 X365.972870 Y350.481360 Z-1.000000 I-0.147024 J0.468074
G02 X365.871258 Y350.975977 Z-1.000000 I0.314733 J0.322404
G02 X373.897080 Y369.639022 Z-1.000000 I673.946387 J-278.765477
G02 X382.401017 Y387.489996 Z-1.000000 I368.202475 J-164.455093
G02 X382.984040 Y387.568040 Z-1.000000 I0.318332 J-0.161340
G02 X383.446000 Y386.645198 Z-1.000000 I-1.429006 J-1.292383
G02 X385.915250 Y372.568803 Z-1.000000 I-362.613507 J-70.863631
G01 X385.915250 Y372.568803 Z-1.000000
G00 Z5.000000
M05 (turn off plasma)
(End cutting path id: path826)


(Start cutting path id: path826)
(Change tool to Plasma cutter)
 
G00 Z5.000000
G00 X245.940960 Y369.937469
G31 Z-100 F500 (find metal)
G92 Z0 (zero z)
G00 Z10 F500 (going up)
M03 (turn on plasma)
G04 P0.2 (pause)
G01 Z1 (going to cutting z)
G01 Z-1.000000 F100.0(Penetrate)
G02 X313.782786 Y358.593524 Z-1.000000 I-2649.979747 J-16056.588905 F400.000000
G02 X313.792900 Y358.444384 Z-1.000000 I-0.012837 J-0.075783
G02 X312.595043 Y358.253130 Z-1.000000 I-1.254190 J4.008392
G02 X238.963881 Y357.354146 Z-1.000000 I-410.063958 J30570.395554
G02 X165.189647 Y356.631400 Z-1.000000 I-336.035885 J30535.228016
G02 X164.675590 Y356.803371 Z-1.000000 I-0.007154 J0.832912
G02 X164.068822 Y358.478268 Z-1.000000 I1.006163 J1.311861
G02 X170.127950 Y381.027530 Z-1.000000 I277.088973 J-62.366850
G02 X171.004589 Y381.828663 Z-1.000000 I1.127108 J-0.353141
G02 X174.032620 Y381.874816 Z-1.000000 I1.628776 J-7.506110
G03 X177.477821 Y381.269757 Z-1.000000 I34.101217 J184.060892
G03 X245.940960 Y369.937469 Z-1.000000 I12062.208296 J72660.429534
G01 X245.940960 Y369.937469 Z-1.000000
G00 Z5.000000
M05 (turn off plasma)
(End cutting path id: path826)


(Start cutting path id: path826)
(Change tool to Plasma cutter)
 
G00 Z5.000000
G00 X544.186140 Y369.465867
G31 Z-100 F500 (find metal)
G92 Z0 (zero z)
G00 Z10 F500 (going up)
M03 (turn on plasma)
G04 P0.2 (pause)
G01 Z1 (going to cutting z)
G01 Z-1.000000 F100.0(Penetrate)
G02 X546.933162 Y357.200766 Z-1.000000 I-317.888581 J-77.637862 F400.000000
G02 X546.772760 Y356.779270 Z-1.000000 I-0.412822 J-0.084168
G02 X545.932897 Y356.503616 Z-1.000000 I-0.828598 J1.107302
G02 X473.150803 Y357.239189 Z-1.000000 I151.138376 J18555.699150
G02 X400.354191 Y358.260597 Z-1.000000 I223.806103 J18545.486614
G02 X399.647990 Y358.554767 Z-1.000000 I0.016546 J1.034478
G02 X399.762833 Y358.924421 Z-1.000000 I0.151810 J0.155503
G02 X468.935358 Y370.687703 Z-1.000000 I2395.250077 J-13875.710480
G02 X538.235082 Y382.120580 Z-1.000000 I2368.162530 J-14138.735385
G02 X540.052410 Y382.071757 Z-1.000000 I0.780288 J-4.802900
G02 X540.771041 Y381.422991 Z-1.000000 I-0.207789 J-0.952559
G02 X544.186140 Y369.465867 Z-1.000000 I-152.830719 J-50.116554
G01 X544.186140 Y369.465867 Z-1.000000
G00 Z5.000000
M05 (turn off plasma)
(End cutting path id: path826)


(Start cutting path id: path826)
(Change tool to Plasma cutter)
 
G00 Z5.000000
G00 X272.464900 Y349.801146
G31 Z-100 F500 (find metal)
G92 Z0 (zero z)
G00 Z10 F500 (going up)
M03 (turn on plasma)
G04 P0.2 (pause)
G01 Z1 (going to cutting z)
G01 Z-1.000000 F100.0(Penetrate)
G01 X237.922090 Y343.777859 Z-1.000000 F400.000000
G01 X207.080290 Y349.014355 Z-1.000000
G01 X176.238500 Y354.250851 Z-1.000000
G01 X207.697130 Y354.884263 Z-1.000000
G02 X239.157337 Y355.390265 Z-1.000000 I78.201141 J-3883.827894
G02 X273.081730 Y355.671053 Z-1.000000 I54.341466 J-4515.964080
G01 X307.007710 Y355.824433 Z-1.000000
G01 X272.464900 Y349.801146 Z-1.000000
G00 Z5.000000
M05 (turn off plasma)
(End cutting path id: path826)


(Start cutting path id: path826)
(Change tool to Plasma cutter)
 
G00 Z5.000000
G00 X335.211540 Y351.617073
G31 Z-100 F500 (find metal)
G92 Z0 (zero z)
G00 Z10 F500 (going up)
M03 (turn on plasma)
G04 P0.2 (pause)
G01 Z1 (going to cutting z)
G01 Z-1.000000 F100.0(Penetrate)
G02 X341.669823 Y348.548262 Z-1.000000 I-15.741335 J-41.457590 F400.000000
G02 X341.550520 Y347.951351 Z-1.000000 I-0.160891 J-0.278221
G02 X338.343360 Y347.584323 Z-1.000000 I-13.203752 J101.180875
G02 X289.578460 Y342.810677 Z-1.000000 I-4397.012359 J44665.962326
G02 X240.330083 Y338.044353 Z-1.000000 I-4331.131948 J44494.903789
G02 X239.231500 Y337.991620 Z-1.000000 I-1.098583 J11.417076
G02 X238.789843 Y338.347125 Z-1.000000 I0.000000 J0.452096
G02 X238.770550 Y340.099298 Z-1.000000 I4.218733 J0.922645
G02 X240.004402 Y341.368051 Z-1.000000 I1.589069 J-0.311025
G02 X278.646930 Y349.065602 Z-1.000000 I176.070117 J-783.047160
G02 X318.126067 Y355.381449 Z-1.000000 I254.661423 J-1465.293033
G02 X322.257980 Y355.442533 Z-1.000000 I2.298823 J-15.721409
G02 X326.320385 Y354.613134 Z-1.000000 I-2.792402 J-24.040771
G02 X335.211540 Y351.617073 Z-1.000000 I-35.100894 J-118.856720
G01 X335.211540 Y351.617073 Z-1.000000
G00 Z5.000000
M05 (turn off plasma)
(End cutting path id: path826)


(Start cutting path id: path826)
(Change tool to Plasma cutter)
 
G00 Z5.000000
G00 X430.816440 Y349.235047
G31 Z-100 F500 (find metal)
G92 Z0 (zero z)
G00 Z10 F500 (going up)
M03 (turn on plasma)
G04 P0.2 (pause)
G01 Z1 (going to cutting z)
G01 Z-1.000000 F100.0(Penetrate)
G02 X472.128485 Y340.495495 Z-1.000000 I-82.820605 J-493.505931 F400.000000
G02 X472.656560 Y338.521177 Z-1.000000 I-0.290779 J-1.135557
G02 X471.958882 Y338.271211 Z-1.000000 I-0.621820 J0.636930
G02 X420.100920 Y343.016373 Z-1.000000 I374.540368 J4378.940501
G02 X368.784571 Y348.312624 Z-1.000000 I441.346315 J4527.540452
G02 X368.679010 Y348.618376 Z-1.000000 I0.019368 J0.177785
G02 X369.213563 Y348.959822 Z-1.000000 I1.088460 J-1.114888
G02 X378.449343 Y352.396854 Z-1.000000 I243.832542 J-641.084324
G02 X387.581974 Y355.649596 Z-1.000000 I239.537377 J-658.094993
G02 X389.046880 Y356.031997 Z-1.000000 I3.120534 J-8.957098
G02 X389.664192 Y356.036325 Z-1.000000 I0.321391 J-1.814228
G02 X430.816440 Y349.235047 Z-1.000000 I-1349.834564 J-8295.295199
G01 X430.816440 Y349.235047 Z-1.000000
G00 Z5.000000
M05 (turn off plasma)
(End cutting path id: path826)


(Start cutting path id: path826)
(Change tool to Plasma cutter)
 
G00 Z5.000000
G00 X500.077340 Y354.988731
G31 Z-100 F500 (find metal)
G92 Z0 (zero z)
G00 Z10 F500 (going up)
M03 (turn on plasma)
G04 P0.2 (pause)
G01 Z1 (going to cutting z)
G01 Z-1.000000 F100.0(Penetrate)
G01 X535.236990 Y354.250851 Z-1.000000 F400.000000
G01 X504.395200 Y349.014355 Z-1.000000
G01 X473.553410 Y343.777859 Z-1.000000
G01 X439.010590 Y349.801146 Z-1.000000
G01 X404.467780 Y355.824433 Z-1.000000
G01 X434.692740 Y355.775533 Z-1.000000
G02 X464.915915 Y355.569267 Z-1.000000 I-4.687634 J-2901.188510
G02 X500.077340 Y354.988743 Z-1.000000 I-47.278994 J-3928.740693
G01 X500.077340 Y354.988731 Z-1.000000
G00 Z5.000000
M05 (turn off plasma)
(End cutting path id: path826)


(Start cutting path id: path826)
(Change tool to Plasma cutter)
 
G00 Z5.000000
G00 X197.519340 Y348.730506
G31 Z-100 F500 (find metal)
G92 Z0 (zero z)
G00 Z10 F500 (going up)
M03 (turn on plasma)
G04 P0.2 (pause)
G01 Z1 (going to cutting z)
G01 Z-1.000000 F100.0(Penetrate)
G02 X228.353462 Y343.218335 Z-1.000000 I-257.676218 J-1530.392172 F400.000000
G02 X228.669560 Y342.836823 Z-1.000000 I-0.072183 J-0.381512
G02 X228.377555 Y342.486710 Z-1.000000 I-0.355895 J0.000000
G02 X194.886011 Y336.529632 Z-1.000000 I-683.016933 J3742.893396
G02 X161.754773 Y330.936930 Z-1.000000 I-662.556559 J3824.062173
G02 X158.802400 Y330.731644 Z-1.000000 I-2.571025 J15.643063
G02 X158.238511 Y331.396574 Z-1.000000 I0.014023 J0.583458
G02 X160.514260 Y342.874424 Z-1.000000 I104.099336 J-14.675567
G02 X164.102044 Y354.074409 Z-1.000000 I97.257382 J-24.980623
G02 X164.996820 Y354.479457 Z-1.000000 I0.653297 J-0.252341
G03 X166.402292 Y354.100295 Z-1.000000 I2.838280 J7.726413
G03 X197.519340 Y348.730506 Z-1.000000 I674.198682 J3814.027233
G01 X197.519340 Y348.730506 Z-1.000000
G00 Z5.000000
M05 (turn off plasma)
(End cutting path id: path826)


(Start cutting path id: path826)
(Change tool to Plasma cutter)
 
G00 Z5.000000
G00 X550.977990 Y342.809170
G31 Z-100 F500 (find metal)
G92 Z0 (zero z)
G00 Z10 F500 (going up)
M03 (turn on plasma)
G04 P0.2 (pause)
G01 Z1 (going to cutting z)
G01 Z-1.000000 F100.0(Penetrate)
G02 X553.237194 Y331.396432 Z-1.000000 I-100.685260 J-25.861087 F400.000000
G02 X552.673090 Y330.731644 Z-1.000000 I-0.578147 J-0.081144
G02 X549.735140 Y330.935874 Z-1.000000 I-0.379744 J15.771232
G02 X516.595272 Y336.528550 Z-1.000000 I632.956040 J3851.616553
G02 X483.096396 Y342.483743 Z-1.000000 I653.087092 J3770.911248
G02 X482.805930 Y342.831969 Z-1.000000 I0.063503 J0.348226
G02 X483.119445 Y343.212316 Z-1.000000 I0.387470 J0.000000
G02 X514.572990 Y349.008803 Z-1.000000 I311.368248 J-1601.344500
G03 X546.338162 Y354.551676 Z-1.000000 I-8763.537394 J50315.993849
G03 X547.112280 Y354.697354 Z-1.000000 I-5.242353 J29.987044
G02 X547.605953 Y354.408950 Z-1.000000 I0.084950 J-0.421310
G02 X550.977990 Y342.809170 Z-1.000000 I-182.450591 J-59.328097
G01 X550.977990 Y342.809170 Z-1.000000
G00 Z5.000000
M05 (turn off plasma)
(End cutting path id: path826)


(Start cutting path id: path826)
(Change tool to Plasma cutter)
 
G00 Z5.000000
G00 X362.423650 Y323.061503
G31 Z-100 F500 (find metal)
G92 Z0 (zero z)
G00 Z10 F500 (going up)
M03 (turn on plasma)
G04 P0.2 (pause)
G01 Z1 (going to cutting z)
G01 Z-1.000000 F100.0(Penetrate)
G02 X363.198730 Y314.740457 Z-1.000000 I-34.096359 J-7.372591 F400.000000
G02 X361.850400 Y301.984721 Z-1.000000 I-82.149107 J2.234342
G02 X357.451327 Y285.026099 Z-1.000000 I-122.492024 J22.724609
G02 X355.737750 Y283.794182 Z-1.000000 I-1.713577 J0.575820
G02 X354.098600 Y284.973095 Z-1.000000 I0.000000 J1.728986
G02 X349.652480 Y301.927538 Z-1.000000 I123.528404 J41.454191
G02 X348.250426 Y314.629800 Z-1.000000 I79.300595 J15.181572
G02 X349.005710 Y322.980062 Z-1.000000 I34.738171 J1.067210
G02 X352.917837 Y339.146508 Z-1.000000 I309.160768 J-66.257408
G02 X355.335640 Y346.422333 Z-1.000000 I64.857988 J-17.513085
G02 X356.376079 Y346.378951 Z-1.000000 I0.512638 J-0.203524
G02 X362.423650 Y323.061503 Z-1.000000 I-282.440140 J-85.696130
G01 X362.423650 Y323.061503 Z-1.000000
G00 Z5.000000
M05 (turn off plasma)
(End cutting path id: path826)


(Start cutting path id: path826)
(Change tool to Plasma cutter)
 
G00 Z5.000000
G00 X347.942640 Y344.750727
G31 Z-100 F500 (find metal)
G92 Z0 (zero z)
G00 Z10 F500 (going up)
M03 (turn on plasma)
G04 P0.2 (pause)
G01 Z1 (going to cutting z)
G01 Z-1.000000 F100.0(Penetrate)
G03 X347.520400 Y343.026248 Z-1.000000 I6.166584 J-2.423825 F400.000000
G03 X346.408620 Y330.298077 Z-1.000000 I341.221022 J-36.217611
G01 X345.531650 Y317.517032 Z-1.000000
G01 X340.456900 Y317.629523 Z-1.000000
G02 X335.386688 Y317.839470 Z-1.000000 I2.928668 J132.054993
G02 X315.643410 Y319.135007 Z-1.000000 I121.502088 J2002.711555
G01 X295.904660 Y320.528014 Z-1.000000
G01 X319.344430 Y333.352464 Z-1.000000
G02 X346.535052 Y346.151649 Z-1.000000 I118.928364 J-217.370220
G02 X347.942640 Y344.750740 Z-1.000000 I0.400597 J-1.005096
G01 X347.942640 Y344.750727 Z-1.000000
G00 Z5.000000
M05 (turn off plasma)
(End cutting path id: path826)


(Start cutting path id: path826)
(Change tool to Plasma cutter)
 
G00 Z5.000000
G00 X391.620710 Y333.475167
G31 Z-100 F500 (find metal)
G92 Z0 (zero z)
G00 Z10 F500 (going up)
M03 (turn on plasma)
G04 P0.2 (pause)
G01 Z1 (going to cutting z)
G01 Z-1.000000 F100.0(Penetrate)
G01 X415.569400 Y320.528001 Z-1.000000 F400.000000
G01 X396.448200 Y319.135500 Z-1.000000
G02 X377.321680 Y317.858090 Z-1.000000 I-115.853825 J1590.837919
G02 X371.668180 Y317.630016 Z-1.000000 I-8.427222 J138.710667
G01 X366.009390 Y317.517032 Z-1.000000
G01 X364.572800 Y330.464199 Z-1.000000
G02 X364.142112 Y345.222800 Z-1.000000 I90.315697 J10.021193
G02 X365.405900 Y346.422333 Z-1.000000 I1.263788 J-0.065976
G02 X367.545593 Y345.922753 Z-1.000000 I-0.000000 J-4.831928
G02 X391.620710 Y333.475167 Z-1.000000 I-325.554188 J-659.166507
G01 X391.620710 Y333.475167 Z-1.000000
G00 Z5.000000
M05 (turn off plasma)
(End cutting path id: path826)


(Start cutting path id: path826)
(Change tool to Plasma cutter)
 
G00 Z5.000000
G00 X315.156210 Y332.999048
G31 Z-100 F500 (find metal)
G92 Z0 (zero z)
G00 Z10 F500 (going up)
M03 (turn on plasma)
G04 P0.2 (pause)
G01 Z1 (going to cutting z)
G01 Z-1.000000 F100.0(Penetrate)
G01 X292.462920 Y320.806805 Z-1.000000 F400.000000
G01 X267.659850 Y328.495928 Z-1.000000
G02 X245.867010 Y335.944024 Z-1.000000 I118.776485 J383.141943
G02 X245.940960 Y336.622255 Z-1.000000 I0.123359 J0.329697
G02 X300.355423 Y343.135308 Z-1.000000 I177.296283 J-1250.689277
G02 X332.297980 Y345.062940 Z-1.000000 I41.896929 J-428.646943
G02 X334.375297 Y345.056259 Z-1.000000 I0.911828 J-39.440168
G02 X334.973947 Y344.889445 Z-1.000000 I-0.038273 J-1.294949
G02 X335.045191 Y344.579485 Z-1.000000 I-0.105858 J-0.187499
G02 X333.976404 Y343.501813 Z-1.000000 I-3.559293 J2.461126
G02 X330.720164 Y341.467449 Z-1.000000 I-20.162117 J28.648661
G02 X315.156210 Y332.999048 Z-1.000000 I-807.575873 J1465.695659
G01 X315.156210 Y332.999048 Z-1.000000
G00 Z5.000000
M05 (turn off plasma)
(End cutting path id: path826)


(Start cutting path id: path826)
(Change tool to Plasma cutter)
 
G00 Z5.000000
G00 X422.853160 Y340.976948
G31 Z-100 F500 (find metal)
G92 Z0 (zero z)
G00 Z10 F500 (going up)
M03 (turn on plasma)
G04 P0.2 (pause)
G01 Z1 (going to cutting z)
G01 Z-1.000000 F100.0(Penetrate)
G02 X466.131041 Y336.633145 Z-1.000000 I-884.311017 J-9028.270311 F400.000000
G02 X467.208550 Y336.417559 Z-1.000000 I-0.592035 J-5.759531
G02 X467.213933 Y336.094698 Z-1.000000 I-0.048875 J-0.162290
G02 X443.631990 Y328.450763 Z-1.000000 I-319.775426 J946.326330
G01 X418.998240 Y320.802348 Z-1.000000
G01 X396.327150 Y333.010153 Z-1.000000
G02 X376.408136 Y344.524088 Z-1.000000 I180.846712 J335.850182
G02 X376.605510 Y345.217945 Z-1.000000 I0.197374 J0.318856
G02 X379.548387 Y345.083294 Z-1.000000 I-0.000000 J-32.226447
G02 X422.853160 Y340.976948 Z-1.000000 I-641.609794 J-6996.694924
G01 X422.853160 Y340.976948 Z-1.000000
G00 Z5.000000
M05 (turn off plasma)
(End cutting path id: path826)


(Start cutting path id: path826)
(Change tool to Plasma cutter)
 
G00 Z5.000000
G00 X236.071580 Y339.821145
G31 Z-100 F500 (find metal)
G92 Z0 (zero z)
G00 Z10 F500 (going up)
M03 (turn on plasma)
G04 P0.2 (pause)
G01 Z1 (going to cutting z)
G01 Z-1.000000 F100.0(Penetrate)
G02 X235.471595 Y338.527807 Z-1.000000 I-1.693963 J0.000000 F400.000000
G02 X233.295820 Y337.473252 Z-1.000000 I-3.146289 J3.719652
G02 X229.292334 Y336.860207 Z-1.000000 I-8.303898 J40.849644
G02 X210.632769 Y335.036287 Z-1.000000 I-163.624172 J1577.592575
G02 X191.348716 Y333.390668 Z-1.000000 I-138.249424 J1506.253315
G02 X190.836300 Y333.576167 Z-1.000000 I-0.051854 J0.657253
G02 X190.896506 Y333.776126 Z-1.000000 I0.082272 J0.084272
G02 X210.908621 Y337.490655 Z-1.000000 I385.316131 J-2020.135063
G02 X230.433880 Y340.924369 Z-1.000000 I391.563729 J-2169.333104
G02 X234.529500 Y341.462773 Z-1.000000 I8.969220 J-52.381745
G02 X235.579054 Y341.064799 Z-1.000000 I0.117222 J-1.273807
G02 X236.071580 Y339.821145 Z-1.000000 I-1.323881 J-1.243654
G01 X236.071580 Y339.821145 Z-1.000000
G00 Z5.000000
M05 (turn off plasma)
(End cutting path id: path826)


(Start cutting path id: path826)
(Change tool to Plasma cutter)
 
G00 Z5.000000
G00 X500.987560 Y337.280430
G31 Z-100 F500 (find metal)
G92 Z0 (zero z)
G00 Z10 F500 (going up)
M03 (turn on plasma)
G04 P0.2 (pause)
G01 Z1 (going to cutting z)
G01 Z-1.000000 F100.0(Penetrate)
G02 X520.562105 Y333.803943 Z-1.000000 I-149.580109 J-899.064711 F400.000000
G02 X520.632800 Y333.569916 Z-1.000000 I-0.025577 J-0.135417
G02 X520.125381 Y333.386314 Z-1.000000 I-0.455894 J0.466977
G02 X500.827595 Y335.037578 Z-1.000000 I120.838481 J1525.789262
G02 X482.151240 Y336.865014 Z-1.000000 I146.843904 J1597.091019
G02 X478.179680 Y337.473252 Z-1.000000 I4.269437 J41.148298
G02 X476.031377 Y338.550260 Z-1.000000 I0.916747 J4.509739
G02 X475.403910 Y339.951712 Z-1.000000 I1.251342 J1.401452
G02 X476.083392 Y341.016022 Z-1.000000 I1.173285 J0.000000
G02 X478.179680 Y341.239565 Z-1.000000 I1.376418 J-2.966643
G03 X480.969109 Y340.683116 Z-1.000000 I12.510107 J55.442217
G03 X500.987560 Y337.280430 Z-1.000000 I495.176768 J2852.603571
G01 X500.987560 Y337.280430 Z-1.000000
G00 Z5.000000
M05 (turn off plasma)
(End cutting path id: path826)


(Start cutting path id: path826)
(Change tool to Plasma cutter)
 
G00 Z5.000000
G00 X261.361860 Y328.427964
G31 Z-100 F500 (find metal)
G92 Z0 (zero z)
G00 Z10 F500 (going up)
M03 (turn on plasma)
G04 P0.2 (pause)
G01 Z1 (going to cutting z)
G01 Z-1.000000 F100.0(Penetrate)
G02 X274.942541 Y323.974735 Z-1.000000 I-317.169717 J-990.183432 F400.000000
G02 X278.236075 Y322.722531 Z-1.000000 I-14.160228 J-42.201505
G02 X279.438767 Y322.027947 Z-1.000000 I-2.259145 J-5.300314
G02 X279.418183 Y321.846973 Z-1.000000 I-0.063468 J-0.084439
G02 X278.964114 Y321.753828 Z-1.000000 I-0.439570 J0.989506
G02 X276.782750 Y321.855141 Z-1.000000 I0.442856 J33.069104
G03 X241.598470 Y324.424103 Z-1.000000 I-213.785615 J-2685.764686
G03 X184.547110 Y327.982907 Z-1.000000 I-468.971573 J-7059.029366
G02 X172.499253 Y328.951648 Z-1.000000 I16.013389 J274.554104
G02 X172.402670 Y329.228557 Z-1.000000 I0.016520 J0.161060
G02 X173.153393 Y329.584288 Z-1.000000 I0.893159 J-0.914877
G02 X200.456729 Y332.493200 Z-1.000000 I278.354440 J-2483.071846
G02 X226.763146 Y335.017348 Z-1.000000 I266.244805 J-2636.433194
G02 X233.604240 Y335.409100 Z-1.000000 I9.270591 J-101.962404
G02 X239.049059 Y334.800424 Z-1.000000 I0.482875 J-20.337743
G02 X261.361860 Y328.427964 Z-1.000000 I-89.015429 J-353.932124
G01 X261.361860 Y328.427964 Z-1.000000
G00 Z5.000000
M05 (turn off plasma)
(End cutting path id: path826)


(Start cutting path id: path826)
(Change tool to Plasma cutter)
 
G00 Z5.000000
G00 X508.547490 Y332.622894
G31 Z-100 F500 (find metal)
G92 Z0 (zero z)
G00 Z10 F500 (going up)
M03 (turn on plasma)
G04 P0.2 (pause)
G01 Z1 (going to cutting z)
G01 Z-1.000000 F100.0(Penetrate)
G02 X538.512897 Y329.481413 Z-1.000000 I-210.138890 J-2148.921391 F400.000000
G02 X539.097510 Y329.204457 Z-1.000000 I-0.110678 J-0.989117
G02 X539.005497 Y328.942727 Z-1.000000 I-0.106870 J-0.109468
G02 X525.692670 Y327.896456 Z-1.000000 I-34.422882 J352.779523
G03 X511.800288 Y327.019857 Z-1.000000 I121.061002 J-2029.101858
G03 X471.086060 Y324.263060 Z-1.000000 I1159.820799 J-17431.036749
G02 X430.435707 Y321.648444 Z-1.000000 I-308.023341 J4471.636330
G02 X429.954600 Y321.805121 Z-1.000000 I-0.041253 J0.690329
G02 X430.049780 Y322.311680 Z-1.000000 I0.187153 J0.227056
G02 X450.715030 Y328.856042 Z-1.000000 I302.370838 J-918.902209
G02 X471.470212 Y334.942661 Z-1.000000 I307.903524 J-1011.510856
G02 X474.787070 Y335.452109 Z-1.000000 I3.725201 J-13.201383
G02 X478.480987 Y335.352621 Z-1.000000 I0.970248 J-32.601485
G02 X508.547490 Y332.622894 Z-1.000000 I-181.722632 J-2168.526858
G01 X508.547490 Y332.622894 Z-1.000000
G00 Z5.000000
M05 (turn off plasma)
(End cutting path id: path826)


(Start cutting path id: path826)
(Change tool to Plasma cutter)
 
G00 Z5.000000
G00 X202.112540 Y310.899790
G31 Z-100 F500 (find metal)
G92 Z0 (zero z)
G00 Z10 F500 (going up)
M03 (turn on plasma)
G04 P0.2 (pause)
G01 Z1 (going to cutting z)
G01 Z-1.000000 F100.0(Penetrate)
G02 X213.939063 Y297.390589 Z-1.000000 I-149.349095 J-142.677804 F400.000000
G02 X213.676360 Y296.470541 Z-1.000000 I-0.457731 J-0.366832
G02 X148.784100 Y274.761620 Z-1.000000 I-706.950537 J2005.372677
G02 X148.067960 Y275.689690 Z-1.000000 I-0.188438 J0.594930
G02 X150.980816 Y279.793058 Z-1.000000 I39.270818 J-24.791599
G02 X168.753550 Y301.913865 Z-1.000000 I2090.982918 J-1661.778581
G02 X187.261055 Y324.438782 Z-1.000000 I2001.142536 J-1625.364721
G02 X187.910250 Y324.743357 Z-1.000000 I0.649195 J-0.539586
G02 X188.742548 Y324.404827 Z-1.000000 I-0.000000 J-1.192395
G02 X202.112540 Y310.899790 Z-1.000000 I-372.321138 J-381.968737
G01 X202.112540 Y310.899790 Z-1.000000
G00 Z5.000000
M05 (turn off plasma)
(End cutting path id: path826)


(Start cutting path id: path826)
(Change tool to Plasma cutter)
 
G00 Z5.000000
G00 X259.181140 Y303.560783
G31 Z-100 F500 (find metal)
G92 Z0 (zero z)
G00 Z10 F500 (going up)
M03 (turn on plasma)
G04 P0.2 (pause)
G01 Z1 (going to cutting z)
G01 Z-1.000000 F100.0(Penetrate)
G02 X301.126067 Y290.208541 Z-1.000000 I-1008.576856 J-3240.917362 F400.000000
G02 X301.409480 Y289.816121 Z-1.000000 I-0.127037 J-0.390301
G02 X301.036210 Y289.137777 Z-1.000000 I-0.811214 J0.004514
G02 X278.679148 Y275.026484 Z-1.000000 I-986.374999 J1537.985490
G02 X256.180316 Y261.274257 Z-1.000000 I-972.891019 J1566.382704
G02 X254.870930 Y260.910820 Z-1.000000 I-1.309386 J2.177002
G02 X253.807801 Y261.310115 Z-1.000000 I-0.000000 J1.614946
G02 X249.017960 Y266.029467 Z-1.000000 I37.270765 J42.617816
G03 X244.301867 Y271.049405 Z-1.000000 I-122.963926 J-110.795928
G03 X225.126230 Y290.422902 Z-1.000000 I-1852.148947 J-1814.056382
G02 X205.876003 Y309.726753 Z-1.000000 I6357.275907 J6358.866574
G02 X198.521930 Y317.182321 Z-1.000000 I940.915788 J935.461513
G01 X191.197240 Y324.666964 Z-1.000000
G01 X204.073450 Y320.685102 Z-1.000000
G02 X216.946933 Y316.694425 Z-1.000000 I-2906.323280 J-9398.221825
G02 X259.181140 Y303.560783 Z-1.000000 I-31469.676370 J-101272.942396
G01 X259.181140 Y303.560783 Z-1.000000
G00 Z5.000000
M05 (turn off plasma)
(End cutting path id: path826)


(Start cutting path id: path826)
(Change tool to Plasma cutter)
 
G00 Z5.000000
G00 X268.763890 Y320.525002
G31 Z-100 F500 (find metal)
G92 Z0 (zero z)
G00 Z10 F500 (going up)
M03 (turn on plasma)
G04 P0.2 (pause)
G01 Z1 (going to cutting z)
G01 Z-1.000000 F100.0(Penetrate)
G03 X330.453636 Y316.508496 Z-1.000000 I730.935343 J10750.721954 F400.000000
G03 X336.307420 Y316.321907 Z-1.000000 I6.006642 J96.526392
G02 X341.724048 Y315.894712 Z-1.000000 I-0.052452 J-35.218823
G02 X342.115590 Y315.409354 Z-1.000000 I-0.072119 J-0.458788
G02 X341.716051 Y314.713261 Z-1.000000 I-0.895667 J0.051381
G02 X323.179100 Y302.840511 Z-1.000000 I-373.171138 J562.225611
G01 X304.294360 Y291.174946 Z-1.000000
G01 X252.603160 Y307.369935 Z-1.000000
G02 X200.928788 Y323.612164 Z-1.000000 I8749.496330 J27926.692733
G02 X199.678260 Y324.059061 Z-1.000000 I5.290209 J16.776418
G02 X199.804171 Y324.632780 Z-1.000000 I0.110701 J0.276381
G02 X268.763890 Y320.525002 Z-1.000000 I-210.392554 J-4112.872868
G01 X268.763890 Y320.525002 Z-1.000000
G00 Z5.000000
M05 (turn off plasma)
(End cutting path id: path826)


(Start cutting path id: path826)
(Change tool to Plasma cutter)
 
G00 Z5.000000
G00 X511.797230 Y324.059061
G31 Z-100 F500 (find metal)
G92 Z0 (zero z)
G00 Z10 F500 (going up)
M03 (turn on plasma)
G04 P0.2 (pause)
G01 Z1 (going to cutting z)
G01 Z-1.000000 F100.0(Penetrate)
G02 X510.546702 Y323.612164 Z-1.000000 I-6.540765 J16.329590 F400.000000
G02 X458.883270 Y307.373355 Z-1.000000 I-8799.645502 J27905.585706
G01 X407.203000 Y291.181799 Z-1.000000
G01 X388.057830 Y303.145028 Z-1.000000
G02 X369.387165 Y315.041719 Z-1.000000 I665.826721 J1065.547548
G02 X369.418800 Y315.253723 Z-1.000000 I0.064176 J0.098786
G02 X369.934478 Y315.345505 Z-1.000000 I0.699301 J-2.434481
G02 X433.459070 Y319.908465 Z-1.000000 I2711.376222 J-37302.749080
G02 X511.644077 Y324.753879 Z-1.000000 I309.448547 J-4360.008918
G02 X511.797230 Y324.059061 Z-1.000000 I0.019078 J-0.360083
G01 X511.797230 Y324.059061 Z-1.000000
G00 Z5.000000
M05 (turn off plasma)
(End cutting path id: path826)


(Start cutting path id: path826)
(Change tool to Plasma cutter)
 
G00 Z5.000000
G00 X512.992280 Y317.220524
G31 Z-100 F500 (find metal)
G92 Z0 (zero z)
G00 Z10 F500 (going up)
M03 (turn on plasma)
G04 P0.2 (pause)
G01 Z1 (going to cutting z)
G01 Z-1.000000 F100.0(Penetrate)
G02 X505.599618 Y309.726616 Z-1.000000 I-962.454773 J942.058258 F400.000000
G02 X486.349260 Y290.422902 Z-1.000000 I-6405.739777 J6368.783782
G03 X467.173621 Y271.049402 Z-1.000000 I1832.966964 J-1833.423531
G03 X462.457540 Y266.029467 Z-1.000000 I118.242184 J-115.810325
G02 X457.667688 Y261.310115 Z-1.000000 I-42.061209 J37.899156
G02 X456.604560 Y260.910820 Z-1.000000 I-1.063128 J1.215650
G02 X454.643967 Y261.459814 Z-1.000000 I0.000000 J3.775376
G02 X432.667706 Y275.149063 Z-1.000000 I608.333086 J1001.082106
G02 X411.083183 Y289.281233 Z-1.000000 I600.928735 J941.367510
G02 X411.024120 Y290.007425 Z-1.000000 I0.259555 J0.386608
G02 X411.782264 Y290.454499 Z-1.000000 I1.375126 J-1.465559
G02 X464.796791 Y307.452274 Z-1.000000 I4817.324678 J-14933.628876
G02 X517.580796 Y324.170654 Z-1.000000 I4775.902044 J-14987.002546
G02 X519.777480 Y324.663820 Z-1.000000 I4.022307 J-12.777486
G02 X519.865451 Y324.496530 Z-1.000000 I0.013690 J-0.099576
G02 X512.992280 Y317.220524 Z-1.000000 I-208.315533 J189.897830
G01 X512.992280 Y317.220524 Z-1.000000
G00 Z5.000000
M05 (turn off plasma)
(End cutting path id: path826)


(Start cutting path id: path826)
(Change tool to Plasma cutter)
 
G00 Z5.000000
G00 X543.507660 Y300.956705
G31 Z-100 F500 (find metal)
G92 Z0 (zero z)
G00 Z10 F500 (going up)
M03 (turn on plasma)
G04 P0.2 (pause)
G01 Z1 (going to cutting z)
G01 Z-1.000000 F100.0(Penetrate)
G02 X562.399609 Y277.117885 Z-1.000000 I-4023.661044 J-3208.103353 F400.000000
G02 X563.396840 Y275.706576 Z-1.000000 I-13.047491 J-10.277333
G02 X562.739196 Y274.854211 Z-1.000000 I-0.484652 J-0.305951
G02 X497.813510 Y296.469939 Z-1.000000 I698.917611 J2207.605415
G02 X497.553458 Y297.378656 Z-1.000000 I0.190855 J0.546187
G02 X509.410840 Y310.894407 Z-1.000000 I163.158779 J-131.180236
G02 X522.795028 Y324.416122 Z-1.000000 I399.716567 J-382.266240
G02 X523.598750 Y324.743357 Z-1.000000 I0.803722 J-0.823393
G02 X524.369048 Y324.383576 Z-1.000000 I0.000000 J-1.004504
G02 X543.507660 Y300.956705 Z-1.000000 I-975.234523 J-816.250129
G01 X543.507660 Y300.956705 Z-1.000000
G00 Z5.000000
M05 (turn off plasma)
(End cutting path id: path826)


(Start cutting path id: path826)
(Change tool to Plasma cutter)
 
G00 Z5.000000
G00 X182.220050 Y322.033485
G31 Z-100 F500 (find metal)
G92 Z0 (zero z)
G00 Z10 F500 (going up)
M03 (turn on plasma)
G04 P0.2 (pause)
G01 Z1 (going to cutting z)
G01 Z-1.000000 F100.0(Penetrate)
G02 X180.033333 Y318.945360 Z-1.000000 I-29.883440 J18.842337 F400.000000
G02 X163.058119 Y297.684616 Z-1.000000 I-2628.343580 J2081.141096
G02 X145.543348 Y276.117051 Z-1.000000 I-2559.199477 J2060.400885
G02 X144.861610 Y275.631000 Z-1.000000 I-1.235923 J1.012381
G02 X144.272248 Y275.909981 Z-1.000000 I-0.158213 J0.427785
G02 X140.081330 Y289.481457 Z-1.000000 I204.586226 J70.609751
G02 X136.758775 Y303.383258 Z-1.000000 I214.868605 J58.701924
G02 X137.100310 Y304.000095 Z-1.000000 I0.530915 J0.109010
G03 X137.984681 Y304.358260 Z-1.000000 I-5.983277 J16.044666
G03 X159.583930 Y313.843554 Z-1.000000 I-4199.361669 J9591.827972
G02 X181.685401 Y322.697769 Z-1.000000 I141.660656 J-321.595168
G02 X182.220050 Y322.033485 Z-1.000000 I0.153359 J-0.423868
G01 X182.220050 Y322.033485 Z-1.000000
G00 Z5.000000
M05 (turn off plasma)
(End cutting path id: path826)


(Start cutting path id: path826)
(Change tool to Plasma cutter)
 
G00 Z5.000000
G00 X553.125230 Y313.282298
G31 Z-100 F500 (find metal)
G92 Z0 (zero z)
G00 Z10 F500 (going up)
M03 (turn on plasma)
G04 P0.2 (pause)
G01 Z1 (going to cutting z)
G01 Z-1.000000 F100.0(Penetrate)
G02 X574.695090 Y303.920939 Z-1.000000 I-2867.434796 J-6636.495337 F400.000000
G02 X574.974280 Y303.757507 Z-1.000000 I-0.546745 J-1.254186
G02 X575.207306 Y303.080156 Z-1.000000 I-0.387819 J-0.512179
G02 X571.351204 Y289.385626 Z-1.000000 I-475.699717 J126.557246
G02 X567.117796 Y275.873863 Z-1.000000 I-461.653459 J137.222833
G02 X566.613890 Y275.631000 Z-1.000000 I-0.369099 J0.121630
G02 X565.907950 Y276.134381 Z-1.000000 I0.573721 J1.551280
G02 X548.376084 Y297.736302 Z-1.000000 I2454.294857 J2009.792245
G02 X531.402980 Y319.020588 Z-1.000000 I2525.770509 J2031.579496
G02 X529.125860 Y322.238160 Z-1.000000 I29.130710 J23.030764
G02 X529.554416 Y322.765319 Z-1.000000 I0.303215 J0.191278
G02 X553.125230 Y313.282298 Z-1.000000 I-175.296173 J-469.747875
G01 X553.125230 Y313.282298 Z-1.000000
G00 Z5.000000
M05 (turn off plasma)
(End cutting path id: path826)


(Start cutting path id: path826)
(Change tool to Plasma cutter)
 
G00 Z5.000000
G00 X348.442720 Y298.519385
G31 Z-100 F500 (find metal)
G92 Z0 (zero z)
G00 Z10 F500 (going up)
M03 (turn on plasma)
G04 P0.2 (pause)
G01 Z1 (going to cutting z)
G01 Z-1.000000 F100.0(Penetrate)
G01 X349.944630 Y288.941120 Z-1.000000 F400.000000
G01 X324.184630 Y259.945816 Z-1.000000
G02 X298.412632 Y231.288234 Z-1.000000 I-2380.255865 J2114.666321
G02 X298.088460 Y231.278671 Z-1.000000 I-0.166704 J0.151753
G02 X298.037116 Y231.645332 Z-1.000000 I0.211399 J0.216528
G02 X321.462620 Y272.185019 Z-1.000000 I4202.158758 J-2401.142762
G02 X344.987536 Y310.542713 Z-1.000000 I910.360053 J-531.934394
G02 X346.056860 Y310.430404 Z-1.000000 I0.506360 J-0.325622
G02 X346.742619 Y308.045156 Z-1.000000 I-14.122894 J-5.351532
G02 X348.442720 Y298.519385 Z-1.000000 I-225.094084 J-45.088018
G01 X348.442720 Y298.519385 Z-1.000000
G00 Z5.000000
M05 (turn off plasma)
(End cutting path id: path826)


(Start cutting path id: path826)
(Change tool to Plasma cutter)
 
G00 Z5.000000
G00 X390.217010 Y271.858798
G31 Z-100 F500 (find metal)
G92 Z0 (zero z)
G00 Z10 F500 (going up)
M03 (turn on plasma)
G04 P0.2 (pause)
G01 Z1 (going to cutting z)
G01 Z-1.000000 F100.0(Penetrate)
G02 X413.464065 Y231.691398 Z-1.000000 I-3847.644229 J-2253.651474 F400.000000
G02 X413.409380 Y231.300507 Z-1.000000 I-0.279982 J-0.160102
G02 X413.063672 Y231.310549 Z-1.000000 I-0.168002 J0.172069
G02 X387.270260 Y259.969000 Z-1.000000 I2208.624564 J2013.760878
G01 X361.489640 Y288.987513 Z-1.000000
G01 X363.025290 Y298.133632 Z-1.000000
G02 X365.826875 Y312.304377 Z-1.000000 I247.058047 J-41.481570
G02 X366.284770 Y312.439371 Z-1.000000 I0.266766 J-0.060781
G02 X366.610753 Y312.023778 Z-1.000000 I-1.398510 J-1.432606
G02 X390.217010 Y271.858798 Z-1.000000 I-13419.312552 J-7913.983470
G01 X390.217010 Y271.858798 Z-1.000000
G00 Z5.000000
M05 (turn off plasma)
(End cutting path id: path826)


(Start cutting path id: path826)
(Change tool to Plasma cutter)
 
G00 Z5.000000
G00 X329.203160 Y300.876974
G31 Z-100 F500 (find metal)
G92 Z0 (zero z)
G00 Z10 F500 (going up)
M03 (turn on plasma)
G04 P0.2 (pause)
G01 Z1 (going to cutting z)
G01 Z-1.000000 F100.0(Penetrate)
G03 X320.597212 Y292.647673 Z-1.000000 I1769.135057 J-1858.721363 F400.000000
G03 X285.965570 Y259.339250 Z-1.000000 I28952.769322 J-30137.610825
G01 X251.353050 Y226.010885 Z-1.000000
G01 X233.181560 Y228.248769 Z-1.000000
G02 X215.135755 Y230.748222 Z-1.000000 I73.767139 J598.985674
G02 X214.330160 Y231.150416 Z-1.000000 I0.224289 J1.457152
G02 X214.376597 Y231.738538 Z-1.000000 I0.268204 J0.274717
G02 X229.445420 Y241.846051 Z-1.000000 I209.777700 J-296.461393
G02 X335.042016 Y308.455657 Z-1.000000 I10826.875390 J-17046.902363
G02 X336.605200 Y308.979539 Z-1.000000 I1.869446 J-2.984045
G02 X336.785003 Y308.615578 Z-1.000000 I0.018961 J-0.217026
G02 X329.203160 Y300.876974 Z-1.000000 I-114.541849 J104.638140
G01 X329.203160 Y300.876974 Z-1.000000
G00 Z5.000000
M05 (turn off plasma)
(End cutting path id: path826)


(Start cutting path id: path826)
(Change tool to Plasma cutter)
 
G00 Z5.000000
G00 X338.692330 Y305.172061
G31 Z-100 F500 (find metal)
G92 Z0 (zero z)
G00 Z10 F500 (going up)
M03 (turn on plasma)
G04 P0.2 (pause)
G01 Z1 (going to cutting z)
G01 Z-1.000000 F100.0(Penetrate)
G03 X336.306080 Y301.223865 Z-1.000000 I137.289666 J-85.671715 F400.000000
G03 X313.147710 Y261.513014 Z-1.000000 I13865.716326 J-8112.745254
G02 X290.030120 Y221.778803 Z-1.000000 I-48725.193064 J28322.002761
G02 X289.877920 Y221.554735 Z-1.000000 I-1.689524 J0.983897
G02 X289.559461 Y221.420851 Z-1.000000 I-0.279797 J0.219843
G02 X274.689558 Y223.139134 Z-1.000000 I131.631043 J1204.326634
G02 X260.345016 Y224.968875 Z-1.000000 I154.766509 J1270.459338
G02 X257.044000 Y225.554542 Z-1.000000 I5.143981 J38.588880
G02 X256.609688 Y226.981410 Z-1.000000 I0.185796 J0.836085
G02 X297.138330 Y267.639022 Z-1.000000 I918.658257 J-875.215321
G02 X340.373135 Y308.909161 Z-1.000000 I9363.219973 J-9765.674605
G02 X340.725890 Y309.062220 Z-1.000000 I0.385665 J-0.405815
G02 X340.828115 Y308.904121 Z-1.000000 I0.006360 J-0.107986
G02 X338.692330 Y305.172061 Z-1.000000 I-50.011894 J26.143664
G01 X338.692330 Y305.172061 Z-1.000000
G00 Z5.000000
M05 (turn off plasma)
(End cutting path id: path826)


(Start cutting path id: path826)
(Change tool to Plasma cutter)
 
G00 Z5.000000
G00 X446.927340 Y236.382998
G31 Z-100 F500 (find metal)
G92 Z0 (zero z)
G00 Z10 F500 (going up)
M03 (turn on plasma)
G04 P0.2 (pause)
G01 Z1 (going to cutting z)
G01 Z-1.000000 F100.0(Penetrate)
G02 X454.871132 Y226.846299 Z-1.000000 I-44.904024 J-45.480566 F400.000000
G02 X454.329370 Y225.499875 Z-1.000000 I-0.722586 J-0.491459
G02 X450.955185 Y224.922574 Z-1.000000 I-9.089847 J42.978678
G02 X436.695366 Y223.127636 Z-1.000000 I-177.594645 J1353.352921
G02 X421.893512 Y221.430241 Z-1.000000 I-154.365200 J1280.729133
G02 X421.597570 Y221.554735 Z-1.000000 I-0.035794 J0.328908
G02 X421.445335 Y221.778817 Z-1.000000 I1.535554 J1.206966
G02 X398.327780 Y261.513014 Z-1.000000 I48803.858088 J28420.920992
G03 X375.181358 Y301.231299 Z-1.000000 I-17667.304224 J-10269.280811
G03 X372.643070 Y305.473158 Z-1.000000 I-204.022686 J-119.204879
G02 X373.043682 Y305.807993 Z-1.000000 I0.225010 J0.137861
G02 X398.431326 Y282.689942 Z-1.000000 I-1083.490818 J-1215.360591
G02 X423.629318 Y258.974743 Z-1.000000 I-1995.011392 J-2144.993824
G02 X446.927340 Y236.382998 Z-1.000000 I-1242.056920 J-1304.195899
G01 X446.927340 Y236.382998 Z-1.000000
G00 Z5.000000
M05 (turn off plasma)
(End cutting path id: path826)


(Start cutting path id: path826)
(Change tool to Plasma cutter)
 
G00 Z5.000000
G00 X423.785220 Y278.567827
G31 Z-100 F500 (find metal)
G92 Z0 (zero z)
G00 Z10 F500 (going up)
M03 (turn on plasma)
G04 P0.2 (pause)
G01 Z1 (going to cutting z)
G01 Z-1.000000 F100.0(Penetrate)
G02 X496.992946 Y231.832511 Z-1.000000 I-3377.017040 J-5370.574974 F400.000000
G02 X497.068310 Y231.075214 Z-1.000000 I-0.264906 J-0.408761
G02 X496.164941 Y230.625050 Z-1.000000 I-1.151768 J1.179816
G02 X478.196360 Y228.199245 Z-1.000000 I-80.160905 J526.011080
G01 X460.087200 Y226.067972 Z-1.000000
G01 X423.641790 Y261.161838 Z-1.000000
G03 X387.174240 Y296.232555 Z-1.000000 I-27710.367108 J-28777.551512
G03 X380.424590 Y302.671018 Z-1.000000 I-940.496597 J-979.195965
G02 X374.333668 Y308.815020 Z-1.000000 I94.874790 J100.146281
G02 X374.451760 Y309.086319 Z-1.000000 I0.118092 J0.109948
G02 X375.190202 Y308.876375 Z-1.000000 I0.000000 J-1.403644
G02 X423.785220 Y278.567827 Z-1.000000 I-4109.517309 J-6643.079979
G01 X423.785220 Y278.567827 Z-1.000000
G00 Z5.000000
M05 (turn off plasma)
(End cutting path id: path826)


(Start cutting path id: path826)
(Change tool to Plasma cutter)
 
G00 Z5.000000
G00 X142.301580 Y273.159983
G31 Z-100 F500 (find metal)
G92 Z0 (zero z)
G00 Z10 F500 (going up)
M03 (turn on plasma)
G04 P0.2 (pause)
G01 Z1 (going to cutting z)
G01 Z-1.000000 F100.0(Penetrate)
G02 X141.830668 Y271.719983 Z-1.000000 I-2.387108 J-0.016363 F400.000000
G02 X130.405350 Y256.763019 Z-1.000000 I-565.806654 J420.365853
G02 X118.621803 Y242.178769 Z-1.000000 I-530.405494 J416.496009
G02 X117.946290 Y242.143632 Z-1.000000 I-0.353974 J0.294224
G02 X117.837783 Y242.551961 Z-1.000000 I0.288147 J0.295152
G02 X125.384056 Y268.574517 Z-1.000000 I3025.764559 J-863.335129
G02 X132.921538 Y293.779458 Z-1.000000 I3131.280412 J-922.672926
G02 X134.477830 Y298.246833 Z-1.000000 I55.753920 J-16.918136
G02 X135.033990 Y298.241368 Z-1.000000 I0.277033 J-0.109314
G02 X138.622273 Y287.739515 Z-1.000000 I-193.093451 J-71.840294
G02 X141.839947 Y276.598970 Z-1.000000 I-261.923496 J-81.685160
G02 X142.301580 Y273.159983 Z-1.000000 I-13.278370 J-3.532901
G01 X142.301580 Y273.159983 Z-1.000000
G00 Z5.000000
M05 (turn off plasma)
(End cutting path id: path826)


(Start cutting path id: path826)
(Change tool to Plasma cutter)
 
G00 Z5.000000
G00 X585.669790 Y270.090842
G31 Z-100 F500 (find metal)
G92 Z0 (zero z)
G00 Z10 F500 (going up)
M03 (turn on plasma)
G04 P0.2 (pause)
G01 Z1 (going to cutting z)
G01 Z-1.000000 F100.0(Penetrate)
G02 X593.650505 Y242.609894 Z-1.000000 I-1575.847508 J-472.539628 F400.000000
G02 X593.524330 Y242.138886 Z-1.000000 I-0.459850 J-0.129219
G02 X593.141608 Y242.156394 Z-1.000000 I-0.183179 J0.187618
G02 X580.907740 Y256.938473 Z-1.000000 I500.510657 J426.683550
G01 X568.699000 Y272.136229 Z-1.000000
G01 X572.269080 Y285.786720 Z-1.000000
G02 X576.075865 Y298.432868 Z-1.000000 I174.632917 J-45.672529
G02 X576.623270 Y298.540920 Z-1.000000 I0.304914 J-0.104095
G02 X577.194781 Y297.527088 Z-1.000000 I-2.146869 J-1.878219
G02 X585.669790 Y270.090842 Z-1.000000 I-1654.911070 J-526.226258
G01 X585.669790 Y270.090842 Z-1.000000
G00 Z5.000000
M05 (turn off plasma)
(End cutting path id: path826)


(Start cutting path id: path826)
(Change tool to Plasma cutter)
 
G00 Z5.000000
G00 X215.811630 Y290.719410
G31 Z-100 F500 (find metal)
G92 Z0 (zero z)
G00 Z10 F500 (going up)
M03 (turn on plasma)
G04 P0.2 (pause)
G01 Z1 (going to cutting z)
G01 Z-1.000000 F100.0(Penetrate)
G03 X215.229707 Y286.797820 Z-1.000000 I150.316377 J-24.309330 F400.000000
G03 X213.820660 Y275.983476 Z-1.000000 I1142.089015 J-154.306667
G02 X212.367461 Y265.234222 Z-1.000000 I-563.904812 J70.761838
G02 X212.238850 Y265.068425 Z-1.000000 I-0.210500 J0.030506
G02 X212.006588 Y265.035932 Z-1.000000 I-0.178242 J0.427732
G02 X180.556360 Y268.787333 Z-1.000000 I983.961164 J8382.841937
G02 X151.642406 Y272.949016 Z-1.000000 I78.604893 J648.642946
G02 X151.565060 Y273.623949 Z-1.000000 I0.058151 J0.348562
G02 X156.528820 Y275.491920 Z-1.000000 I30.287350 J-72.953510
G02 X184.597082 Y284.886689 Z-1.000000 I1411.555436 J-4170.604005
G02 X213.425265 Y294.315130 Z-1.000000 I1346.689788 J-4068.821001
G02 X214.846650 Y294.568754 Z-1.000000 I1.637534 J-5.067508
G02 X215.673773 Y293.949994 Z-1.000000 I0.033238 J-0.817775
G02 X215.811630 Y290.719410 Z-1.000000 I-7.779488 J-1.950203
G01 X215.811630 Y290.719410 Z-1.000000
G00 Z5.000000
M05 (turn off plasma)
(End cutting path id: path826)


(Start cutting path id: path826)
(Change tool to Plasma cutter)
 
G00 Z5.000000
G00 X249.779430 Y261.156286
G31 Z-100 F500 (find metal)
G92 Z0 (zero z)
G00 Z10 F500 (going up)
M03 (turn on plasma)
G04 P0.2 (pause)
G01 Z1 (going to cutting z)
G01 Z-1.000000 F100.0(Penetrate)
G02 X248.303137 Y260.994033 Z-1.000000 I-1.128040 J3.466397 F400.000000
G02 X232.245383 Y262.698161 Z-1.000000 I76.757831 J799.785106
G02 X216.146672 Y264.736885 Z-1.000000 I91.981759 J790.911260
G02 X215.258880 Y265.170967 Z-1.000000 I0.214116 J1.562820
G02 X215.021139 Y265.797513 Z-1.000000 I0.555781 J0.569268
G02 X216.360030 Y280.426089 Z-1.000000 I381.278003 J-27.521196
G01 X217.994600 Y295.160421 Z-1.000000
G01 X234.517600 Y278.363550 Z-1.000000
G02 X249.962484 Y261.829966 Z-1.000000 I-312.461592 J-307.367410
G02 X249.779430 Y261.156286 Z-1.000000 I-0.312178 J-0.276884
G01 X249.779430 Y261.156286 Z-1.000000
G00 Z5.000000
M05 (turn off plasma)
(End cutting path id: path826)


(Start cutting path id: path826)
(Change tool to Plasma cutter)
 
G00 Z5.000000
G00 X496.212090 Y265.166571
G31 Z-100 F500 (find metal)
G92 Z0 (zero z)
G00 Z10 F500 (going up)
M03 (turn on plasma)
G04 P0.2 (pause)
G01 Z1 (going to cutting z)
G01 Z-1.000000 F100.0(Penetrate)
G02 X495.286701 Y264.712879 Z-1.000000 I-1.152877 J1.180911 F400.000000
G02 X479.286636 Y262.660199 Z-1.000000 I-104.031841 J747.514420
G02 X463.326912 Y260.956049 Z-1.000000 I-88.873834 J756.736998
G02 X461.794040 Y261.124394 Z-1.000000 I-0.362067 J3.766162
G02 X461.610168 Y261.796090 Z-1.000000 I0.128971 J0.396320
G02 X476.915910 Y278.303680 Z-1.000000 I326.887600 J-287.738789
G01 X493.292150 Y295.074765 Z-1.000000
G01 X495.045560 Y280.407131 Z-1.000000
G02 X496.471623 Y265.855012 Z-1.000000 I-340.952694 J-40.758240
G02 X496.212090 Y265.166571 Z-1.000000 I-0.866851 J-0.066350
G01 X496.212090 Y265.166571 Z-1.000000
G00 Z5.000000
M05 (turn off plasma)
(End cutting path id: path826)


(Start cutting path id: path826)
(Change tool to Plasma cutter)
 
G00 Z5.000000
G00 X528.789760 Y284.256402
G31 Z-100 F500 (find metal)
G92 Z0 (zero z)
G00 Z10 F500 (going up)
M03 (turn on plasma)
G04 P0.2 (pause)
G01 Z1 (going to cutting z)
G01 Z-1.000000 F100.0(Penetrate)
G02 X559.791615 Y273.673657 Z-1.000000 I-729.994921 J-2189.200601 F400.000000
G02 X560.824430 Y273.066582 Z-1.000000 I-1.017691 J-2.913495
G02 X560.680967 Y272.588393 Z-1.000000 I-0.182904 J-0.205741
G02 X530.291050 Y268.646371 Z-1.000000 I-148.603979 J1026.508456
G02 X499.265657 Y265.511872 Z-1.000000 I-131.315336 J1144.651904
G02 X498.843680 Y265.898586 Z-1.000000 I-0.033790 J0.386714
G03 X498.714549 Y267.924999 Z-1.000000 I-15.964518 J-0.000000
G03 X495.744490 Y290.117216 Z-1.000000 I-1925.483913 J-246.399135
G02 X495.751260 Y294.078760 Z-1.000000 I14.006684 J1.956842
G02 X496.391290 Y294.633671 Z-1.000000 I0.640030 J-0.091648
G02 X497.637517 Y294.438958 Z-1.000000 I-0.000000 J-4.085503
G02 X528.789760 Y284.256402 Z-1.000000 I-841.440548 J-2627.025349
G01 X528.789760 Y284.256402 Z-1.000000
G00 Z5.000000
M05 (turn off plasma)
(End cutting path id: path826)


(Start cutting path id: path826)
(Change tool to Plasma cutter)
 
G00 Z5.000000
G00 X362.324460 Y276.885250
G31 Z-100 F500 (find metal)
G92 Z0 (zero z)
G00 Z10 F500 (going up)
M03 (turn on plasma)
G04 P0.2 (pause)
G01 Z1 (going to cutting z)
G01 Z-1.000000 F100.0(Penetrate)
G01 X365.604220 Y272.385091 Z-1.000000 F400.000000
G01 X360.691170 Y267.588666 Z-1.000000
G01 X355.778130 Y262.792241 Z-1.000000
G01 X350.881990 Y267.459712 Z-1.000000
G01 X345.985840 Y272.127184 Z-1.000000
G01 X349.319710 Y276.730582 Z-1.000000
G02 X353.114948 Y280.534069 Z-1.000000 I13.870846 J-10.045515
G02 X355.840520 Y281.438595 Z-1.000000 I2.781804 J-3.823611
G02 X358.569831 Y280.588243 Z-1.000000 I0.055047 J-4.628529
G02 X362.324460 Y276.885250 Z-1.000000 I-9.414596 J-13.300867
G01 X362.324460 Y276.885250 Z-1.000000
G00 Z5.000000
M05 (turn off plasma)
(End cutting path id: path826)


(Start cutting path id: path826)
(Change tool to Plasma cutter)
 
G00 Z5.000000
G00 X175.409010 Y251.275719
G31 Z-100 F500 (find metal)
G92 Z0 (zero z)
G00 Z10 F500 (going up)
M03 (turn on plasma)
G04 P0.2 (pause)
G01 Z1 (going to cutting z)
G01 Z-1.000000 F100.0(Penetrate)
G02 X204.874465 Y232.465473 Z-1.000000 I-1341.667527 J-2134.148779 F400.000000
G02 X205.166720 Y231.987164 Z-1.000000 I-0.352499 J-0.543823
G02 X204.889317 Y231.692224 Z-1.000000 I-0.266743 J-0.027042
G02 X169.144880 Y233.420433 Z-1.000000 I83.270975 J2092.801966
G03 X133.055001 Y235.323446 Z-1.000000 I-245.988627 J-4321.908037
G03 X125.349540 Y235.546466 Z-1.000000 I-9.549473 J-196.714454
G02 X118.198468 Y236.172840 Z-1.000000 I0.430919 J46.053361
G02 X117.639090 Y236.833319 Z-1.000000 I0.110237 J0.660479
G02 X118.168764 Y238.396370 Z-1.000000 I2.571093 J-0.000000
G02 X130.776574 Y254.403472 Z-1.000000 I590.307683 J-451.980309
G02 X143.835882 Y270.069449 Z-1.000000 I564.411608 J-457.222753
G02 X144.754020 Y270.304922 Z-1.000000 I0.627238 J-0.537975
G02 X145.669782 Y269.853897 Z-1.000000 I-1.838254 J-4.887588
G02 X175.409010 Y251.275719 Z-1.000000 I-3250.137073 J-5235.785425
G01 X175.409010 Y251.275719 Z-1.000000
G00 Z5.000000
M05 (turn off plasma)
(End cutting path id: path826)


(Start cutting path id: path826)
(Change tool to Plasma cutter)
 
G00 Z5.000000
G00 X184.583090 Y266.437513
G31 Z-100 F500 (find metal)
G92 Z0 (zero z)
G00 Z10 F500 (going up)
M03 (turn on plasma)
G04 P0.2 (pause)
G01 Z1 (going to cutting z)
G01 Z-1.000000 F100.0(Penetrate)
G02 X207.610488 Y263.433506 Z-1.000000 I-119.474594 J-1005.600797 F400.000000
G02 X208.379060 Y263.055316 Z-1.000000 I-0.193878 J-1.364062
G02 X208.265638 Y262.065235 Z-1.000000 I-0.440381 J-0.451088
G02 X196.553565 Y255.460522 Z-1.000000 I-109.681752 J180.810768
G02 X184.174686 Y249.440070 Z-1.000000 I-109.935915 J210.306828
G02 X182.210620 Y249.376003 Z-1.000000 I-1.059731 J2.349894
G02 X179.868036 Y250.523424 Z-1.000000 I4.723617 J12.608802
G02 X164.992550 Y259.856538 Z-1.000000 I586.671841 J951.581958
G02 X149.989606 Y269.610111 Z-1.000000 I582.615912 J912.595146
G02 X149.714550 Y270.122035 Z-1.000000 I0.338858 J0.511924
G02 X149.956520 Y270.355341 Z-1.000000 I0.233461 J0.000000
G02 X155.574500 Y269.908328 Z-1.000000 I-2.392018 J-65.588884
G03 X161.435605 Y269.197340 Z-1.000000 I220.372791 J1792.151291
G03 X184.583090 Y266.437513 Z-1.000000 I3346.826623 J27972.414952
G01 X184.583090 Y266.437513 Z-1.000000
G00 Z5.000000
M05 (turn off plasma)
(End cutting path id: path826)


(Start cutting path id: path826)
(Change tool to Plasma cutter)
 
G00 Z5.000000
G00 X561.760940 Y270.080556
G31 Z-100 F500 (find metal)
G92 Z0 (zero z)
G00 Z10 F500 (going up)
M03 (turn on plasma)
G04 P0.2 (pause)
G01 Z1 (going to cutting z)
G01 Z-1.000000 F100.0(Penetrate)
G02 X561.500839 Y269.597350 Z-1.000000 I-0.578892 J0.000000 F400.000000
G02 X546.462215 Y259.842633 Z-1.000000 I-635.113770 J962.670638
G02 X531.549604 Y250.488192 Z-1.000000 I-638.630236 J1001.524151
G02 X529.328870 Y249.399970 Z-1.000000 I-6.691061 J10.844411
G02 X527.430040 Y249.461819 Z-1.000000 I-0.874397 J2.334053
G02 X514.991251 Y255.492365 Z-1.000000 I101.966089 J226.161980
G02 X503.193362 Y262.087563 Z-1.000000 I102.377675 J196.989368
G02 X503.081690 Y263.040936 Z-1.000000 I0.311674 J0.519734
G02 X503.834150 Y263.411495 Z-1.000000 I0.943370 J-0.966360
G02 X530.579080 Y266.967504 Z-1.000000 I197.533601 J-1383.307384
G02 X561.403883 Y270.403741 Z-1.000000 I164.646866 J-1336.991492
G02 X561.760940 Y270.080556 Z-1.000000 I0.032265 J-0.323185
G01 X561.760940 Y270.080556 Z-1.000000
G00 Z5.000000
M05 (turn off plasma)
(End cutting path id: path826)


(Start cutting path id: path826)
(Change tool to Plasma cutter)
 
G00 Z5.000000
G00 X580.807300 Y254.296937
G31 Z-100 F500 (find metal)
G92 Z0 (zero z)
G00 Z10 F500 (going up)
M03 (turn on plasma)
G04 P0.2 (pause)
G01 Z1 (going to cutting z)
G01 Z-1.000000 F100.0(Penetrate)
G02 X593.475344 Y237.921053 Z-1.000000 I-463.118836 J-371.346918 F400.000000
G02 X593.836400 Y236.833319 Z-1.000000 I-1.457949 J-1.087734
G02 X593.277070 Y236.172154 Z-1.000000 I-0.670435 J0.000000
G02 X586.125950 Y235.537602 Z-1.000000 I-7.635615 J45.437747
G03 X578.420425 Y235.309937 Z-1.000000 I2.128282 J-202.547374
G03 X542.330610 Y233.408956 Z-1.000000 I216.185280 J-4447.773108
G02 X506.592573 Y231.688371 Z-1.000000 I-118.191924 J2082.932707
G02 X506.318150 Y231.984550 Z-1.000000 I-0.010501 J0.265493
G02 X506.658224 Y232.531207 Z-1.000000 I0.749375 J-0.087076
G02 X536.171626 Y251.425244 Z-1.000000 I2368.824213 J-3667.720686
G02 X565.752523 Y270.030733 Z-1.000000 I2350.691554 J-3704.550098
G02 X566.928500 Y270.444354 Z-1.000000 I1.516064 J-2.431828
G02 X567.625854 Y270.173152 Z-1.000000 I0.094395 J-0.789448
G02 X580.807300 Y254.296937 Z-1.000000 I-458.617675 J-394.183793
G01 X580.807300 Y254.296937 Z-1.000000
G00 Z5.000000
M05 (turn off plasma)
(End cutting path id: path826)


(Start cutting path id: path826)
(Change tool to Plasma cutter)
 
G00 Z5.000000
G00 X235.249780 Y260.395306
G31 Z-100 F500 (find metal)
G92 Z0 (zero z)
G00 Z10 F500 (going up)
M03 (turn on plasma)
G04 P0.2 (pause)
G01 Z1 (going to cutting z)
G01 Z-1.000000 F100.0(Penetrate)
G02 X249.746409 Y258.486336 Z-1.000000 I-54.618500 J-470.768270 F400.000000
G02 X250.401770 Y258.161744 Z-1.000000 I-0.172915 J-1.173012
G02 X250.356715 Y257.675873 Z-1.000000 I-0.219353 J-0.224684
G02 X230.822540 Y244.875703 Z-1.000000 I-772.500185 J1157.597156
G02 X211.038997 Y232.374407 Z-1.000000 I-778.504826 J1210.094420
G02 X209.744990 Y232.005519 Z-1.000000 I-1.294007 J2.085149
G02 X208.670362 Y232.303472 Z-1.000000 I-0.000000 J2.086910
G02 X197.145510 Y239.407986 Z-1.000000 I303.272088 J504.864096
G02 X185.829293 Y246.756747 Z-1.000000 I299.732996 J473.940346
G02 X185.792380 Y247.153811 Z-1.000000 I0.142313 J0.213478
G02 X186.238739 Y247.494774 Z-1.000000 I1.623853 J-1.663157
G02 X199.723050 Y255.338625 Z-1.000000 I908.691099 J-1546.612415
G02 X213.438371 Y262.149634 Z-1.000000 I62.086759 J-107.809273
G02 X216.949670 Y262.608524 Z-1.000000 I2.586679 J-6.129358
G03 X220.655221 Y262.124464 Z-1.000000 I27.224585 J193.983063
G03 X235.249780 Y260.395306 Z-1.000000 I363.604373 J3006.462605
G01 X235.249780 Y260.395306 Z-1.000000
G00 Z5.000000
M05 (turn off plasma)
(End cutting path id: path826)


(Start cutting path id: path826)
(Change tool to Plasma cutter)
 
G00 Z5.000000
G00 X509.540620 Y256.516913
G31 Z-100 F500 (find metal)
G92 Z0 (zero z)
G00 Z10 F500 (going up)
M03 (turn on plasma)
G04 P0.2 (pause)
G01 Z1 (going to cutting z)
G01 Z-1.000000 F100.0(Penetrate)
G02 X521.621464 Y249.640590 Z-1.000000 I-547.668698 J-976.236095 F400.000000
G02 X523.879040 Y248.237302 Z-1.000000 I-20.468837 J-35.447402
G02 X523.993489 Y246.791033 Z-1.000000 I-0.512841 J-0.768246
G02 X514.308590 Y239.382946 Z-1.000000 I-44.310238 J47.893830
G02 X502.468147 Y232.205885 Z-1.000000 I-253.901557 J405.521656
G02 X501.730500 Y232.005519 Z-1.000000 I-0.737647 J1.257641
G02 X500.401021 Y232.384675 Z-1.000000 I-0.000000 J2.520429
G02 X480.644144 Y244.881811 Z-1.000000 I736.246932 J1185.807469
G02 X461.144669 Y257.685991 Z-1.000000 I730.469575 J1133.681456
G02 X461.098610 Y258.186037 Z-1.000000 I0.179788 J0.268705
G02 X461.783550 Y258.527627 Z-1.000000 I0.874218 J-0.895439
G02 X478.717930 Y260.881975 Z-1.000000 I94.449153 J-617.274892
G03 X495.755940 Y263.036915 Z-1.000000 I-784.634969 J6272.141235
G03 X496.587060 Y263.166721 Z-1.000000 I-1.921702 J15.029872
G02 X497.370229 Y263.051706 Z-1.000000 I0.222843 J-1.206512
G02 X509.540620 Y256.516913 Z-1.000000 I-170.630600 J-332.382712
G01 X509.540620 Y256.516913 Z-1.000000
G00 Z5.000000
M05 (turn off plasma)
(End cutting path id: path826)


(Start cutting path id: path826)
(Change tool to Plasma cutter)
 
G00 Z5.000000
G00 X160.372290 Y231.978553
G31 Z-100 F500 (find metal)
G92 Z0 (zero z)
G00 Z10 F500 (going up)
M03 (turn on plasma)
G04 P0.2 (pause)
G01 Z1 (going to cutting z)
G01 Z-1.000000 F100.0(Penetrate)
G02 X203.169432 Y229.407803 Z-1.000000 I-377.498381 J-6642.011966 F400.000000
G02 X203.532540 Y229.246388 Z-1.000000 I-0.036104 J-0.570336
G02 X203.484234 Y229.029299 Z-1.000000 I-0.091367 J-0.093588
G02 X138.234560 Y206.479204 Z-1.000000 I-4149.318944 J11900.557247
G02 X72.676539 Y184.157888 Z-1.000000 I-6105.060835 J17823.217389
G02 X72.463883 Y184.220310 Z-1.000000 I-0.061847 J0.182746
G02 X72.473524 Y184.912492 Z-1.000000 I0.426410 J0.340219
G02 X93.585334 Y209.563308 Z-1.000000 I1790.920393 J-1512.440281
G02 X115.047879 Y233.936000 Z-1.000000 I1789.449899 J-1554.149716
G02 X116.035290 Y234.388484 Z-1.000000 I1.011044 J-0.902697
G02 X117.514610 Y234.361224 Z-1.000000 I0.359903 J-20.621580
G02 X160.372290 Y231.978553 Z-1.000000 I-942.774369 J-17344.551144
G01 X160.372290 Y231.978553 Z-1.000000
G00 Z5.000000
M05 (turn off plasma)
(End cutting path id: path826)


(Start cutting path id: path826)
(Change tool to Plasma cutter)
 
G00 Z5.000000
G00 X618.224310 Y209.122156
G31 Z-100 F500 (find metal)
G92 Z0 (zero z)
G00 Z10 F500 (going up)
M03 (turn on plasma)
G04 P0.2 (pause)
G01 Z1 (going to cutting z)
G01 Z-1.000000 F100.0(Penetrate)
G02 X639.013188 Y184.431097 Z-1.000000 I-2898.296954 J-2461.346675 F400.000000
G02 X639.013630 Y184.216770 Z-1.000000 I-0.128699 J-0.107429
G02 X638.792262 Y184.153964 Z-1.000000 I-0.156302 J0.129383
G02 X573.199620 Y206.497942 Z-1.000000 I5902.649045 J17435.175022
G02 X509.418343 Y228.883895 Z-1.000000 I1491.699615 J4352.153118
G02 X509.452890 Y229.399140 Z-1.000000 I0.090781 J0.252694
G02 X512.576738 Y229.829428 Z-1.000000 I4.459535 J-20.821242
G02 X549.453585 Y232.017497 Z-1.000000 I330.681598 J-5261.328843
G02 X585.875243 Y233.926016 Z-1.000000 I298.179482 J-5341.890292
G02 X591.537090 Y233.981004 Z-1.000000 I3.531360 J-72.092884
G01 X597.256660 Y233.812100 Z-1.000000
G01 X618.224310 Y209.122156 Z-1.000000
G00 Z5.000000
M05 (turn off plasma)
(End cutting path id: path826)


(Start cutting path id: path826)
(Change tool to Plasma cutter)
 
G00 Z5.000000
G00 X216.433740 Y228.392357
G31 Z-100 F500 (find metal)
G92 Z0 (zero z)
G00 Z10 F500 (going up)
M03 (turn on plasma)
G04 P0.2 (pause)
G01 Z1 (going to cutting z)
G01 Z-1.000000 F100.0(Penetrate)
G01 X220.033850 Y228.392357 Z-1.000000 F400.000000
G01 X220.033850 Y218.842647 Z-1.000000
G01 X220.033850 Y209.292939 Z-1.000000
G01 X213.557070 Y208.022942 Z-1.000000
G02 X207.068720 Y206.815604 Z-1.000000 I-65.799568 J335.575158
G02 X147.864050 Y196.453660 Z-1.000000 I-4918.971584 J27931.031559
G03 X88.677565 Y186.025033 Z-1.000000 I2335.352957 J-13427.197285
G03 X86.180462 Y185.444760 Z-1.000000 I4.357052 J-24.412861
G02 X84.612656 Y185.277022 Z-1.000000 I-1.262584 J4.390241
G02 X84.504469 Y185.557010 Z-1.000000 I0.011060 J0.165170
