%
(Header)
(Generated by gcodetools from Inkscape.)
(Using default header. To add your own header create file "header" in the output dir.)
M3
(Header end.)
G21 (All units in mm)



(Start cutting path id: path25585)
(Change tool to Cylindrical cutter)

G00 Z5.000000
G00 X132.091120 Y433.699631

G01 Z-1.000000 F100.0(Penetrate)
G03 X129.189570 Y432.353844 Z-1.000000 I7.454922 J-19.873803 F400.000000
G03 X125.783180 Y430.173721 Z-1.000000 I16.558055 J-29.622821
G03 X124.068844 Y428.753673 Z-1.000000 I10.426539 J-14.332143
G03 X117.813876 Y422.730292 Z-1.000000 I249.631983 J-265.489254
G03 X111.835978 Y416.758756 Z-1.000000 I462.655328 J-469.126184
G03 X104.539661 Y409.308753 Z-1.000000 I816.455776 J-806.910963
G03 X97.306672 Y401.786687 Z-1.000000 I809.493080 J-785.622423
G03 X91.768576 Y395.893622 Z-1.000000 I428.753800 J-408.476596
G03 X86.170442 Y389.686396 Z-1.000000 I224.092832 J-207.731446
G03 X85.308660 Y388.469417 Z-1.000000 I5.398381 J-4.736383
G03 X83.172079 Y383.615795 Z-1.000000 I23.749692 J-13.351771
G03 X81.661317 Y377.359218 Z-1.000000 I38.132791 J-12.518531
G03 X81.555615 Y376.235686 Z-1.000000 I8.872502 J-1.401468
G03 X81.370540 Y368.314064 Z-1.000000 I521.889482 J-16.155991
G03 X81.272891 Y360.541037 Z-1.000000 I1210.994098 J-19.100279
G03 X81.177207 Y348.002688 Z-1.000000 I3641.693252 J-34.060519
G03 X81.078803 Y322.223081 Z-1.000000 I6159.631990 J-36.402000
G03 X81.067259 Y288.635092 Z-1.000000 I12162.464040 J-20.974221
G03 X81.148549 Y255.044793 Z-1.000000 I12144.590471 J12.595245
G03 X81.300248 Y229.364063 Z-1.000000 I6102.740633 J23.208776
G03 X81.422027 Y216.873638 Z-1.000000 I3592.728788 J28.782315
G03 X81.535586 Y209.173398 Z-1.000000 I1181.522281 J13.573615
G03 X81.738226 Y201.322244 Z-1.000000 I503.422837 J9.065232
G03 X81.844949 Y200.297238 Z-1.000000 I7.348022 J0.247013
G03 X82.448553 Y197.266964 Z-1.000000 I66.949717 J11.760535
G03 X83.163569 Y194.876083 Z-1.000000 I17.107973 J3.813950
G03 X84.227182 Y192.625928 Z-1.000000 I14.615379 J5.532007
G03 X86.246863 Y189.571961 Z-1.000000 I25.205860 J14.474578
G03 X90.857044 Y184.124226 Z-1.000000 I51.786993 J39.150507
G03 X105.934590 Y168.432261 Z-1.000000 I973.357838 J920.156456
G03 X118.325887 Y155.840505 Z-1.000000 I1655.007102 J1616.266749
G03 X122.900501 Y151.375700 Z-1.000000 I138.793639 J137.631209
G03 X127.306399 Y147.642331 Z-1.000000 I36.775482 J38.933746
G03 X129.133140 Y146.519711 Z-1.000000 I6.624503 J8.731914
G03 X131.528263 Y145.388415 Z-1.000000 I49.103500 J100.858419
G03 X134.163646 Y144.488499 Z-1.000000 I5.784125 J12.629881
G03 X137.098538 Y144.007437 Z-1.000000 I5.096105 J21.897407
G03 X145.010522 Y143.485081 Z-1.000000 I12.558366 J130.036706
G03 X160.787806 Y143.188323 Z-1.000000 I16.737574 J470.310424
G03 X224.356010 Y143.130891 Z-1.000000 I57.039205 J27953.059560
G03 X287.794450 Y143.223418 Z-1.000000 I-6.052514 J25897.027378
G03 X303.834231 Y143.526837 Z-1.000000 I-1.326165 J494.216879
G03 X311.890262 Y144.042556 Z-1.000000 I-4.927992 J140.159457
G03 X314.916686 Y144.516119 Z-1.000000 I-2.270093 J24.414948
G03 X317.641777 Y145.406663 Z-1.000000 I-3.160355 J14.285476
G03 X320.001240 Y146.493761 Z-1.000000 I-29.417458 J66.952417
G03 X321.204681 Y147.130163 Z-1.000000 I-8.012190 J16.607155
G03 X322.597627 Y148.034876 Z-1.000000 I-7.885592 J13.665786
G03 X323.932763 Y149.084828 Z-1.000000 I-13.246427 J18.218238
G03 X326.260638 Y151.156421 Z-1.000000 I-43.657408 J51.402094
G03 X330.645304 Y155.400665 Z-1.000000 I-110.615143 J118.661888
G03 X343.308770 Y168.220751 Z-1.000000 I-1770.140381 J1761.179363
G03 X356.254608 Y181.510431 Z-1.000000 I-1976.113799 J1937.936268
G03 X360.328596 Y185.902343 Z-1.000000 I-102.125491 J98.818293
G03 X362.304261 Y188.245932 Z-1.000000 I-43.451007 J38.634101
G03 X363.333524 Y189.646993 Z-1.000000 I-16.787395 J13.411133
G03 X364.218527 Y191.108271 Z-1.000000 I-14.588023 J9.833674
G03 X364.975200 Y192.588558 Z-1.000000 I-31.190819 J16.877235
G01 X367.130720 Y197.061068 Z-1.000000
G01 X367.286860 Y287.908968 Z-1.000000
G03 X367.319711 Y334.302011 Z-1.000000 I-22951.642374 J39.448999
G03 X367.264629 Y357.209555 Z-1.000000 I-5449.000229 J-1.648653
G03 X367.188941 Y368.687916 Z-1.000000 I-2749.595525 J-12.391301
G03 X367.113640 Y374.619614 Z-1.000000 I-739.117956 J-6.416576
G03 X366.951949 Y380.521908 Z-1.000000 I-276.373460 J-4.617778
G03 X366.866670 Y381.136568 Z-1.000000 I-3.112098 J-0.118530
G03 X366.232947 Y383.477533 Z-1.000000 I-44.043967 J-10.666897
G03 X365.482078 Y385.468510 Z-1.000000 I-14.674636 J-4.397249
G03 X364.457733 Y387.344617 Z-1.000000 I-13.965233 J-6.407250
G03 X362.504851 Y390.077129 Z-1.000000 I-27.671929 J-17.712579
G03 X358.207186 Y395.026058 Z-1.000000 I-59.084122 J-46.968310
G03 X344.397130 Y409.402291 Z-1.000000 I-1064.142394 J-1008.412268
G03 X336.269284 Y417.663312 Z-1.000000 I-804.710592 J-783.608989
G03 X330.205431 Y423.690561 Z-1.000000 I-505.781582 J-502.789281
G03 X323.835864 Y429.806086 Z-1.000000 I-273.215102 J-278.189770
G03 X322.700830 Y430.710611 Z-1.000000 I-6.147553 J-6.549789
G03 X319.862741 Y432.365941 Z-1.000000 I-14.341186 J-21.327548
G03 X316.630620 Y433.748801 Z-1.000000 I-13.170082 J-26.313469
G01 X313.303000 Y434.942801 Z-1.000000
G01 X224.205480 Y434.887001 Z-1.000000
G03 X162.575523 Y434.811851 Z-1.000000 I32.504808 J-51929.110443
G03 X146.257055 Y434.691887 Z-1.000000 I2.670640 J-1473.227675
G03 X138.043889 Y434.505163 Z-1.000000 I5.380156 J-417.373513
G03 X135.363035 Y434.349036 Z-1.000000 I1.708213 J-52.426032
G03 X133.034169 Y433.984083 Z-1.000000 I1.377223 J-16.401511
G03 X132.091120 Y433.699591 Z-1.000000 I1.684664 J-7.289683
G01 X132.091120 Y433.699631 Z-1.000000
G00 Z5.000000

(Change tool to Cylindrical cutter)

G00 Z5.000000
G00 X306.991180 Y403.982191

G01 Z-1.000000 F100.0(Penetrate)
G02 X307.516907 Y403.595748 Z-1.000000 I-1.346914 J-2.383203 F400.000000
G02 X312.066504 Y399.238099 Z-1.000000 I-204.834891 J-218.411406
G02 X316.387386 Y394.967365 Z-1.000000 I-409.291334 J-418.418521
G02 X322.451250 Y388.859367 Z-1.000000 I-711.698693 J-712.620246
G02 X330.969324 Y380.107409 Z-1.000000 I-771.373009 J-759.280382
G02 X334.164971 Y376.646685 Z-1.000000 I-82.313678 J-79.214594
G02 X336.814684 Y373.236123 Z-1.000000 I-25.087957 J-22.225761
G02 X337.475250 Y371.900598 Z-1.000000 I-4.523978 J-3.068734
G02 X337.655550 Y371.114235 Z-1.000000 I-3.940547 J-1.317354
G02 X337.931253 Y368.039653 Z-1.000000 I-39.548788 J-5.096060
G02 X338.053074 Y364.726116 Z-1.000000 I-118.543662 J-6.017236
G02 X338.190535 Y356.442415 Z-1.000000 I-669.292518 J-15.249295
G02 X338.289719 Y340.096106 Z-1.000000 I-1884.338050 J-19.607030
G02 X338.333570 Y289.411668 Z-1.000000 I-29291.562075 J-50.684565
G02 X338.286273 Y245.504266 Z-1.000000 I-20380.198965 J0.000077
G02 X338.191360 Y226.558882 Z-1.000000 I-3317.573412 J7.147441
G02 X337.874007 Y208.422714 Z-1.000000 I-941.637976 J7.406227
G02 X337.686870 Y207.189078 Z-1.000000 I-5.065879 J0.137461
G02 X337.141980 Y206.011703 Z-1.000000 I-3.932410 J1.105147
G02 X334.504581 Y202.587088 Z-1.000000 I-28.318974 J19.081414
G02 X331.336221 Y199.113491 Z-1.000000 I-88.932225 J77.935691
G02 X323.014040 Y190.445948 Z-1.000000 I-762.138223 J723.441387
G02 X316.987091 Y184.330876 Z-1.000000 I-419.018271 J406.952363
G02 X312.510271 Y179.931373 Z-1.000000 I-257.482884 J257.530338
G02 X307.776447 Y175.507504 Z-1.000000 I-136.367463 J141.177280
G02 X306.952820 Y174.931921 Z-1.000000 I-2.700066 J2.986567
G02 X306.313917 Y174.684025 Z-1.000000 I-1.395235 J2.648667
G02 X304.237209 Y174.324706 Z-1.000000 I-3.169989 J12.140278
G02 X301.816171 Y174.178465 Z-1.000000 I-3.926827 J44.895832
G02 X294.355707 Y174.005056 Z-1.000000 I-12.248201 J366.375481
G02 X279.542106 Y173.897992 Z-1.000000 I-16.583162 J1269.605927
G02 X224.879360 Y173.859901 Z-1.000000 I-54.662864 J39222.169012
G02 X175.286278 Y173.905470 Z-1.000000 I-0.000486 J26986.271011
G02 X158.589916 Y174.004445 Z-1.000000 I3.750957 J2041.090107
G02 X150.130982 Y174.136811 Z-1.000000 I7.528239 J751.446973
G02 X146.698769 Y174.253464 Z-1.000000 I2.876705 J135.190284
G02 X143.501114 Y174.523210 Z-1.000000 I1.997550 J42.767448
G02 X142.912760 Y174.681061 Z-1.000000 I0.263964 J2.159272
G02 X142.076109 Y175.201839 Z-1.000000 I1.257280 J2.952316
G02 X137.665330 Y179.186518 Z-1.000000 I81.654046 J94.819253
G02 X133.447843 Y183.269920 Z-1.000000 I186.846193 J197.201286
G02 X126.677400 Y190.063898 Z-1.000000 I476.273758 J481.394373
G02 X117.334479 Y199.662561 Z-1.000000 I1019.860627 J1002.034312
G02 X114.397961 Y202.877694 Z-1.000000 I57.891584 J55.823430
G02 X113.004945 Y204.606030 Z-1.000000 I24.210518 J20.938909
G02 X112.351235 Y205.590272 Z-1.000000 I8.233851 J6.177936
G02 X111.848378 Y206.629105 Z-1.000000 I6.390872 J3.734685
G02 X111.527250 Y207.581178 Z-1.000000 I9.861364 J3.856370
G02 X111.347871 Y208.482548 Z-1.000000 I5.434374 J1.550015
G02 X111.086295 Y211.720917 Z-1.000000 I46.870151 J5.415640
G02 X110.971427 Y215.181877 Z-1.000000 I133.199009 J6.153189
G02 X110.851166 Y223.593449 Z-1.000000 I713.283394 J14.404514
G02 X110.781906 Y240.183873 Z-1.000000 I1963.033608 J16.490452
G02 X110.828730 Y290.733378 Z-1.000000 I28873.196409 J-1.470622
G01 X110.973210 Y370.929978 Z-1.000000
G01 X112.169700 Y373.166238 Z-1.000000
G02 X112.732296 Y373.976870 Z-1.000000 I3.777493 J-2.021117
G02 X116.927203 Y378.613506 Z-1.000000 I176.329231 J-155.314512
G02 X121.064087 Y383.007482 Z-1.000000 I337.843297 J-313.931713
G02 X126.468559 Y388.623312 Z-1.000000 I639.721704 J-610.236557
G02 X131.919507 Y394.188945 Z-1.000000 I641.143116 J-622.479571
G02 X136.305398 Y398.572709 Z-1.000000 I350.457785 J-346.242006
G02 X140.915116 Y403.012816 Z-1.000000 I184.216058 J-186.640112
G02 X141.949350 Y403.838751 Z-1.000000 I5.631542 J-5.991305
G02 X142.384576 Y404.017363 Z-1.000000 I0.649548 J-0.963193
G02 X144.926655 Y404.334063 Z-1.000000 I3.838362 J-20.448983
G02 X147.794647 Y404.460220 Z-1.000000 I4.864763 J-77.930575
G02 X155.837691 Y404.606676 Z-1.000000 I13.959469 J-545.696267
G02 X171.746295 Y404.703798 Z-1.000000 I18.212913 J-1680.302881
G02 X224.501180 Y404.733531 Z-1.000000 I44.783107 J-32657.849531
G02 X272.255179 Y404.674965 Z-1.000000 I-5.900698 J-24280.388270
G02 X290.042269 Y404.574303 Z-1.000000 I-5.697551 J-2578.319756
G02 X299.042564 Y404.453264 Z-1.000000 I-9.447692 J-1037.197617
G02 X302.917956 Y404.347585 Z-1.000000 I-3.638410 J-204.537763
G02 X306.598238 Y404.105670 Z-1.000000 I-2.344024 J-63.775134
G02 X306.991180 Y403.982191 Z-1.000000 I-0.093287 J-0.983818
G01 X306.991180 Y403.982191 Z-1.000000
G00 Z5.000000

(Change tool to Cylindrical cutter)

G00 Z5.000000
G00 X151.014960 Y350.995578

G01 Z-1.000000 F100.0(Penetrate)
G03 X147.273539 Y348.272009 Z-1.000000 I7.507412 J-14.244702 F400.000000
G03 X144.274120 Y344.414058 Z-1.000000 I12.543204 J-12.846836
G03 X143.517586 Y342.907209 Z-1.000000 I12.367314 J-7.152514
G03 X143.097759 Y341.567287 Z-1.000000 I6.295768 J-2.708336
G03 X142.915075 Y340.137068 Z-1.000000 I9.558381 J-1.947679
G03 X142.842060 Y337.386138 Z-1.000000 I51.785587 J-2.750930
G03 X142.915175 Y334.637814 Z-1.000000 I51.689759 J0.000000
G03 X143.098105 Y333.203530 Z-1.000000 I9.809524 J0.522307
G03 X143.517612 Y331.858780 Z-1.000000 I6.786907 J1.379429
G03 X144.273020 Y330.345678 Z-1.000000 I13.234699 J5.662232
G03 X145.798787 Y328.015530 Z-1.000000 I20.857475 J11.992741
G03 X147.268074 Y326.320644 Z-1.000000 I11.780817 J8.728424
G03 X148.983380 Y324.889316 Z-1.000000 I9.295493 J9.396259
G03 X150.988670 Y323.702048 Z-1.000000 I8.776650 J12.536621
G03 X151.727949 Y323.406905 Z-1.000000 I2.245345 J4.550730
G03 X153.506171 Y323.036551 Z-1.000000 I2.812249 J9.048609
G03 X155.587402 Y322.879651 Z-1.000000 I3.340488 J30.428518
G03 X162.127004 Y322.694573 Z-1.000000 I10.468036 J254.252475
G03 X175.138734 Y322.585886 Z-1.000000 I14.175220 J918.103395
G03 X225.065220 Y322.558328 Z-1.000000 I44.230767 J34906.377509
G03 X260.253305 Y322.611855 Z-1.000000 I-2.230797 J13032.587776
G03 X278.986534 Y322.712165 Z-1.000000 I-10.829348 J3771.713713
G03 X288.333361 Y322.807283 Z-1.000000 I-15.667386 J1998.856831
G03 X293.338957 Y322.891916 Z-1.000000 I-7.132440 J569.917858
G03 X298.350469 Y323.055971 Z-1.000000 I-4.672819 J219.370535
G03 X298.866090 Y323.137068 Z-1.000000 I-0.103197 J2.335874
G03 X299.723522 Y323.469599 Z-1.000000 I-1.193945 J4.350298
G03 X301.136881 Y324.281289 Z-1.000000 I-7.529851 J14.747743
G03 X302.463888 Y325.208454 Z-1.000000 I-11.124968 J17.335851
G03 X303.695140 Y326.236028 Z-1.000000 I-10.468377 J13.794785
G03 X307.267413 Y331.087800 Z-1.000000 I-10.538665 J11.500415
G03 X308.639779 Y336.402350 Z-1.000000 I-13.311020 J6.271746
G03 X307.969179 Y341.850279 Z-1.000000 I-14.686712 J0.957413
G03 X305.057000 Y347.126928 Z-1.000000 I-14.866894 J-4.763091
G03 X302.918621 Y349.217080 Z-1.000000 I-11.671747 J-9.802116
G03 X300.442610 Y350.826028 Z-1.000000 I-9.296633 J-11.596957
G01 X297.779770 Y352.201338 Z-1.000000
G01 X225.494400 Y352.176638 Z-1.000000
G03 X175.155355 Y352.123861 Z-1.000000 I12.171539 J-35616.228439
G03 X162.079620 Y352.008719 Z-1.000000 I1.627589 J-927.341403
G03 X155.510692 Y351.819894 Z-1.000000 I4.044569 J-255.060077
G03 X153.451245 Y351.662478 Z-1.000000 I1.239619 J-29.768063
G03 X151.706610 Y351.287152 Z-1.000000 I0.980434 J-8.799846
G03 X151.014960 Y350.995588 Z-1.000000 I1.343214 J-4.152532
G01 X151.014960 Y350.995578 Z-1.000000
G00 Z5.000000

(Change tool to Cylindrical cutter)

G00 Z5.000000
G00 X150.702180 Y282.119948

G01 Z-1.000000 F100.0(Penetrate)
G03 X147.883567 Y280.864960 Z-1.000000 I4.665316 J-14.270666 F400.000000
G03 X145.550684 Y279.153858 Z-1.000000 I6.508907 J-11.319968
G03 X143.636379 Y276.975070 Z-1.000000 I9.274082 J-10.078662
G03 X141.962810 Y274.078228 Z-1.000000 I15.050674 J-10.626950
G03 X141.452795 Y272.606263 Z-1.000000 I7.123089 J-3.292388
G03 X141.044534 Y270.314323 Z-1.000000 I19.587511 J-4.671437
G03 X140.866610 Y267.989872 Z-1.000000 I27.535566 J-3.276733
G03 X140.864649 Y265.228244 Z-1.000000 I41.032729 J-1.409954
G03 X141.402960 Y259.525357 Z-1.000000 I46.813843 J1.542039
G03 X142.602950 Y254.644658 Z-1.000000 I28.978270 J4.536856
G03 X143.825394 Y251.601714 Z-1.000000 I28.179738 J9.553646
G03 X145.819574 Y247.696232 Z-1.000000 I56.815397 J26.548667
G03 X148.079932 Y243.940268 Z-1.000000 I55.266149 J30.701318
G03 X150.052680 Y241.234218 Z-1.000000 I26.246573 J17.062014
G03 X154.166725 Y236.886921 Z-1.000000 I31.223325 J25.427749
G03 X158.813290 Y233.264585 Z-1.000000 I25.980748 J28.535540
G03 X163.953947 Y230.370438 Z-1.000000 I22.361095 J33.705782
G03 X170.024750 Y227.984348 Z-1.000000 I21.285517 J45.239755
G03 X174.650115 Y226.989237 Z-1.000000 I7.409884 J23.194693
G03 X181.143569 Y226.625847 Z-1.000000 I6.338350 J55.062804
G03 X187.632677 Y227.019961 Z-1.000000 I-0.157293 J56.208572
G03 X192.428010 Y228.047048 Z-1.000000 I-3.139844 J26.367454
G03 X202.113692 Y232.346160 Z-1.000000 I-13.886362 J44.345499
G03 X209.631384 Y238.169158 Z-1.000000 I-19.036746 J32.341399
G03 X215.457083 Y245.692736 Z-1.000000 I-26.824869 J26.788465
G03 X219.866560 Y255.522888 Z-1.000000 I-41.734839 J24.624900
G03 X221.203770 Y260.959888 Z-1.000000 I-38.607063 J12.378209
G03 X221.702416 Y265.885123 Z-1.000000 I-34.301458 J5.960644
G03 X221.405684 Y270.806947 Z-1.000000 I-27.430008 J0.816126
G03 X220.418640 Y274.078298 Z-1.000000 I-11.864974 J-1.795360
G03 X218.937416 Y276.492661 Z-1.000000 I-11.247848 J-5.239059
G03 X216.617226 Y279.018429 Z-1.000000 I-17.251441 J-13.518752
G03 X213.920586 Y281.137470 Z-1.000000 I-14.015844 J-15.060860
G03 X211.714400 Y282.178578 Z-1.000000 I-4.753105 J-7.214101
G03 X204.701980 Y282.721085 Z-1.000000 I-4.707668 J-15.258739
G03 X199.044905 Y280.547362 Z-1.000000 I1.986166 J-13.617039
G03 X194.831773 Y276.155247 Z-1.000000 I7.838871 J-11.736210
G03 X192.443030 Y269.306808 Z-1.000000 I14.740276 J-8.982241
G02 X191.756539 Y265.314974 Z-1.000000 I-43.354604 J5.400911
G02 X191.106920 Y263.237318 Z-1.000000 I-12.323945 J2.712931
G02 X189.603976 Y260.826799 Z-1.000000 I-7.852991 J3.222495
G02 X187.126664 Y258.628008 Z-1.000000 I-10.413511 J9.237639
G02 X184.199649 Y257.087643 Z-1.000000 I-7.733985 J11.145031
G02 X181.544250 Y256.601398 Z-1.000000 I-2.655399 J7.007488
G02 X178.510244 Y257.109321 Z-1.000000 I0.000000 J9.315566
G02 X175.301789 Y258.655069 Z-1.000000 I4.959099 J14.396139
G02 X172.562929 Y260.914179 Z-1.000000 I7.728321 J12.159325
G02 X171.093440 Y263.243808 Z-1.000000 I5.168293 J4.888347
G02 X170.660140 Y264.741047 Z-1.000000 I8.443313 J3.254808
G02 X170.012560 Y268.702748 Z-1.000000 I58.881824 J11.658602
G03 X169.322107 Y272.365785 Z-1.000000 I-32.038229 J-4.142355
G03 X168.459096 Y274.752942 Z-1.000000 I-11.993135 J-2.986213
G03 X167.112326 Y276.881696 Z-1.000000 I-9.944006 J-4.800738
G03 X164.953420 Y279.181988 Z-1.000000 I-16.323716 J-13.157143
G03 X158.361070 Y282.551825 Z-1.000000 I-9.402304 J-10.260388
G03 X150.702180 Y282.119968 Z-1.000000 I-3.016554 J-14.632379
G01 X150.702180 Y282.119948 Z-1.000000
G00 Z5.000000

(Change tool to Cylindrical cutter)

G00 Z5.000000
G00 X251.438150 Y281.751328

G01 Z-1.000000 F100.0(Penetrate)
G03 X247.869319 Y279.701532 Z-1.000000 I5.354524 J-13.454265 F400.000000
G03 X245.183868 Y276.894222 Z-1.000000 I8.362284 J-10.687395
G03 X243.384565 Y273.439946 Z-1.000000 I11.413381 J-8.140890
G03 X242.483280 Y269.196768 Z-1.000000 I15.582188 J-5.527091
G03 X242.412045 Y266.501873 Z-1.000000 I26.203397 J-2.041036
G03 X242.633706 Y264.350249 Z-1.000000 I13.914756 J0.346276
G03 X243.213033 Y262.286889 Z-1.000000 I11.316989 J2.064450
G03 X244.191814 Y260.327879 Z-1.000000 I10.624555 J4.084329
G03 X246.937508 Y257.087337 Z-1.000000 I12.608182 J7.899367
G03 X253.065990 Y252.305688 Z-1.000000 I41.527541 J46.906323
G02 X259.439460 Y247.925590 Z-1.000000 I-1351.272952 J-1973.061274
G02 X271.601330 Y239.523298 Z-1.000000 I-4958.284590 J-7189.855230
G03 X276.808957 Y235.964374 Z-1.000000 I303.313251 J438.236264
G03 X280.749590 Y233.343987 Z-1.000000 I195.774394 J290.139394
G03 X284.863986 Y230.720593 Z-1.000000 I107.443893 J163.971402
G03 X285.675920 Y230.300778 Z-1.000000 I3.092560 J4.986033
G03 X287.742616 Y229.741301 Z-1.000000 I3.095192 J7.336671
G03 X291.158654 Y229.519278 Z-1.000000 I3.423521 J26.283641
G03 X294.574715 Y229.739216 Z-1.000000 I0.007488 J26.522636
G03 X296.646270 Y230.297778 Z-1.000000 I-1.028145 J7.933814
G03 X300.777921 Y232.926986 Z-1.000000 I-5.640981 J13.425414
G03 X303.801645 Y236.645317 Z-1.000000 I-10.593918 J11.703511
G03 X305.555925 Y241.096572 Z-1.000000 I-13.373048 J7.841755
G03 X305.764500 Y245.847678 Z-1.000000 I-13.206049 J2.959881
G03 X305.110848 Y248.667413 Z-1.000000 I-15.115680 J-2.018384
G03 X303.887790 Y251.574328 Z-1.000000 I-19.845984 J-6.639266
G03 X302.222483 Y254.250712 Z-1.000000 I-16.934003 J-8.680432
G03 X300.593970 Y255.934478 Z-1.000000 I-7.294134 J-5.425358
G03 X298.744926 Y257.327951 Z-1.000000 I-26.661462 J-33.454434
G03 X292.824556 Y261.486284 Z-1.000000 I-326.398747 J-458.412125
G03 X286.999437 Y265.490455 Z-1.000000 I-547.901445 J-790.827215
G03 X280.037706 Y270.210864 Z-1.000000 I-877.163011 J-1286.159640
G03 X273.036568 Y274.901632 Z-1.000000 I-831.071483 J-1232.833854
G03 X267.779609 Y278.369451 Z-1.000000 I-402.592491 J-604.582026
G03 X262.261828 Y281.902745 Z-1.000000 I-193.872948 J-296.687326
G03 X261.596450 Y282.223278 Z-1.000000 I-1.765524 J-2.814081
G03 X259.438837 Y282.715820 Z-1.000000 I-3.246885 J-9.251132
G03 X256.650673 Y282.806372 Z-1.000000 I-1.966983 J-17.594915
G03 X253.880345 Y282.471258 Z-1.000000 I0.875558 J-18.856547
G03 X251.438150 Y281.751608 Z-1.000000 I2.670449 J-13.566128
G01 X251.438150 Y281.751328 Z-1.000000
G00 Z5.000000

(End cutting path id: path25585) ROBOT_FRAMEWORK



(Start cutting path id: path3843)   CODIGO100CERA
(Change tool to Cylindrical cutter)

G00 Z5.000000
G00 X1020.703367 Y242.918913

G01 Z-1.000000 F100.0(Penetrate)
G03 X1021.215184 Y241.176878 Z-1.000000 I4.694442 J0.433044 F400.000000
G03 X1022.000983 Y240.274615 Z-1.000000 I2.260850 J1.175704
G03 X1023.155611 Y239.775573 Z-1.000000 I1.751755 J2.467771
G03 X1024.737784 Y239.652920 Z-1.000000 I1.294396 J6.431175
G01 X1081.604044 Y242.150438 Z-1.000000
G03 X1083.938558 Y242.492735 Z-1.000000 I-0.510520 J11.613839
G03 X1084.536832 Y242.811551 Z-1.000000 I-0.345639 J1.369364
G03 X1084.836217 Y243.407610 Z-1.000000 I-0.611132 J0.680172
G03 X1084.870012 Y244.071600 Z-1.000000 I-8.024042 J0.741248
G01 X1085.254249 Y284.031664 Z-1.000000
G03 X1084.453652 Y288.530727 Z-1.000000 I-12.370482 J0.119467
G03 X1082.860555 Y290.955914 Z-1.000000 I-6.235917 J-2.360507
G03 X1080.302221 Y292.524087 Z-1.000000 I-4.779807 J-4.926897
G03 X1077.185389 Y293.061118 Z-1.000000 I-3.233718 J-9.454641
G01 X1044.333592 Y293.445355 Z-1.000000
G02 X1043.084087 Y293.946194 Z-1.000000 I0.021832 J1.863532
G02 X1042.130896 Y295.321436 Z-1.000000 I2.687657 J2.880790
G02 X1041.639622 Y297.114618 Z-1.000000 I6.907217 J2.856244
G02 X1041.497947 Y299.405054 Z-1.000000 I14.048374 J2.018559
G02 X1041.720656 Y301.697176 Z-1.000000 I14.831228 J-0.284162
G02 X1042.234803 Y303.486619 Z-1.000000 I8.728534 J-1.539320
G02 X1043.156991 Y304.924678 Z-1.000000 I4.298975 J-1.742098
G02 X1044.141522 Y305.356539 Z-1.000000 I1.000149 J-0.941910
G01 X1079.106600 Y305.740777 Z-1.000000
G01 X1079.298669 Y331.676401 Z-1.000000
G03 X1069.153341 Y333.227312 Z-1.000000 I-27.179269 J-143.835467
G03 X1055.626119 Y334.626514 Z-1.000000 I-58.345618 J-497.985630
G03 X1042.099248 Y335.750861 Z-1.000000 I-92.217691 J-1027.527102
G02 X1028.388014 Y336.863506 Z-1.000000 I113.541593 J1484.222987
G03 X1025.636700 Y329.841324 Z-1.000000 I72.292887 J-32.374667
G03 X1023.084592 Y321.014349 Z-1.000000 I98.185742 J-33.170485
G03 X1021.264772 Y311.994899 Z-1.000000 I117.668563 J-28.434852
G03 X1019.811150 Y300.628389 Z-1.000000 I166.935604 J-27.124995
G03 X1018.884475 Y277.914232 Z-1.000000 I215.509471 J-20.168171
G03 X1020.703317 Y242.918913 Z-1.000000 I436.325414 J5.132591
G01 X1020.703367 Y242.918913 Z-1.000000
G00 Z5.000000

(End cutting path id: path3843)


(Start cutting path id: path3841)
(Change tool to Cylindrical cutter)

G00 Z5.000000
G00 X1009.752726 Y329.178883

G01 Z-1.000000 F100.0(Penetrate)
G01 X949.044138 Y329.563120 Z-1.000000 F400.000000
G03 X948.018437 Y329.297017 Z-1.000000 I0.461224 J-3.887645
G03 X947.440170 Y328.940583 Z-1.000000 I0.795967 J-1.938649
G03 X947.002773 Y328.406243 Z-1.000000 I1.340846 J-1.543773
G03 X946.732167 Y327.780439 Z-1.000000 I2.746199 J-1.558903
G03 X946.459999 Y326.355335 Z-1.000000 I6.241934 J-1.930631
G02 X946.162408 Y324.952371 Z-1.000000 I-5.449680 J0.422922
G01 X946.162408 Y309.006745 Z-1.000000
G03 X946.539312 Y307.182729 Z-1.000000 I5.894140 J0.266984
G03 X947.043380 Y306.349917 Z-1.000000 I2.514528 J0.952991
G03 X947.836402 Y305.689406 Z-1.000000 I2.581337 J2.292888
G02 X948.659926 Y305.164421 Z-1.000000 I-10.966190 J-18.110644
G02 X954.549711 Y305.995591 Z-1.000000 I17.600923 J-103.439078
G03 X960.188583 Y306.658173 Z-1.000000 I-61.887826 J551.018997
G03 X965.818466 Y307.471586 Z-1.000000 I-16.185099 J131.911872
G03 X973.202729 Y309.006745 Z-1.000000 I-15.446156 J92.824614
G03 X974.130462 Y307.979512 Z-1.000000 I7.878877 J6.183159
G02 X974.281920 Y307.740534 Z-1.000000 I-0.415055 J-0.430535
G02 X974.225293 Y307.534998 Z-1.000000 I-0.180184 J-0.060926
G02 X973.442754 Y306.893464 Z-1.000000 I-16.147373 J18.898430
G02 X966.059406 Y305.642155 Z-1.000000 I-22.784467 J112.031367
G03 X956.872251 Y304.351797 Z-1.000000 I141.536977 J-1041.072921
G03 X952.529149 Y303.687745 Z-1.000000 I40.568178 J-279.862842
G03 X949.120440 Y303.068726 Z-1.000000 I13.653628 J-84.880153
G03 X945.739968 Y302.251122 Z-1.000000 I9.202678 J-45.446772
G03 X944.145100 Y301.610275 Z-1.000000 I2.178513 J-7.726618
G03 X943.446838 Y276.575302 Z-1.000000 I302.161133 J-20.954935
G03 X945.009634 Y251.372035 Z-1.000000 I260.633398 J3.511180
G03 X945.675703 Y247.882402 Z-1.000000 I22.594334 J2.504215
G03 X946.416980 Y246.003353 Z-1.000000 I8.961430 J2.449508
G03 X947.598256 Y244.412958 Z-1.000000 I5.707792 J3.005602
G03 X948.757904 Y243.567428 Z-1.000000 I3.419860 J3.472353
G03 X951.631163 Y242.774148 Z-1.000000 I3.271838 J6.250483
G02 X954.615394 Y242.342582 Z-1.000000 I-0.979205 J-17.304696
G01 X1001.491658 Y239.460826 Z-1.000000
G03 X1003.440968 Y239.645760 Z-1.000000 I0.423166 J5.905474
G03 X1004.945498 Y240.525887 Z-1.000000 I-0.846538 J3.173132
G03 X1005.856372 Y242.015864 Z-1.000000 I-2.811812 J2.742371
G03 X1006.486635 Y245.416406 Z-1.000000 I-11.640694 J3.916185
G01 X1007.639372 Y283.455358 Z-1.000000
G03 X1006.829560 Y286.737376 Z-1.000000 I-14.492664 J-1.835031
G03 X1006.003806 Y288.057529 Z-1.000000 I-3.651071 J-1.365411
G03 X1004.707667 Y288.798692 Z-1.000000 I-1.884008 J-1.790816
G03 X1003.220726 Y288.834557 Z-1.000000 I-0.830142 J-3.575461
G01 X966.334460 Y288.066107 Z-1.000000
G02 X965.963007 Y289.748827 Z-1.000000 I50.309233 J11.987897
G02 X965.877594 Y291.025163 Z-1.000000 I4.699086 J0.955490
G02 X965.992186 Y291.614201 Z-1.000000 I2.397726 J-0.160790
G02 X966.233821 Y292.036958 Z-1.000000 I1.153341 J-0.378781
G02 X966.613912 Y292.316010 Z-1.000000 I0.824952 J-0.725268
G02 X967.295053 Y292.484762 Z-1.000000 I0.820262 J-1.851824
G01 X1009.944746 Y294.598043 Z-1.000000
G03 X1012.078848 Y294.730094 Z-1.000000 I-0.015290 J17.557850
G03 X1013.771725 Y295.294000 Z-1.000000 I-0.552962 J4.483033
G03 X1014.469275 Y295.824959 Z-1.000000 I-1.677887 J2.928017
G03 X1015.072744 Y296.623046 Z-1.000000 I-2.479457 J2.502025
G03 X1015.452401 Y297.555824 Z-1.000000 I-3.731724 J2.062529
G03 X1015.708232 Y299.016698 Z-1.000000 I-7.553724 J2.075660
G01 X1014.747639 Y318.036198 Z-1.000000
G03 X1013.928552 Y323.203782 Z-1.000000 I-88.045377 J-11.306899
G03 X1013.011325 Y326.462067 Z-1.000000 I-18.980240 J-3.584809
G03 X1012.304522 Y327.939018 Z-1.000000 I-9.102375 J-3.448396
G03 X1011.632193 Y328.758833 Z-1.000000 I-2.936951 J-1.722991
G03 X1010.770595 Y329.210115 Z-1.000000 I-1.332847 J-1.496574
G03 X1009.752603 Y329.178883 Z-1.000000 I-0.452139 J-1.868864
G01 X1009.752726 Y329.178883 Z-1.000000
G00 Z5.000000

(End cutting path id: path3841)


(Start cutting path id: path3839)
(Change tool to Cylindrical cutter)

G00 Z5.000000
G00 X879.065184 Y335.874312

G01 Z-1.000000 F100.0(Penetrate)
G03 X873.382501 Y313.760295 Z-1.000000 I141.264993 J-48.088301 F400.000000
G03 X870.500075 Y289.490472 Z-1.000000 I212.199762 J-37.508160
G03 X870.154653 Y264.946767 Z-1.000000 I258.534700 J-15.912845
G03 X871.865298 Y239.830924 Z-1.000000 I362.836377 J12.096680
G03 X905.129803 Y240.323745 Z-1.000000 I2.283114 J968.788009
G03 X936.120673 Y242.140353 Z-1.000000 I-18.687472 J584.059933
G01 X936.120673 Y283.980990 Z-1.000000
G03 X935.634631 Y287.381104 Z-1.000000 I-32.263730 J-2.877260
G03 X934.560980 Y289.852119 Z-1.000000 I-6.198393 J-1.224433
G03 X933.636952 Y290.817296 Z-1.000000 I-3.914653 J-2.822853
G03 X932.238286 Y291.630790 Z-1.000000 I-3.554554 J-4.502322
G03 X930.661022 Y292.077760 Z-1.000000 I-2.828027 J-6.973122
G03 X928.145484 Y292.292347 Z-1.000000 I-2.564962 J-15.216518
G01 X893.464926 Y292.403584 Z-1.000000
G02 X893.201224 Y292.580738 Z-1.000000 I0.000696 J0.285879
G02 X892.774690 Y294.041452 Z-1.000000 I6.648898 J2.734137
G02 X892.580699 Y295.604396 Z-1.000000 I14.205618 J2.556700
G02 X892.543879 Y297.856150 Z-1.000000 I21.385304 J1.475857
G02 X892.747461 Y300.077184 Z-1.000000 I20.198693 J-0.731584
G02 X893.249050 Y302.204878 Z-1.000000 I12.750049 J-1.882762
G02 X894.141788 Y304.130739 Z-1.000000 I8.593767 J-2.813816
G02 X895.366757 Y305.444837 Z-1.000000 I3.877279 J-2.386312
G01 X930.686804 Y305.716576 Z-1.000000
G01 X930.686804 Y332.342488 Z-1.000000
G03 X904.588509 Y334.387181 Z-1.000000 I-87.112694 J-944.318648
G03 X879.065184 Y335.874510 Z-1.000000 I-133.174312 J-2065.599088
G01 X879.065184 Y335.874312 Z-1.000000
G00 Z5.000000

(End cutting path id: path3839)


(Start cutting path id: path12)
(Change tool to Cylindrical cutter)

G00 Z5.000000
G00 X981.770055 Y125.304992

G01 Z-1.000000 F100.0(Penetrate)
G02 X977.585089 Y125.930057 Z-1.000000 I0.387788 J16.918552 F400.000000
G02 X973.872770 Y127.336923 Z-1.000000 I6.059064 J21.589454
G02 X970.355340 Y129.332232 Z-1.000000 I13.541316 J27.969308
G02 X966.952092 Y131.666597 Z-1.000000 I56.356391 J85.809404
G03 X963.585355 Y134.069667 Z-1.000000 I-853.967046 J-1192.860818
G03 X960.216809 Y136.239583 Z-1.000000 I-25.135743 J-35.320756
G03 X956.671210 Y137.971666 Z-1.000000 I-13.844909 J-23.845741
G03 X952.875709 Y139.001451 Z-1.000000 I-6.246062 J-15.511784
G03 X948.494824 Y139.096171 Z-1.000000 I-2.565956 J-17.320465
G03 X943.986508 Y138.296219 Z-1.000000 I3.309235 J-31.753810
G03 X939.530448 Y136.955330 Z-1.000000 I12.689562 J-50.244753
G02 X935.031980 Y135.380352 Z-1.000000 I-1828.543224 J5215.490389
G02 X930.511445 Y133.913620 Z-1.000000 I-34.701247 J99.251225
G02 X926.210899 Y132.960317 Z-1.000000 I-8.668297 J28.927519
G02 X921.926438 Y132.791312 Z-1.000000 I-2.938566 J20.103431
G02 X917.722035 Y133.742588 Z-1.000000 I0.917706 J13.822882
G02 X914.282162 Y135.797663 Z-1.000000 I4.655479 J11.698982
G02 X911.510521 Y138.681549 Z-1.000000 I12.049068 J14.353925
G02 X909.236388 Y142.109945 Z-1.000000 I22.319224 J17.273289
G02 X907.140069 Y146.025116 Z-1.000000 I91.534056 J51.529331
G03 X905.115557 Y149.990441 Z-1.000000 I-1236.999363 J-629.055307
G03 X902.959547 Y153.734717 Z-1.000000 I-39.420877 J-20.206265
G03 X900.397172 Y157.115588 Z-1.000000 I-23.104361 J-14.849428
G03 X897.317822 Y159.771780 Z-1.000000 I-11.451580 J-10.162879
G03 X893.333121 Y161.675300 Z-1.000000 I-9.111491 J-13.950969
G03 X888.856207 Y162.749655 Z-1.000000 I-9.180216 J-28.389624
G03 X884.195405 Y163.262076 Z-1.000000 I-7.577461 J-47.469235
G03 X879.371821 Y163.547028 Z-1.000000 I-85.924507 J-1413.535134
G02 X874.566518 Y163.923967 Z-1.000000 I6.578523 J114.682393
G02 X870.163710 Y164.688177 Z-1.000000 I3.052709 J30.652372
G02 X866.082694 Y166.181669 Z-1.000000 I4.953648 J19.858507
G02 X862.530924 Y168.697382 Z-1.000000 I6.064023 J12.326510
G02 X860.108533 Y171.966322 Z-1.000000 I9.067398 J9.251242
G02 X858.625987 Y175.742268 Z-1.000000 I17.019142 J8.861229
G02 X857.815594 Y179.832132 Z-1.000000 I27.705123 J7.614895
G02 X857.360221 Y184.305439 Z-1.000000 I103.566489 J12.802683
G03 X856.996250 Y188.798922 Z-1.000000 I-2441.022991 J-195.460819
G03 X856.431990 Y193.147661 Z-1.000000 I-46.229562 J-3.787420
G03 X855.359999 Y197.321686 Z-1.000000 I-28.283909 J-5.039327
G03 X853.539659 Y201.029703 Z-1.000000 I-15.103012 J-5.113545
G03 X850.860206 Y203.790367 Z-1.000000 I-8.747575 J-5.809598
G03 X847.851567 Y205.435658 Z-1.000000 I-8.584070 J-12.123642
G03 X844.453611 Y206.573428 Z-1.000000 I-10.916105 J-26.958112
G02 X840.741930 Y207.693457 Z-1.000000 I15.857143 J59.259323
G02 X837.244770 Y209.161243 Z-1.000000 I8.327698 J24.741727
G02 X833.662746 Y211.659917 Z-1.000000 I7.138999 J14.051131
G02 X830.934850 Y214.976597 Z-1.000000 I10.899423 J11.744693
G02 X828.066015 Y221.191854 Z-1.000000 I24.028593 J14.860831
G02 X826.611978 Y227.633711 Z-1.000000 I35.367230 J11.368015
G02 X826.390718 Y232.237853 Z-1.000000 I26.914882 J3.600826
G02 X826.947776 Y236.850241 Z-1.000000 I27.921349 J-1.032347
G02 X827.872116 Y240.595475 Z-1.000000 I49.025764 J-10.113087
G02 X828.980222 Y244.312080 Z-1.000000 I201.464185 J-58.043092
G03 X829.832711 Y247.791570 Z-1.000000 I-29.158887 J8.988218
G03 X830.143471 Y251.277012 Z-1.000000 I-18.608742 J3.415721
G03 X829.595007 Y255.352985 Z-1.000000 I-15.853932 J-0.058424
G03 X827.938562 Y259.105493 Z-1.000000 I-13.087394 J-3.535231
G03 X825.572961 Y262.145833 Z-1.000000 I-17.366643 J-11.072009
G03 X822.704491 Y264.878508 Z-1.000000 I-26.362843 J-24.801053
G02 X819.550911 Y267.648332 Z-1.000000 I95.271845 J111.651801
G02 X816.600804 Y270.573448 Z-1.000000 I30.198312 J33.406530
G02 X813.951129 Y274.141916 Z-1.000000 I15.636527 J14.378467
G02 X812.193631 Y278.119606 Z-1.000000 I15.919876 J9.411131
G02 X811.195885 Y283.908018 Z-1.000000 I22.075940 J6.785415
G02 X811.929697 Y290.021073 Z-1.000000 I29.179253 J-0.402110
G02 X813.295058 Y293.999233 Z-1.000000 I19.473760 J-4.460284
G02 X815.485026 Y297.652199 Z-1.000000 I18.597599 J-8.666410
G02 X817.822332 Y300.454025 Z-1.000000 I28.495135 J-21.395062
G02 X820.375950 Y303.115785 Z-1.000000 I74.432710 J-68.852808
G03 X822.647884 Y305.680051 Z-1.000000 I-21.009676 J20.903128
G03 X824.439820 Y308.482919 Z-1.000000 I-13.305783 J10.480930
G03 X825.641886 Y312.084969 Z-1.000000 I-11.448146 J5.822043
G03 X825.834908 Y316.497011 Z-1.000000 I-16.777142 J2.944227
G03 X825.158328 Y320.326496 Z-1.000000 I-21.894541 J-1.893743
G03 X823.911034 Y324.102935 Z-1.000000 I-34.587367 J-9.329426
G02 X822.388166 Y328.080482 Z-1.000000 I222.896269 J87.619737
G02 X821.058607 Y332.101044 Z-1.000000 I53.078557 J19.782657
G02 X820.093158 Y336.906724 Z-1.000000 I28.149917 J8.155064
G02 X819.969544 Y341.754908 Z-1.000000 I27.089901 J3.116378
G02 X821.035065 Y348.365016 Z-1.000000 I34.758148 J-2.211930
G02 X822.691165 Y351.811725 Z-1.000000 I9.701491 J-2.540223
G02 X825.180138 Y354.323455 Z-1.000000 I10.085572 J-7.505120
G02 X828.330517 Y356.262100 Z-1.000000 I11.516180 J-15.185198
G02 X832.049955 Y357.938169 Z-1.000000 I28.823135 J-58.997678
G02 X835.845657 Y359.494543 Z-1.000000 I247.033528 J-597.061435
G03 X839.412136 Y361.175136 Z-1.000000 I-13.646570 J33.584743
G03 X842.610164 Y363.297492 Z-1.000000 I-10.011677 J18.556506
G03 X845.034302 Y366.000333 Z-1.000000 I-7.023118 J8.737438
G03 X846.613603 Y369.840506 Z-1.000000 I-9.867021 J6.302724
G03 X846.929638 Y373.369276 Z-1.000000 I-14.162634 J3.046937
G03 X846.548345 Y377.054107 Z-1.000000 I-26.527164 J-0.882793
G02 X845.934597 Y381.110848 Z-1.000000 I88.640114 J15.485229
G02 X845.669132 Y385.140797 Z-1.000000 I32.550502 J4.167921
G02 X846.235522 Y389.919897 Z-1.000000 I19.745304 J0.083017
G02 X847.903833 Y394.361444 Z-1.000000 I19.379987 J-4.745317
G02 X852.018755 Y400.491269 Z-1.000000 I29.134461 J-15.111745
G02 X855.977499 Y404.048312 Z-1.000000 I15.084980 J-12.807122
G02 X859.409701 Y405.789991 Z-1.000000 I8.507745 J-12.512959
G02 X863.254603 Y406.683076 Z-1.000000 I5.828201 J-16.368476
G02 X866.949868 Y406.922295 Z-1.000000 I4.249917 J-36.988981
G02 X870.697879 Y406.920576 Z-1.000000 I1.818047 J-122.027135
G03 X874.197312 Y407.074665 Z-1.000000 I0.463291 J29.292418
G03 X877.509556 Y407.772270 Z-1.000000 I-1.693518 J16.252960
G03 X880.710088 Y409.433587 Z-1.000000 I-3.313816 J10.297651
G03 X883.242293 Y411.927753 Z-1.000000 I-8.156402 J10.813294
G03 X885.122655 Y414.814460 Z-1.000000 I-16.195994 J12.605623
G03 X886.616170 Y417.996893 Z-1.000000 I-28.403936 J15.271632
G03 X887.993529 Y421.426722 Z-1.000000 I-718.184369 J290.401815
G02 X889.434085 Y424.820021 Z-1.000000 I77.871577 J-31.056350
G02 X891.216901 Y428.133063 Z-1.000000 I24.443957 J-11.017591
G02 X893.466560 Y431.062439 Z-1.000000 I17.174862 J-10.861176
G02 X896.686957 Y433.796172 Z-1.000000 I12.847020 J-11.870358
G02 X902.077741 Y436.365056 Z-1.000000 I11.937051 J-18.109104
G02 X907.338106 Y437.429263 Z-1.000000 I7.584753 J-23.958298
G02 X912.829495 Y437.484648 Z-1.000000 I3.080435 J-33.161513
G02 X918.490129 Y436.879220 Z-1.000000 I-6.045033 J-83.285417
G02 X924.150235 Y436.012483 Z-1.000000 I-35.495073 J-250.710374
G03 X929.753592 Y435.282997 Z-1.000000 I13.589272 J82.497350
G03 X935.332047 Y435.075763 Z-1.000000 I4.557565 J47.497580
G03 X940.739060 Y435.777550 Z-1.000000 I-0.542754 J25.362138
G03 X945.504363 Y437.442658 Z-1.000000 I-5.964233 J24.720160
G03 X949.863425 Y439.785745 Z-1.000000 I-18.124687 J38.945355
G03 X954.034646 Y442.550783 Z-1.000000 I-37.934338 J61.754951
G02 X958.224845 Y445.483325 Z-1.000000 I160.070740 J-224.259201
G02 X962.508695 Y448.233698 Z-1.000000 I47.076336 J-68.612508
G02 X967.152195 Y450.580818 Z-1.000000 I18.558946 J-30.949822
G02 X972.038430 Y452.134056 Z-1.000000 I11.237600 J-26.889380
G02 X977.974352 Y452.788753 Z-1.000000 I5.935921 J-26.582184
G02 X982.823335 Y452.280362 Z-1.000000 I0.000044 J-23.378344
G02 X987.395739 Y450.959133 Z-1.000000 I-6.826522 J-32.197190
G02 X991.819149 Y449.051155 Z-1.000000 I-15.581851 J-42.206137
G02 X996.212105 Y446.766113 Z-1.000000 I-58.384765 J-117.608992
G02 X1000.564189 Y444.383854 Z-1.000000 I-509.136600 J-935.294283
G03 X1004.931457 Y442.153512 Z-1.000000 I38.151552 J69.314169
G03 X1009.428324 Y440.293116 Z-1.000000 I21.254203 J45.009731
G03 X1014.061801 Y439.065147 Z-1.000000 I9.582882 J26.803240
G03 X1018.723854 Y438.798598 Z-1.000000 I3.458568 J19.587857
G03 X1023.239864 Y439.372506 Z-1.000000 I-2.092459 J34.520200
G03 X1027.742934 Y440.421803 Z-1.000000 I-12.051847 J61.907757
G02 X1032.337784 Y441.583232 Z-1.000000 I34.528897 J-126.933617
G02 X1036.954415 Y442.446994 Z-1.000000 I11.983775 J-51.281480
G02 X1041.812023 Y442.666849 Z-1.000000 I3.580948 J-25.346237
G02 X1046.521355 Y441.909203 Z-1.000000 I-1.087241 J-21.772829
G02 X1052.119045 Y439.592880 Z-1.000000 I-6.553432 J-23.759139
G02 X1056.063200 Y436.688947 Z-1.000000 I-10.161693 J-17.932195
G02 X1058.547854 Y433.823035 Z-1.000000 I-12.649707 J-13.476900
G02 X1060.479006 Y430.474950 Z-1.000000 I-17.944642 J-12.581329
G02 X1061.875964 Y427.172911 Z-1.000000 I-46.917288 J-21.795293
G02 X1063.147225 Y423.797362 Z-1.000000 I-312.774477 J-119.720754
G03 X1064.504819 Y420.706068 Z-1.000000 I26.839723 J9.943370
G03 X1066.272970 Y417.933887 Z-1.000000 I15.439505 J7.897643
G03 X1068.835865 Y415.486067 Z-1.000000 I9.624842 J7.511720
G03 X1072.708155 Y413.880692 Z-1.000000 I5.463137 J7.704697
G03 X1076.372019 Y413.777986 Z-1.000000 I2.193165 J12.834994
G03 X1080.224951 Y414.487649 Z-1.000000 I-3.211094 J28.247897
G02 X1084.455468 Y415.366289 Z-1.000000 I11.592282 J-45.191083
G02 X1088.611853 Y415.623612 Z-1.000000 I3.405601 J-21.312162
G02 X1093.458217 Y414.607232 Z-1.000000 I-0.503423 J-14.462999
G02 X1095.736042 Y413.481914 Z-1.000000 I-5.861141 J-14.731898
G02 X1098.420581 Y411.583773 Z-1.000000 I-11.058718 J-18.487771
G02 X1100.826039 Y409.324276 Z-1.000000 I-16.912111 J-20.414787
G02 X1103.752270 Y405.857070 Z-1.000000 I-30.966677 J-29.103507
G02 X1105.844144 Y402.042736 Z-1.000000 I-11.928910 J-9.022888
G02 X1106.813153 Y398.248231 Z-1.000000 I-17.404821 J-6.465683
G02 X1107.083188 Y394.235684 Z-1.000000 I-25.810795 J-3.752360
G02 X1106.957008 Y390.175017 Z-1.000000 I-96.329577 J0.961002
G03 X1106.768491 Y386.107041 Z-1.000000 I348.046039 J-18.167468
G03 X1106.861908 Y382.301867 Z-1.000000 I29.270876 J-1.185134
G03 X1107.564578 Y378.671970 Z-1.000000 I18.143446 J1.629222
G03 X1109.205924 Y375.293221 Z-1.000000 I11.333069 J3.417392
G03 X1111.509938 Y372.901476 Z-1.000000 I8.797248 J6.168936
G03 X1114.548179 Y371.003923 Z-1.000000 I11.958470 J15.766048
G03 X1117.912691 Y369.545397 Z-1.000000 I14.114100 J27.948367
G03 X1121.516322 Y368.273603 Z-1.000000 I58.660482 J160.473371
G02 X1125.122750 Y367.003957 Z-1.000000 I-59.174317 J-173.841390
G02 X1128.196858 Y365.660221 Z-1.000000 I-9.083761 J-24.969448
G02 X1130.906548 Y363.875291 Z-1.000000 I-6.936927 J-13.480145
G02 X1132.676289 Y361.721738 Z-1.000000 I-4.618541 J-5.599355
G02 X1135.242090 Y355.147442 Z-1.000000 I-25.401855 J-13.701612
G02 X1135.884963 Y350.200972 Z-1.000000 I-20.140187 J-5.132553
G02 X1135.358195 Y345.143299 Z-1.000000 I-22.600663 J-0.202356
G02 X1134.112238 Y340.657967 Z-1.000000 I-41.774734 J9.188662
G02 X1132.509345 Y336.221872 Z-1.000000 I-104.746478 J35.340387
G03 X1131.110256 Y331.966695 Z-1.000000 I41.474124 J-15.994157
G03 X1130.341226 Y327.675603 Z-1.000000 I23.410750 J-6.410024
G03 X1130.631160 Y323.001126 Z-1.000000 I15.677369 J-1.373846
G03 X1132.234899 Y318.261952 Z-1.000000 I21.315290 J4.572167
G03 X1134.727149 Y313.785285 Z-1.000000 I34.764895 J16.422239
G03 X1137.731222 Y309.545439 Z-1.000000 I52.233629 J33.825107
G02 X1140.974143 Y305.333563 Z-1.000000 I-1026.907320 J-794.018518
G02 X1144.098590 Y301.053554 Z-1.000000 I-89.430972 J-68.565897
G02 X1146.689563 Y296.701507 Z-1.000000 I-29.704370 J-20.631659
G02 X1148.483559 Y292.080419 Z-1.000000 I-22.947009 J-11.567253
G02 X1149.190831 Y286.944665 Z-1.000000 I-18.292644 J-5.135754
G02 X1148.543169 Y282.112038 Z-1.000000 I-18.353252 J-0.000034
G02 X1146.891378 Y277.722341 Z-1.000000 I-24.244904 J6.617444
G02 X1144.508599 Y273.571640 Z-1.000000 I-31.760935 J15.473613
G02 X1141.636405 Y269.476636 Z-1.000000 I-91.460699 J61.094829
G02 X1138.655435 Y265.441971 Z-1.000000 I-1051.116703 J773.487746
G03 X1135.891043 Y261.381713 Z-1.000000 I48.729571 J-36.148309
G03 X1133.597483 Y257.110687 Z-1.000000 I31.941159 J-19.903877
G03 X1132.120425 Y252.611735 Z-1.000000 I19.418894 J-8.867392
G03 X1131.683470 Y248.368444 Z-1.000000 I20.211856 J-4.225469
G03 X1131.955895 Y244.633471 Z-1.000000 I26.047864 J0.022481
G03 X1132.681008 Y240.905537 Z-1.000000 I39.696919 J5.786880
G02 X1133.618890 Y236.997223 Z-1.000000 I-494.992685 J-120.850530
G02 X1134.433103 Y233.071186 Z-1.000000 I-72.053807 J-16.990548
G02 X1134.963918 Y228.414683 Z-1.000000 I-36.120362 J-6.476021
G02 X1134.874430 Y223.756906 Z-1.000000 I-33.834682 J-1.679695
G02 X1133.845489 Y217.597540 Z-1.000000 I-40.172412 J3.545296
G02 X1132.065984 Y213.611715 Z-1.000000 I-12.039095 J2.984805
G02 X1129.240524 Y210.390179 Z-1.000000 I-14.420071 J9.797368
G02 X1125.688647 Y207.727708 Z-1.000000 I-17.519976 J19.672147
G02 X1121.458145 Y205.243889 Z-1.000000 I-46.471142 J74.306114
G02 X1117.131633 Y202.886853 Z-1.000000 I-291.619239 J530.139259
G03 X1112.986427 Y200.410022 Z-1.000000 I26.164425 J-48.495692
G03 X1109.223072 Y197.519233 Z-1.000000 I17.995248 J-27.322035
G03 X1106.313441 Y194.139930 Z-1.000000 I11.237925 J-12.618297
G03 X1104.560861 Y190.484567 Z-1.000000 I12.949035 J-8.456292
G03 X1103.588840 Y186.502386 Z-1.000000 I25.583198 J-8.354397
G03 X1103.101927 Y182.354061 Z-1.000000 I44.483240 J-7.323995
G02 X1102.774111 Y178.054689 Z-1.000000 I-384.042482 J27.120041
G02 X1102.292347 Y173.792602 Z-1.000000 I-69.280751 J5.672862
G02 X1101.350744 Y169.734360 Z-1.000000 I-24.405793 J3.524330
G02 X1099.681044 Y166.035728 Z-1.000000 I-17.353927 J5.608010
G02 X1096.800230 Y162.478917 Z-1.000000 I-13.598784 J8.069190
G02 X1093.642645 Y160.577480 Z-1.000000 I-6.203248 J6.728792
G02 X1089.555870 Y159.657784 Z-1.000000 I-5.925374 J16.790213
G02 X1085.205210 Y159.515340 Z-1.000000 I-3.180782 J30.638207
G02 X1080.192032 Y159.784077 Z-1.000000 I6.124768 J161.148804
G03 X1075.177828 Y160.098486 Z-1.000000 I-26.694739 J-385.587385
G03 X1070.308004 Y160.111973 Z-1.000000 I-2.561180 J-45.587614
G03 X1065.584089 Y159.471068 Z-1.000000 I1.431939 J-28.284142
G03 X1061.503072 Y157.895649 Z-1.000000 I3.196365 J-14.353473
G03 X1058.846861 Y155.781929 Z-1.000000 I5.460327 J-9.587560
G03 X1056.805762 Y153.092293 Z-1.000000 I13.086845 J-12.050579
G03 X1055.159111 Y150.039886 Z-1.000000 I24.838959 J-15.369972
G03 X1053.614855 Y146.712027 Z-1.000000 I1968.235177 J-915.359923
G02 X1051.992651 Y143.437939 Z-1.000000 I-62.822658 J29.087662
G02 X1050.056820 Y140.419971 Z-1.000000 I-18.906285 J9.997319
G02 X1047.638420 Y137.911230 Z-1.000000 I-12.281204 J9.418923
G02 X1044.258123 Y135.881245 Z-1.000000 I-8.401026 J10.159851
G02 X1040.317746 Y134.891040 Z-1.000000 I-5.372505 J13.043921
G02 X1036.240038 Y134.866376 Z-1.000000 I-2.167394 J21.239353
G02 X1032.117462 Y135.509824 Z-1.000000 I2.863675 J31.876023
G02 X1027.750518 Y136.566271 Z-1.000000 I28.352772 J126.753258
G03 X1023.391157 Y137.681865 Z-1.000000 I-137.430948 J-527.957883
G03 X1018.999763 Y138.568095 Z-1.000000 I-11.562645 J-45.971412
G03 X1014.599843 Y138.925217 Z-1.000000 I-4.715049 J-30.808585
G03 X1010.197971 Y138.459017 Z-1.000000 I-0.193967 J-19.182937
G03 X1002.235530 Y133.846693 Z-1.000000 I131.704069 J-236.545175
G03 X997.995021 Y131.221731 Z-1.000000 I104.900239 J-174.199322
G03 X993.885761 Y128.561600 Z-1.000000 I165.048596 J-259.464113
G02 X991.724891 Y127.215307 Z-1.000000 I-27.695506 J42.045438
G02 X989.533500 Y126.121293 Z-1.000000 I-9.026529 J15.339036
G02 X987.584322 Y125.542231 Z-1.000000 I-3.711514 J8.923230
G02 X985.513687 Y125.319675 Z-1.000000 I-2.490729 J13.429688
G02 X981.770055 Y125.304992 Z-1.000000 I-2.145299 J69.718034
G01 X981.770055 Y125.304992 Z-1.000000
G00 Z5.000000

(Change tool to Cylindrical cutter)

G00 Z5.000000
G00 X979.375839 Y150.920280

G01 Z-1.000000 F100.0(Penetrate)
G03 X986.150725 Y151.089605 Z-1.000000 I0.001631 J135.555452 F400.000000
G03 X992.908685 Y151.597308 Z-1.000000 I-6.773623 J135.393484
G03 X999.633345 Y152.442124 Z-1.000000 I-13.529587 J134.880689
G03 X1006.307395 Y153.621997 Z-1.000000 I-20.254204 J134.035595
G03 X1012.913287 Y155.134472 Z-1.000000 I-26.941596 J132.852478
G03 X1019.435314 Y156.975195 Z-1.000000 I-33.546911 J131.337744
G03 X1025.858084 Y159.139001 Z-1.000000 I-40.052491 J129.500953
G03 X1032.164659 Y161.621119 Z-1.000000 I-46.476682 J127.341041
G03 X1038.338605 Y164.415569 Z-1.000000 I-52.793719 J124.857832
G03 X1044.365183 Y167.515081 Z-1.000000 I-58.966444 J122.060854
G03 X1050.229510 Y170.911626 Z-1.000000 I-64.983847 J118.959112
G03 X1055.916775 Y174.597022 Z-1.000000 I-70.854551 J115.572969
G03 X1061.413163 Y178.562619 Z-1.000000 I-76.541269 J111.879414
G03 X1066.704465 Y182.797983 Z-1.000000 I-82.037206 J107.913225
G03 X1071.776904 Y187.291841 Z-1.000000 I-87.325616 J103.678408
G03 X1076.618426 Y192.033620 Z-1.000000 I-92.391387 J99.177392
G03 X1081.217267 Y197.011631 Z-1.000000 I-97.246302 J94.452434
G03 X1085.561560 Y202.213264 Z-1.000000 I-101.831383 J89.462335
G03 X1089.640161 Y207.625470 Z-1.000000 I-106.195673 J84.271228
G03 X1093.443171 Y213.234750 Z-1.000000 I-110.251930 J78.843043
G03 X1096.961201 Y219.027777 Z-1.000000 I-114.073879 J73.240321
G03 X1100.185295 Y224.989436 Z-1.000000 I-117.580273 J67.440620
G03 X1103.107424 Y231.104160 Z-1.000000 I-120.802530 J61.485181
G03 X1105.720300 Y237.357310 Z-1.000000 I-123.735063 J55.375114
G03 X1108.017531 Y243.733063 Z-1.000000 I-126.328784 J49.118923
G03 X1109.993235 Y250.215690 Z-1.000000 I-128.641868 J42.748438
G03 X1111.642237 Y256.789163 Z-1.000000 I-130.609624 J36.257921
G03 X1112.960643 Y263.436825 Z-1.000000 I-132.276344 J29.688425
G03 X1113.945084 Y270.141962 Z-1.000000 I-133.571806 J23.035706
G03 X1114.593181 Y276.887925 Z-1.000000 I-134.581060 J16.333580
G03 X1114.847970 Y281.679674 Z-1.000000 I-135.166723 J9.589782
G03 X1114.932973 Y286.477420 Z-1.000000 I-135.472523 J4.799841
G03 X1114.763637 Y293.252306 Z-1.000000 I-135.551525 J0.001483
G03 X1114.255936 Y300.010267 Z-1.000000 I-135.409197 J-6.774755
G03 X1113.411087 Y306.734302 Z-1.000000 I-134.888755 J-13.533143
G03 X1112.231249 Y313.407701 Z-1.000000 I-134.027862 J-20.254754
G03 X1110.718806 Y320.014219 Z-1.000000 I-132.846080 J-26.936334
G03 X1108.878047 Y326.536881 Z-1.000000 I-131.344221 J-33.545555
G03 X1106.714209 Y332.959008 Z-1.000000 I-129.512863 J-40.061785
G03 X1104.232122 Y339.264964 Z-1.000000 I-127.333125 J-46.478109
G03 X1101.437706 Y345.439552 Z-1.000000 I-124.863407 J-52.789470
G03 X1098.338168 Y351.466749 Z-1.000000 I-122.056417 J-58.957983
G03 X1094.941635 Y357.331076 Z-1.000000 I-118.966398 J-64.987827
G03 X1091.256252 Y363.018341 Z-1.000000 I-115.565890 J-70.849717
G03 X1087.290639 Y368.514085 Z-1.000000 I-111.864540 J-76.540456
G03 X1083.055291 Y373.804771 Z-1.000000 I-107.913024 J-82.046918
G03 X1078.561422 Y378.877870 Z-1.000000 I-103.691429 J-87.325342
G03 X1073.819629 Y383.720017 Z-1.000000 I-99.189044 J-92.390509
G03 X1068.841602 Y388.318204 Z-1.000000 I-94.446516 J-97.254692
G03 X1063.639985 Y392.661865 Z-1.000000 I-89.451638 J-101.833694
G03 X1058.227162 Y396.740469 Z-1.000000 I-84.257679 J-106.189527
G03 X1052.617238 Y400.543452 Z-1.000000 I-78.848595 J-110.273359
G03 X1046.824809 Y404.061495 Z-1.000000 I-73.241090 J-114.063214
G03 X1040.863813 Y407.285625 Z-1.000000 I-67.449461 J-117.582652
G03 X1034.749085 Y410.207758 Z-1.000000 I-61.485692 J-120.803534
G03 X1028.495964 Y412.820630 Z-1.000000 I-55.376709 J-123.738503
G03 X1022.120197 Y415.117841 Z-1.000000 I-49.125028 J-126.347134
G03 X1015.637584 Y417.093540 Z-1.000000 I-42.748345 J-128.641589
G03 X1009.064096 Y418.742556 Z-1.000000 I-36.260073 J-130.617375
G03 X1002.416433 Y420.060973 Z-1.000000 I-29.687346 J-132.269780
G03 X995.711317 Y421.046053 Z-1.000000 I-23.049450 J-133.577674
G03 X988.965334 Y421.694772 Z-1.000000 I-16.343909 J-134.559263
G03 X984.173579 Y421.948890 Z-1.000000 I-9.576924 J-135.281907
G03 X979.375839 Y422.033279 Z-1.000000 I-4.782034 J-135.447208
G03 X972.600937 Y421.863946 Z-1.000000 I-0.001483 J-135.554750
G03 X965.842977 Y421.356266 Z-1.000000 I6.775169 J-135.420392
G03 X959.118948 Y420.511406 Z-1.000000 I13.532195 J-134.879308
G03 X952.445519 Y419.331555 Z-1.000000 I20.257161 J-134.040645
G03 X945.839019 Y417.819757 Z-1.000000 I26.926133 J-132.857189
G03 X939.316339 Y415.979662 Z-1.000000 I33.533118 J-131.347293
G03 X932.894202 Y413.815192 Z-1.000000 I40.073134 J-129.509540
G03 X926.588257 Y411.332452 Z-1.000000 I46.487942 J-127.325000
G03 X920.413685 Y408.538657 Z-1.000000 I52.775952 J-124.860357
G03 X914.386465 Y405.439759 Z-1.000000 I58.953444 J-122.072605
G03 X908.522109 Y402.042578 Z-1.000000 I64.992914 J-118.953751
G03 X902.834873 Y398.356532 Z-1.000000 I70.860281 J-115.561481
G03 X897.339147 Y394.391541 Z-1.000000 I76.545366 J-111.887869
G03 X892.048446 Y390.156857 Z-1.000000 I82.032887 J-107.912083
G03 X886.975341 Y385.662382 Z-1.000000 I87.325718 J-103.678606
G03 X882.133217 Y380.919934 Z-1.000000 I92.396567 J-99.181709
G03 X877.535028 Y375.941895 Z-1.000000 I97.243112 J-94.435642
G03 X873.191366 Y370.740265 Z-1.000000 I101.845781 J-89.461536
G03 X869.112131 Y365.328104 Z-1.000000 I106.177873 J-84.271402
G03 X865.308489 Y359.718804 Z-1.000000 I110.253747 J-78.856837
G03 X861.791110 Y353.926373 Z-1.000000 I114.076359 J-73.235559
G03 X858.567614 Y347.965404 Z-1.000000 I117.586725 J-67.439105
G03 X855.644837 Y341.850698 Z-1.000000 I120.800010 J-61.497250
G03 X853.031328 Y335.597530 Z-1.000000 I123.725394 J-55.383712
G03 X850.734719 Y329.221125 Z-1.000000 I126.344322 J-49.107617
G03 X848.759679 Y322.737890 Z-1.000000 I128.646551 J-42.733079
G03 X847.110669 Y316.164404 Z-1.000000 I130.615705 J-36.259535
G03 X845.792261 Y309.516729 Z-1.000000 I132.267786 J-29.686739
G03 X844.807191 Y302.811614 Z-1.000000 I133.581744 J-23.049855
G03 X844.158464 Y296.065629 Z-1.000000 I134.568350 J-16.344926
G03 X843.904355 Y291.274517 Z-1.000000 I135.228793 J-9.574499
G03 X843.819950 Y286.477420 Z-1.000000 I135.467774 J-4.782852
G03 X843.989237 Y279.701892 Z-1.000000 I135.554673 J-0.003040
G03 X844.496971 Y272.943288 Z-1.000000 I135.391915 J6.772815
G03 X845.341820 Y266.219253 Z-1.000000 I134.879264 J13.531968
G03 X846.521665 Y259.545854 Z-1.000000 I134.032924 J20.255778
G03 X848.033473 Y252.939337 Z-1.000000 I132.851968 J26.925073
G03 X849.873582 Y246.416674 Z-1.000000 I131.344238 J33.532630
G03 X852.037419 Y239.994530 Z-1.000000 I129.498616 J40.056853
G03 X854.519506 Y233.688590 Z-1.000000 I127.337755 J46.480083
G03 X857.313954 Y227.514628 Z-1.000000 I124.850929 J52.790413
G03 X860.413463 Y221.488066 Z-1.000000 I122.058916 J58.965551
G03 X863.810644 Y215.623721 Z-1.000000 I118.962475 J64.998106
G03 X867.496687 Y209.936474 Z-1.000000 I115.562421 J70.860689
G03 X871.461650 Y204.440103 Z-1.000000 I111.884079 J76.532438
G03 X875.696362 Y199.148784 Z-1.000000 I107.917358 J82.027473
G03 X880.190880 Y194.076309 Z-1.000000 I103.671708 J87.331921
G03 X884.933295 Y189.234823 Z-1.000000 I99.178938 J92.406024
G03 X889.911310 Y184.635994 Z-1.000000 I94.444334 J97.237888
G03 X895.112949 Y180.291714 Z-1.000000 I89.468848 J101.839595
G03 X900.525150 Y176.213100 Z-1.000000 I84.258256 J106.178021
G03 X906.134415 Y172.410103 Z-1.000000 I78.848253 J110.259709
G03 X911.926829 Y168.892085 Z-1.000000 I73.245868 J114.071662
G03 X917.887833 Y165.667954 Z-1.000000 I67.449162 J117.582199
G03 X924.002560 Y162.745817 Z-1.000000 I61.488507 J120.809212
G03 X930.255689 Y160.132941 Z-1.000000 I55.372751 J123.729051
G03 X936.632105 Y157.835687 Z-1.000000 I49.121014 J126.345601
G03 X943.115354 Y155.860017 Z-1.000000 I42.744400 J128.642256
G03 X949.688840 Y154.211007 Z-1.000000 I36.259535 J130.615705
G03 X956.336515 Y152.892599 Z-1.000000 I29.686739 J132.267786
G03 X963.041654 Y151.908166 Z-1.000000 I23.037587 J133.585724
G03 X969.787605 Y151.260075 Z-1.000000 I16.332263 J134.568630
G03 X974.578722 Y151.005319 Z-1.000000 I9.591062 J135.196475
G03 X979.375839 Y150.920280 Z-1.000000 I4.800992 J135.480817
G01 X979.375839 Y150.920280 Z-1.000000
G00 Z5.000000

(End cutting path id: path12)


(Start cutting path id: path3734)
(Change tool to Cylindrical cutter)

G00 Z5.000000
G00 X979.375221 Y158.395592

G01 Z-1.000000 F100.0(Penetrate)
G02 X974.842623 Y158.475957 Z-1.000000 I0.003929 J128.082075 F400.000000
G02 X970.315709 Y158.716672 Z-1.000000 I4.536526 J128.001710
G02 X963.941718 Y159.329017 Z-1.000000 I9.057544 J127.761413
G02 X957.606298 Y160.259158 Z-1.000000 I15.431535 J127.149068
G02 X951.325174 Y161.504872 Z-1.000000 I21.768432 J126.218672
G02 X945.114160 Y163.062956 Z-1.000000 I28.049555 J124.972958
G02 X938.988396 Y164.929699 Z-1.000000 I34.261600 J123.414589
G02 X932.963594 Y167.100291 Z-1.000000 I40.387363 J121.547846
G02 X927.055268 Y169.569086 Z-1.000000 I46.411899 J119.377357
G02 X921.277714 Y172.330086 Z-1.000000 I52.320225 J116.908562
G02 X915.645401 Y175.376427 Z-1.000000 I58.098613 J114.147138
G02 X910.172380 Y178.700456 Z-1.000000 I63.730925 J111.100797
G02 X904.872410 Y182.293759 Z-1.000000 I69.203293 J107.777187
G02 X899.758649 Y186.147452 Z-1.000000 I74.503263 J104.183884
G02 X894.843822 Y190.252201 Z-1.000000 I79.619977 J100.327848
G02 X890.140291 Y194.597460 Z-1.000000 I84.534804 J96.223099
G02 X885.659377 Y199.171975 Z-1.000000 I89.229914 J91.886018
G02 X881.412696 Y203.964728 Z-1.000000 I93.710829 J87.311503
G02 X877.411485 Y208.964309 Z-1.000000 I97.968356 J82.505873
G02 X873.665154 Y214.157622 Z-1.000000 I101.969567 J77.506292
G02 X870.182364 Y219.531256 Z-1.000000 I105.706572 J72.326610
G02 X866.972501 Y225.072246 Z-1.000000 I109.189363 J66.952975
G02 X864.043900 Y230.766503 Z-1.000000 I112.400914 J61.408894
G02 X861.403544 Y236.600009 Z-1.000000 I115.329515 J55.714637
G02 X859.058318 Y242.558254 Z-1.000000 I117.972156 J49.875727
G02 X857.013798 Y248.626261 Z-1.000000 I120.317383 J43.917482
G02 X855.275152 Y254.789288 Z-1.000000 I122.362841 J37.846440
G02 X853.846708 Y261.031511 Z-1.000000 I124.101487 J31.683413
G02 X852.731926 Y267.336917 Z-1.000000 I125.529251 J25.444546
G02 X851.933664 Y273.690158 Z-1.000000 I126.644033 J19.139140
G02 X851.453917 Y280.076087 Z-1.000000 I127.442368 J12.785175
G02 X851.293957 Y286.478013 Z-1.000000 I127.922115 J6.399246
G02 X851.373714 Y291.010600 Z-1.000000 I128.082074 J0.013223
G02 X851.613820 Y295.537526 Z-1.000000 I128.002317 J-4.519364
G02 X852.226777 Y301.911524 Z-1.000000 I127.760555 J-9.069642
G02 X853.157533 Y308.246922 Z-1.000000 I127.147599 J-15.443640
G02 X854.403239 Y314.528045 Z-1.000000 I126.218697 J-21.768291
G02 X855.961316 Y320.739060 Z-1.000000 I124.972990 J-28.049414
G02 X857.827450 Y326.864807 Z-1.000000 I123.417650 J-34.250570
G02 X859.997424 Y332.889626 Z-1.000000 I121.551515 J-40.376317
G02 X862.466824 Y338.797975 Z-1.000000 I119.373427 J-46.422007
G02 X865.228441 Y344.575518 Z-1.000000 I116.904028 J-52.330356
G02 X868.274188 Y350.207811 Z-1.000000 I114.151731 J-58.089588
G02 X871.597610 Y355.680852 Z-1.000000 I111.105984 J-63.721881
G02 X875.191522 Y360.980845 Z-1.000000 I107.771974 J-69.211411
G02 X879.045839 Y366.094588 Z-1.000000 I104.178062 J-74.511404
G02 X883.149988 Y371.009372 Z-1.000000 I100.333109 J-79.613348
G02 X887.494631 Y375.712906 Z-1.000000 I96.228960 J-84.528132
G02 X892.069748 Y380.193861 Z-1.000000 I91.880713 J-89.235377
G02 X896.863120 Y384.440536 Z-1.000000 I87.305595 J-93.716332
G02 X901.862091 Y388.441718 Z-1.000000 I82.511162 J-97.963902
G02 X907.054780 Y392.188070 Z-1.000000 I77.512191 J-101.965083
G02 X912.428419 Y395.670852 Z-1.000000 I72.326455 J-105.706678
G02 X917.969412 Y398.880706 Z-1.000000 I66.952816 J-109.189460
G02 X923.664286 Y401.808729 Z-1.000000 I61.395041 J-112.408482
G02 X929.498385 Y404.448464 Z-1.000000 I55.700166 J-115.336505
G02 X935.456615 Y406.794307 Z-1.000000 I49.886505 J-117.967599
G02 X941.524640 Y408.839433 Z-1.000000 I43.928276 J-120.313443
G02 X947.687667 Y410.578080 Z-1.000000 I37.846440 J-122.362841
G02 X953.929890 Y412.006524 Z-1.000000 I31.683413 J-124.101487
G02 X960.235321 Y413.121300 Z-1.000000 I25.444353 J-125.529290
G02 X966.588587 Y413.919553 Z-1.000000 I19.138922 J-126.644066
G02 X972.973906 Y414.399260 Z-1.000000 I12.784978 J-127.442388
G02 X979.375221 Y414.559240 Z-1.000000 I6.399658 J-127.922094
G02 X983.908426 Y414.479515 Z-1.000000 I0.014736 J-128.082074
G02 X988.435969 Y414.239397 Z-1.000000 I-4.518469 J-128.002349
G02 X994.809967 Y413.626447 Z-1.000000 I-9.069496 J-127.760566
G02 X1001.145365 Y412.695699 Z-1.000000 I-15.443494 J-127.147616
G02 X1007.426484 Y411.449988 Z-1.000000 I-21.768387 J-126.218680
G02 X1013.637493 Y409.891908 Z-1.000000 I-28.049506 J-124.972969
G02 X1019.762647 Y408.025137 Z-1.000000 I-34.265836 J-123.413412
G02 X1025.786848 Y405.854574 Z-1.000000 I-40.390989 J-121.546641
G02 X1031.695167 Y403.385778 Z-1.000000 I-46.411952 J-119.377337
G02 X1037.472716 Y400.624778 Z-1.000000 I-52.320271 J-116.908542
G02 X1043.105040 Y397.578438 Z-1.000000 I-58.098493 J-114.147198
G02 X1048.578074 Y394.254408 Z-1.000000 I-63.730818 J-111.100858
G02 X1053.878647 Y390.661118 Z-1.000000 I-69.197214 J-107.781090
G02 X1058.992997 Y386.807388 Z-1.000000 I-74.497787 J-104.187800
G02 X1063.907794 Y382.703237 Z-1.000000 I-79.613240 J-100.333194
G02 X1068.611339 Y378.358591 Z-1.000000 I-84.528037 J-96.229043
G02 X1073.091669 Y373.783456 Z-1.000000 I-89.242123 J-91.874160
G02 X1077.337734 Y368.990112 Z-1.000000 I-93.722453 J-87.299025
G02 X1081.339541 Y363.991163 Z-1.000000 I-97.957310 J-82.518988
G02 X1085.086504 Y358.798454 Z-1.000000 I-101.959117 J-77.520039
G02 X1088.568674 Y353.424788 Z-1.000000 I-105.712737 J-72.317599
G02 X1091.777928 Y347.883805 Z-1.000000 I-109.194907 J-66.943932
G02 X1094.706563 Y342.188949 Z-1.000000 I-112.403125 J-61.404848
G02 X1097.346898 Y336.354831 Z-1.000000 I-115.331759 J-55.709991
G02 X1099.692130 Y330.396586 Z-1.000000 I-117.972110 J-49.875836
G02 X1101.736656 Y324.328579 Z-1.000000 I-120.317343 J-43.917591
G02 X1103.475912 Y318.165568 Z-1.000000 I-122.359327 J-37.857799
G02 X1104.904958 Y311.923329 Z-1.000000 I-124.098583 J-31.694789
G02 X1106.019734 Y305.617898 Z-1.000000 I-125.529290 J-25.444353
G02 X1106.817987 Y299.264633 Z-1.000000 I-126.644066 J-19.138922
G02 X1107.297693 Y292.879320 Z-1.000000 I-127.442388 J-12.784978
G02 X1107.457674 Y286.478013 Z-1.000000 I-127.922094 J-6.399666
G02 X1107.377343 Y281.944810 Z-1.000000 I-128.082075 J0.002368
G02 X1107.136619 Y277.417290 Z-1.000000 I-128.001744 J4.535572
G02 X1106.524274 Y271.043307 Z-1.000000 I-127.761412 J9.057569
G02 X1105.594133 Y264.707894 Z-1.000000 I-127.149066 J15.431552
G02 X1104.348409 Y258.426782 Z-1.000000 I-126.218633 J21.768661
G02 X1102.790317 Y252.215780 Z-1.000000 I-124.972909 J28.049773
G02 X1100.923558 Y246.090627 Z-1.000000 I-123.413474 J34.265613
G02 X1098.753008 Y240.066425 Z-1.000000 I-121.546715 J40.390767
G02 X1096.284212 Y234.158106 Z-1.000000 I-119.377337 J46.411952
G02 X1093.523212 Y228.380558 Z-1.000000 I-116.908542 J52.320271
G02 X1090.476898 Y222.747621 Z-1.000000 I-114.150172 J58.092652
G02 X1087.152842 Y217.273988 Z-1.000000 I-111.103858 J63.725589
G02 X1083.559526 Y211.974028 Z-1.000000 I-107.777016 J69.203560
G02 X1079.705821 Y206.860277 Z-1.000000 I-104.183700 J74.503520
G02 X1075.601073 Y201.945445 Z-1.000000 I-100.327891 J79.619923
G02 X1071.255814 Y197.241910 Z-1.000000 I-96.223142 J84.534754
G02 X1066.681264 Y192.761616 Z-1.000000 I-91.879363 J89.236767
G02 X1061.888521 Y188.515540 Z-1.000000 I-87.304813 J93.717061
G02 X1056.888973 Y184.513721 Z-1.000000 I-82.513592 J97.961855
G02 X1051.695652 Y180.766795 Z-1.000000 I-77.514044 J101.963674
G02 X1046.321998 Y177.284625 Z-1.000000 I-72.317697 J105.712670
G02 X1040.781028 Y174.075370 Z-1.000000 I-66.944042 J109.194840
G02 X1035.086771 Y171.146763 Z-1.000000 I-61.408994 J112.400860
G02 X1029.253265 Y168.506401 Z-1.000000 I-55.714737 J115.329467
G02 X1023.294419 Y166.161139 Z-1.000000 I-49.872534 J117.973506
G02 X1017.225801 Y164.116643 Z-1.000000 I-43.913688 J120.318768
G02 X1011.063392 Y162.377412 Z-1.000000 I-37.860172 J122.358593
G02 X1004.821763 Y160.948333 Z-1.000000 I-31.697764 J124.097823
G02 X998.515733 Y159.833528 Z-1.000000 I-25.443176 J125.529529
G02 X992.161865 Y159.035304 Z-1.000000 I-19.137146 J126.644335
G02 X985.776541 Y158.555585 Z-1.000000 I-12.785224 J127.442363
G02 X979.375221 Y158.395592 Z-1.000000 I-6.399900 J127.922082
G01 X979.375221 Y158.395592 Z-1.000000
G00 Z5.000000

(End cutting path id: path3734)                 CODIGO100CERA


(Start cutting path id: path2311-0)             RPAPY
(Change tool to Cylindrical cutter)

G00 Z5.000000
G00 X414.817658 Y480.259206

G01 Z-1.000000 F100.0(Penetrate)
G03 X414.455182 Y479.708147 Z-1.000000 I3.064578 J-2.410563 F400.000000
G03 X414.080512 Y478.693804 Z-1.000000 I3.327302 J-1.805380
G03 X413.905935 Y477.509205 Z-1.000000 I9.126706 J-1.950192
G03 X413.715245 Y474.089159 Z-1.000000 I64.597887 J-5.317085
G03 X413.619406 Y467.284604 Z-1.000000 I223.938260 J-6.557015
G03 X413.688858 Y441.706036 Z-1.000000 I7942.268961 J8.775613
G01 X413.848558 Y404.790846 Z-1.000000
G01 X431.499368 Y404.613006 Z-1.000000
G03 X440.568969 Y404.580095 Z-1.000000 I7.087348 J703.417586
G03 X445.530610 Y404.654643 Z-1.000000 I-0.572808 J203.274683
G03 X450.435125 Y404.922774 Z-1.000000 I-2.441892 J89.655320
G03 X451.812088 Y405.166306 Z-1.000000 I-0.616358 J7.499519
G03 X457.020625 Y407.779761 Z-1.000000 I-3.943105 J14.355447
G03 X461.030988 Y412.351516 Z-1.000000 I-9.966482 J12.787471
G03 X462.003126 Y414.239376 Z-1.000000 I-16.390398 J9.634327
G03 X462.518288 Y415.932093 Z-1.000000 I-6.520618 J2.909238
G03 X462.706560 Y417.799602 Z-1.000000 I-13.084187 J2.262319
G03 X462.775588 Y422.441706 Z-1.000000 I-156.054795 J4.642104
G03 X462.705068 Y426.784847 Z-1.000000 I-133.777251 J-0.000000
G03 X462.537838 Y428.737863 Z-1.000000 I-18.509434 J-0.601234
G03 X462.098761 Y430.548160 Z-1.000000 I-9.278807 J-1.292124
G03 X461.438788 Y432.041296 Z-1.000000 I-9.802373 J-3.440272
G03 X458.940309 Y435.561269 Z-1.000000 I-15.550591 J-8.391119
G03 X456.000975 Y437.961508 Z-1.000000 I-9.614338 J-8.773849
G03 X452.485679 Y439.468824 Z-1.000000 I-7.373496 J-12.343377
G03 X447.542088 Y440.342726 Z-1.000000 I-6.976206 J-25.044140
G01 X442.834768 Y440.711886 Z-1.000000
G01 X452.959988 Y458.021876 Z-1.000000
G03 X457.903143 Y466.617356 Z-1.000000 I-580.619140 J339.626077
G03 X460.520238 Y471.393298 Z-1.000000 I-179.000876 J101.192934
G03 X462.906895 Y476.264279 Z-1.000000 I-73.837362 J39.198634
G03 X463.085188 Y477.094366 Z-1.000000 I-1.843196 J0.830087
G03 X462.228736 Y479.590340 Z-1.000000 I-4.065258 J0.000000
G03 X460.087700 Y481.323039 Z-1.000000 I-4.781757 J-3.719497
G03 X457.387569 Y481.945078 Z-1.000000 I-2.711352 J-5.598024
G03 X454.805788 Y481.104416 Z-1.000000 I-0.007867 J-4.360663
G03 X454.404104 Y480.680418 Z-1.000000 I0.957346 J-1.309235
G03 X450.634010 Y474.728303 Z-1.000000 I232.050639 J-151.151871
G03 X447.108704 Y468.923662 Z-1.000000 I473.210890 J-291.365840
G03 X442.126468 Y460.511766 Z-1.000000 I847.019588 J-507.358012
G01 X430.531468 Y440.711886 Z-1.000000
G01 X427.299468 Y440.524686 Z-1.000000
G01 X424.067468 Y440.337486 Z-1.000000
G01 X424.067468 Y459.597176 Z-1.000000
G01 X424.067468 Y478.856866 Z-1.000000
G01 X422.547268 Y480.377026 Z-1.000000
G03 X420.631159 Y481.611586 Z-1.000000 I-3.811433 J-3.811329
G03 X418.525563 Y481.977438 Z-1.000000 I-2.018118 J-5.372801
G03 X416.458403 Y481.528430 Z-1.000000 I0.081691 J-5.359026
G03 X414.817658 Y480.259206 Z-1.000000 I1.708384 J-3.903574
G01 X414.817658 Y480.259206 Z-1.000000
G00 Z5.000000

(Change tool to Cylindrical cutter)

G00 Z5.000000
G00 X451.036388 Y428.353476

G01 Z-1.000000 F100.0(Penetrate)
G02 X451.831649 Y427.380088 Z-1.000000 I-4.434109 J-4.434242 F400.000000
G02 X452.294600 Y426.338194 Z-1.000000 I-2.868381 J-1.898326
G02 X452.479904 Y425.145669 Z-1.000000 I-6.004729 J-1.543720
G02 X452.556588 Y422.440286 Z-1.000000 I-47.684208 J-2.705383
G02 X452.480616 Y419.672762 Z-1.000000 I-50.446290 J0.000000
G02 X452.290463 Y418.514021 Z-1.000000 I-5.450468 J0.299468
G02 X451.806807 Y417.521818 Z-1.000000 I-2.920283 J0.809530
G02 X450.917788 Y416.528516 Z-1.000000 I-5.749556 J4.251437
G02 X450.331796 Y416.018214 Z-1.000000 I-8.535803 J9.210264
G02 X449.766262 Y415.654734 Z-1.000000 I-1.866137 J2.281804
G02 X449.129946 Y415.422921 Z-1.000000 I-1.391197 J2.829540
G02 X447.880935 Y415.203387 Z-1.000000 I-2.241687 J9.090969
G02 X445.381117 Y415.056923 Z-1.000000 I-2.784184 J26.113410
G02 X436.673268 Y415.009776 Z-1.000000 I-8.707849 J804.129355
G01 X424.067468 Y415.009776 Z-1.000000
G01 X424.067468 Y422.441706 Z-1.000000
G01 X424.067468 Y429.873646 Z-1.000000
G01 X436.791868 Y429.873646 Z-1.000000
G02 X445.611353 Y429.827410 Z-1.000000 I0.000000 J-841.182272
G02 X448.102398 Y429.681749 Z-1.000000 I-0.273070 J-26.043386
G02 X449.343870 Y429.460613 Z-1.000000 I-0.957449 J-8.970591
G02 X449.955105 Y429.230215 Z-1.000000 I-0.698314 J-2.778576
G02 X450.490583 Y428.865399 Z-1.000000 I-1.203661 J-2.342136
G02 X451.036388 Y428.353476 Z-1.000000 I-7.728474 J-8.786912
G01 X451.036388 Y428.353476 Z-1.000000
G00 Z5.000000

(Change tool to Cylindrical cutter)

G00 Z5.000000
G00 X489.373588 Y480.372146

G01 Z-1.000000 F100.0(Penetrate)
G01 X487.848588 Y478.847096 Z-1.000000 F400.000000
G01 X488.008288 Y441.818976 Z-1.000000
G01 X488.167988 Y404.790846 Z-1.000000
G01 X506.094288 Y404.626316 Z-1.000000
G03 X520.031905 Y404.661330 Z-1.000000 I5.471234 J596.129683
G03 X524.901313 Y405.039726 Z-1.000000 I-0.547812 J38.569910
G03 X527.348277 Y405.560431 Z-1.000000 I-2.556647 J18.024414
G03 X528.964610 Y406.179648 Z-1.000000 I-2.724480 J9.530819
G03 X530.456742 Y407.065431 Z-1.000000 I-4.613084 J9.470568
G03 X532.084988 Y408.312976 Z-1.000000 I-16.699812 J23.482267
G03 X533.043664 Y409.227598 Z-1.000000 I-5.816566 J7.056469
G03 X534.197363 Y410.622623 Z-1.000000 I-14.773685 J13.392542
G03 X535.221423 Y412.112218 Z-1.000000 I-16.671912 J12.558342
G03 X535.930088 Y413.417566 Z-1.000000 I-10.230253 J6.398975
G03 X536.677976 Y415.355590 Z-1.000000 I-13.960983 J6.500899
G03 X537.177288 Y417.822204 Z-1.000000 I-11.911202 J3.695003
G03 X537.335353 Y420.577781 Z-1.000000 I-33.214880 J3.287597
G03 X537.398488 Y428.253476 Z-1.000000 I-497.393367 J7.929283
G03 X537.202666 Y438.073857 Z-1.000000 I-237.852360 J0.169276
G03 X536.687900 Y441.883728 Z-1.000000 I-20.525153 J-0.833516
G03 X536.077027 Y443.769740 Z-1.000000 I-11.344089 J-2.632382
G03 X535.297480 Y445.235674 Z-1.000000 I-8.485796 J-3.572291
G03 X534.279068 Y446.571242 Z-1.000000 I-9.711295 J-6.349093
G03 X532.780588 Y448.164806 Z-1.000000 I-26.659066 J-23.567080
G03 X531.169146 Y449.683191 Z-1.000000 I-26.337020 J-26.336837
G03 X529.820502 Y450.708550 Z-1.000000 I-7.416536 J-8.355285
G03 X528.335719 Y451.481620 Z-1.000000 I-4.837132 J-7.477953
G03 X526.349375 Y452.095682 Z-1.000000 I-4.550401 J-11.199748
G03 X522.340733 Y452.597292 Z-1.000000 I-4.807343 J-22.149678
G03 X511.475788 Y452.788786 Z-1.000000 I-10.864945 J-308.131588
G01 X498.386888 Y452.788786 Z-1.000000
G01 X498.386888 Y465.822826 Z-1.000000
G03 X498.341703 Y474.869939 Z-1.000000 I-905.757307 J-0.000000
G03 X498.196863 Y477.410607 Z-1.000000 I-27.104751 J-0.270748
G03 X497.975337 Y478.676804 Z-1.000000 I-9.232428 J-0.962770
G03 X497.745553 Y479.292587 Z-1.000000 I-2.788418 J-0.689753
G03 X497.379496 Y479.831150 Z-1.000000 I-2.323358 J-1.185487
G03 X496.866688 Y480.377026 Z-1.000000 I-8.769241 J-7.724212
G03 X493.122669 Y481.926452 Z-1.000000 I-3.740520 J-3.740340
G03 X489.373588 Y480.372026 Z-1.000000 I0.003509 J-5.306836
G01 X489.373588 Y480.372146 Z-1.000000
G00 Z5.000000

(Change tool to Cylindrical cutter)

G00 Z5.000000
G00 X525.355788 Y440.740036

G01 Z-1.000000 F100.0(Penetrate)
G02 X525.866375 Y440.195143 Z-1.000000 I-8.119336 J-8.119825 F400.000000
G02 X526.224233 Y439.682003 Z-1.000000 I-2.114366 J-1.855889
G02 X526.459916 Y439.102180 Z-1.000000 I-2.471888 J-1.342567
G02 X526.676700 Y438.031419 Z-1.000000 I-7.032571 J-1.981129
G02 X526.825999 Y435.882353 Z-1.000000 I-19.243660 J-2.416605
G02 X526.875988 Y428.634986 Z-1.000000 I-525.337269 J-7.247367
G03 X526.892070 Y423.263317 Z-1.000000 I897.129283 J0.000000
G02 X526.781005 Y420.365525 Z-1.000000 I-32.743347 J-0.196058
G02 X526.222160 Y417.712401 Z-1.000000 I-10.836858 J0.897219
G02 X525.308975 Y416.364139 Z-1.000000 I-2.963118 J1.023552
G02 X523.831865 Y415.590645 Z-1.000000 I-2.387779 J2.762708
G02 X520.679277 Y415.091874 Z-1.000000 I-4.189603 J16.268586
G02 X517.328101 Y414.995854 Z-1.000000 I-3.124481 J50.519321
G03 X511.111288 Y415.009776 Z-1.000000 I-6.216813 J-1388.058423
G01 X498.386888 Y415.009776 Z-1.000000
G01 X498.386888 Y428.634986 Z-1.000000
G01 X498.386888 Y442.260206 Z-1.000000
G01 X511.111288 Y442.260206 Z-1.000000
G02 X519.930817 Y442.213970 Z-1.000000 I0.000000 J-841.185502
G02 X522.421838 Y442.068309 Z-1.000000 I-0.273065 J-26.042898
G02 X523.663296 Y441.847173 Z-1.000000 I-0.957428 J-8.970317
G02 X524.274519 Y441.616775 Z-1.000000 I-0.698299 J-2.778472
G02 X524.809985 Y441.251961 Z-1.000000 I-1.203659 J-2.342086
G02 X525.355788 Y440.740036 Z-1.000000 I-7.729518 J-8.787955
G01 X525.355788 Y440.740036 Z-1.000000
G00 Z5.000000

(Change tool to Cylindrical cutter)

G00 Z5.000000
G00 X563.697888 Y480.377026

G01 Z-1.000000 F100.0(Penetrate)
G03 X563.109225 Y479.677921 Z-1.000000 I3.781231 J-3.781276 F400.000000
G03 X562.624250 Y478.874178 Z-1.000000 I5.378350 J-3.793455
G03 X562.270419 Y478.005293 Z-1.000000 I4.932833 J-2.515254
G03 X562.177688 Y477.395646 Z-1.000000 I1.957641 J-0.609647
G03 X562.256602 Y476.759461 Z-1.000000 I2.603847 J-0.000000
G03 X563.889588 Y470.553604 Z-1.000000 I296.889341 J74.804594
G03 X565.557302 Y464.595696 Z-1.000000 I579.551466 J159.013429
G03 X568.005388 Y456.155516 Z-1.000000 I999.729208 J285.397650
G02 X573.820338 Y436.372819 Z-1.000000 I-15208.257602 J-4481.081231
G02 X577.961188 Y422.203966 Z-1.000000 I-7808.263193 J-2289.655169
G03 X579.752301 Y416.170781 Z-1.000000 I584.957351 J170.377895
G03 X581.085325 Y411.860367 Z-1.000000 I349.777244 J105.809591
G03 X582.546888 Y407.424695 Z-1.000000 I182.546023 J57.690637
G03 X582.799688 Y406.893706 Z-1.000000 I2.448424 J0.840003
G03 X584.554846 Y405.321393 Z-1.000000 I3.590666 J2.242437
G03 X586.902050 Y404.743706 Z-1.000000 I2.548023 J5.295576
G03 X589.265741 Y405.170379 Z-1.000000 I0.194344 J5.683907
G03 X591.009888 Y406.612986 Z-1.000000 I-1.462180 J3.543473
G03 X591.548067 Y407.695400 Z-1.000000 I-4.271642 J2.798872
G03 X594.225613 Y415.781122 Z-1.000000 I-174.422573 J62.245333
G03 X596.941928 Y424.848685 Z-1.000000 I-790.553734 J241.762021
G03 X604.318088 Y450.130306 Z-1.000000 I-8703.803194 J2553.136574
G03 X607.431378 Y461.018972 Z-1.000000 I-1380.649330 J400.644949
G03 X609.548438 Y468.676281 Z-1.000000 I-794.338798 J223.736740
G03 X611.628529 Y476.653744 Z-1.000000 I-403.584293 J109.492904
G03 X611.723888 Y477.427616 Z-1.000000 I-3.092458 J0.773872
G03 X610.323724 Y480.497022 Z-1.000000 I-4.064423 J-0.000000
G03 X606.574588 Y481.897206 Z-1.000000 I-3.749137 J-4.319258
G03 X605.400733 Y481.808861 Z-1.000000 I0.000000 J-7.842774
G03 X604.496083 Y481.560754 Z-1.000000 I0.599147 J-3.957936
G03 X603.692407 Y481.101969 Z-1.000000 I1.304927 J-3.219223
G03 X602.915925 Y480.344351 Z-1.000000 I2.732668 J-3.577421
G03 X601.830297 Y478.504120 Z-1.000000 I5.806426 J-4.665795
G03 X600.252288 Y474.029416 Z-1.000000 I43.884430 J-17.991486
G02 X598.627954 Y468.583067 Z-1.000000 I-3155.895978 J938.257351
G02 X598.159188 Y467.033326 Z-1.000000 I-256.457628 J76.727694
G01 X597.685788 Y465.485006 Z-1.000000
G01 X586.965988 Y465.485006 Z-1.000000
G01 X576.246188 Y465.485006 Z-1.000000
G01 X574.202588 Y472.603406 Z-1.000000
G03 X573.090732 Y476.199977 Z-1.000000 I-89.389468 J-25.664007
G03 X572.330225 Y478.246802 Z-1.000000 I-29.049590 J-9.628804
G03 X571.372095 Y480.165439 Z-1.000000 I-13.831343 J-5.708549
G03 X570.815688 Y480.809506 Z-1.000000 I-2.072024 J-1.227643
G03 X569.140462 Y481.674578 Z-1.000000 I-2.928590 J-3.616675
G03 X567.202525 Y481.880779 Z-1.000000 I-1.581750 J-5.655981
G03 X565.300081 Y481.444572 Z-1.000000 I0.360978 J-5.941042
G03 X563.697888 Y480.377026 Z-1.000000 I1.864206 J-4.533908
G01 X563.697888 Y480.377026 Z-1.000000
G00 Z5.000000

(Change tool to Cylindrical cutter)

G00 Z5.000000
G00 X594.382788 Y454.196946

G01 Z-1.000000 F100.0(Penetrate)
G02 X594.304914 Y453.582642 Z-1.000000 I-2.461895 J-0.000000 F400.000000
G02 X593.263786 Y449.765389 Z-1.000000 I-136.096772 J35.068800
G02 X592.183192 Y446.108924 Z-1.000000 I-261.447198 J75.277487
G02 X590.774900 Y441.542612 Z-1.000000 I-476.757806 J144.536117
G02 X589.319566 Y436.982452 Z-1.000000 I-459.114132 J144.009892
G02 X588.218308 Y433.680024 Z-1.000000 I-207.596111 J67.392051
G02 X587.658734 Y432.082109 Z-1.000000 I-114.473570 J39.190562
G02 X587.321553 Y431.181117 Z-1.000000 I-31.762496 J11.373000
G02 X586.950476 Y430.337170 Z-1.000000 I-10.252328 J4.004319
G01 X586.896188 Y430.329036 Z-1.000000
G02 X586.746275 Y430.565306 Z-1.000000 I0.544771 J0.511350
G02 X586.179163 Y432.118937 Z-1.000000 I28.439220 J11.261312
G02 X585.690315 Y433.651680 Z-1.000000 I53.649391 J17.955086
G02 X585.079488 Y435.757266 Z-1.000000 I86.191457 J26.145396
G03 X583.284957 Y441.998670 Z-1.000000 I-320.106696 J-88.658485
G03 X579.770988 Y453.562946 Z-1.000000 I-1102.356928 J-328.650809
G02 X579.714465 Y453.914850 Z-1.000000 I1.211290 J0.375048
G02 X579.796036 Y454.150316 Z-1.000000 I0.361585 J0.006601
G02 X580.005153 Y454.301824 Z-1.000000 I0.390956 J-0.319543
G02 X580.662725 Y454.476432 Z-1.000000 I1.127596 J-2.921003
G02 X582.048857 Y454.595718 Z-1.000000 I1.611631 J-10.614331
G02 X586.909088 Y454.646766 Z-1.000000 I4.860231 J-231.343326
G02 X590.089364 Y454.605180 Z-1.000000 I-0.000000 J-121.626184
G02 X592.187375 Y454.514631 Z-1.000000 I-1.616807 J-61.811874
G02 X594.287442 Y454.306399 Z-1.000000 I-1.637745 J-27.210957
G02 X594.382788 Y454.196946 Z-1.000000 I-0.015151 J-0.109453
G01 X594.382788 Y454.196946 Z-1.000000
G00 Z5.000000

(End cutting path id: path2311-0)


(Start cutting path id: path2311-9)
(Change tool to Cylindrical cutter)

G00 Z5.000000
G00 X637.020998 Y480.364686

G01 Z-1.000000 F100.0(Penetrate)
G01 X635.495998 Y478.839636 Z-1.000000 F400.000000
G01 X635.655698 Y441.811516 Z-1.000000
G01 X635.815398 Y404.783396 Z-1.000000
G01 X653.741698 Y404.618866 Z-1.000000
G03 X667.679315 Y404.653880 Z-1.000000 I5.471243 J596.130704
G03 X672.548723 Y405.032274 Z-1.000000 I-0.547811 J38.570004
G03 X674.995687 Y405.552978 Z-1.000000 I-2.556646 J18.024458
G03 X676.612020 Y406.172194 Z-1.000000 I-2.724478 J9.530836
G03 X678.104152 Y407.057974 Z-1.000000 I-4.613078 J9.470581
G03 X679.732398 Y408.305516 Z-1.000000 I-16.699780 J23.482285
G03 X680.691129 Y409.220151 Z-1.000000 I-5.815226 J7.055381
G03 X681.844823 Y410.615163 Z-1.000000 I-14.772660 J13.391753
G03 X682.868884 Y412.104750 Z-1.000000 I-16.672938 J12.559115
G03 X683.577598 Y413.410106 Z-1.000000 I-10.233907 J6.401341
G03 X684.325444 Y415.348123 Z-1.000000 I-13.963133 J6.501427
G03 X684.824748 Y417.814744 Z-1.000000 I-11.911688 J3.695057
G03 X684.982809 Y420.570321 Z-1.000000 I-33.213720 J3.287482
G03 X685.045898 Y428.246016 Z-1.000000 I-497.193023 J7.924654
G03 X684.850078 Y438.066399 Z-1.000000 I-237.855572 J0.169278
G03 X684.335323 Y441.876268 Z-1.000000 I-20.525560 J-0.833521
G03 X683.724461 Y443.762282 Z-1.000000 I-11.344303 J-2.632379
G03 X682.944932 Y445.228214 Z-1.000000 I-8.485890 J-3.572255
G03 X681.926542 Y446.563784 Z-1.000000 I-9.711373 J-6.349003
G03 X680.428098 Y448.157346 Z-1.000000 I-26.659179 J-23.566640
G03 X678.816621 Y449.675731 Z-1.000000 I-26.337730 J-26.338157
G03 X677.467954 Y450.701090 Z-1.000000 I-7.416699 J-8.355637
G03 X675.983152 Y451.474161 Z-1.000000 I-4.837224 J-7.478203
G03 X673.996798 Y452.088222 Z-1.000000 I-4.550444 J-11.199950
G03 X669.988140 Y452.589832 Z-1.000000 I-4.807366 J-22.149881
G03 X659.123198 Y452.781326 Z-1.000000 I-10.864942 J-308.131582
G01 X646.034298 Y452.781326 Z-1.000000
G01 X646.034298 Y465.815366 Z-1.000000
G03 X645.989113 Y474.862479 Z-1.000000 I-905.757307 J-0.000000
G03 X645.844273 Y477.403147 Z-1.000000 I-27.104751 J-0.270748
G03 X645.622747 Y478.669344 Z-1.000000 I-9.232428 J-0.962770
G03 X645.392963 Y479.285127 Z-1.000000 I-2.788418 J-0.689753
G03 X645.026906 Y479.823690 Z-1.000000 I-2.323358 J-1.185487
G03 X644.514098 Y480.369566 Z-1.000000 I-8.769241 J-7.724212
G03 X640.770082 Y481.918989 Z-1.000000 I-3.740527 J-3.740364
G03 X637.020998 Y480.364566 Z-1.000000 I0.003500 J-5.306827
G01 X637.020998 Y480.364686 Z-1.000000
G00 Z5.000000

(Change tool to Cylindrical cutter)

G00 Z5.000000
G00 X673.003198 Y440.732576

G01 Z-1.000000 F100.0(Penetrate)
G02 X673.513785 Y440.187683 Z-1.000000 I-8.119336 J-8.119825 F400.000000
G02 X673.871643 Y439.674543 Z-1.000000 I-2.114366 J-1.855889
G02 X674.107326 Y439.094720 Z-1.000000 I-2.471888 J-1.342567
G02 X674.324110 Y438.023959 Z-1.000000 I-7.032571 J-1.981129
G02 X674.473409 Y435.874893 Z-1.000000 I-19.243660 J-2.416605
G02 X674.523398 Y428.627526 Z-1.000000 I-525.337269 J-7.247367
G03 X674.539480 Y423.255857 Z-1.000000 I897.129283 J0.000000
G02 X674.428415 Y420.358065 Z-1.000000 I-32.743347 J-0.196058
G02 X673.869570 Y417.704941 Z-1.000000 I-10.836858 J0.897219
G02 X672.956385 Y416.356679 Z-1.000000 I-2.963118 J1.023552
G02 X671.479275 Y415.583185 Z-1.000000 I-2.387779 J2.762708
G02 X668.326687 Y415.084414 Z-1.000000 I-4.189603 J16.268586
G02 X664.975511 Y414.988394 Z-1.000000 I-3.124481 J50.519321
G03 X658.758698 Y415.002316 Z-1.000000 I-6.216813 J-1388.058423
G01 X646.034298 Y415.002316 Z-1.000000
G01 X646.034298 Y428.627526 Z-1.000000
G01 X646.034298 Y442.252746 Z-1.000000
G01 X658.758698 Y442.252746 Z-1.000000
G02 X667.578227 Y442.206510 Z-1.000000 I0.000000 J-841.185502
G02 X670.069248 Y442.060849 Z-1.000000 I-0.273065 J-26.042898
G02 X671.310706 Y441.839713 Z-1.000000 I-0.957428 J-8.970317
G02 X671.921929 Y441.609315 Z-1.000000 I-0.698299 J-2.778472
G02 X672.457395 Y441.244501 Z-1.000000 I-1.203659 J-2.342086
G02 X673.003198 Y440.732576 Z-1.000000 I-7.729518 J-8.787955
G01 X673.003198 Y440.732576 Z-1.000000
G00 Z5.000000

(End cutting path id: path2311-9)


(Start cutting path id: path2311-6)
(Change tool to Cylindrical cutter)

G00 Z5.000000
G00 X711.091986 Y404.575528

G01 Z-1.000000 F100.0(Penetrate)
G02 X709.284308 Y404.989484 Z-1.000000 I0.059983 J4.415835 F400.000000
G02 X707.624658 Y406.127547 Z-1.000000 I2.599565 J5.570146
G02 X706.442207 Y407.731900 Z-1.000000 I4.078026 J4.243540
G02 X706.014764 Y409.538529 Z-1.000000 I3.598134 J1.805188
G02 X706.072900 Y410.049881 Z-1.000000 I2.277963 J0.000000
G02 X706.478071 Y411.298256 Z-1.000000 I7.323978 J-1.687128
G02 X707.085598 Y412.602330 Z-1.000000 I19.080383 J-8.095401
G02 X708.881376 Y415.999383 Z-1.000000 I109.746960 J-55.842139
G02 X712.606010 Y422.619829 Z-1.000000 I314.958294 J-172.836224
G02 X725.588268 Y445.009761 Z-1.000000 I4634.282256 J-2672.117337
G02 X718.069912 Y457.889472 Z-1.000000 I7776.805000 J4548.238580
G02 X709.907049 Y471.932649 Z-1.000000 I6916.002887 J4029.451507
G02 X708.135966 Y475.487552 Z-1.000000 I27.155093 J15.747537
G02 X707.653626 Y477.401947 Z-1.000000 I6.003746 J2.530631
G02 X707.934521 Y479.215811 Z-1.000000 I3.716678 J0.353117
G02 X709.056970 Y480.878873 Z-1.000000 I4.845688 J-2.060177
G02 X710.663858 Y481.948117 Z-1.000000 I3.464434 J-3.464384
G02 X712.563119 Y482.383833 Z-1.000000 I2.271422 J-5.543755
G02 X714.489767 Y482.174625 Z-1.000000 I0.355120 J-5.705689
G02 X716.063771 Y481.315039 Z-1.000000 I-1.122699 J-3.926683
G02 X716.538572 Y480.778446 Z-1.000000 I-1.894316 J-2.154532
G02 X718.900931 Y477.183934 Z-1.000000 I-100.076005 J-68.344780
G02 X721.096270 Y473.637531 Z-1.000000 I-187.836509 J-118.729583
G02 X723.990952 Y468.773683 Z-1.000000 I-299.850045 J-181.746808
G02 X746.314124 Y430.490142 Z-1.000000 I-22275.044696 J-13014.250995
G02 X752.444224 Y419.794950 Z-1.000000 I-808.551831 J-470.537254
G02 X755.440313 Y414.346073 Z-1.000000 I-243.204568 J-137.275280
G02 X756.376890 Y412.469846 Z-1.000000 I-32.316617 J-17.303704
G02 X757.004916 Y410.735435 Z-1.000000 I-9.631650 J-4.468505
G02 X757.081940 Y410.147282 Z-1.000000 I-2.207039 J-0.588152
G02 X756.568423 Y408.162596 Z-1.000000 I-4.092059 J-0.000000
G02 X755.164213 Y406.460291 Z-1.000000 I-5.291965 J2.934964
G02 X753.244988 Y405.381965 Z-1.000000 I-3.827905 J4.565880
G02 X751.243538 Y405.252994 Z-1.000000 I-1.241443 J3.671103
G02 X749.471269 Y405.859530 Z-1.000000 I1.392021 J6.959927
G02 X748.337249 Y406.700979 Z-1.000000 I1.794891 J3.603857
G02 X748.011770 Y407.127235 Z-1.000000 I1.879211 J1.772311
G02 X743.347670 Y414.856681 Z-1.000000 I740.283642 J451.973684
G02 X738.874420 Y422.394370 Z-1.000000 I1762.373010 J1050.978505
G02 X731.725358 Y434.534933 Z-1.000000 I4782.613826 J2824.453074
G02 X724.456941 Y422.187848 Z-1.000000 I-5050.632890 J2964.867303
G02 X719.872710 Y414.459058 Z-1.000000 I-1856.505844 J1095.938243
G02 X715.088823 Y406.523802 Z-1.000000 I-783.209395 J466.759704
G02 X714.759455 Y406.092225 Z-1.000000 I-2.226592 J1.357807
G02 X713.625466 Y405.250780 Z-1.000000 I-2.928718 J2.762093
G02 X711.853192 Y404.644267 Z-1.000000 I-3.164000 J6.352823
G02 X711.475021 Y404.589851 Z-1.000000 I-0.687597 J3.437259
G02 X711.091986 Y404.575528 Z-1.000000 I-0.331780 J3.743936
G01 X711.091986 Y404.575528 Z-1.000000
G00 Z5.000000

(End cutting path id: path2311-6)               RPAPY

(Change tool to Cylindrical cutter)


G00 Z5.000000
G00 X417.567896 Y186.260963

G01 Z-1.000000 F100.0(Penetrate)
G03 X417.115356 Y185.723466 Z-1.000000 I9.986753 J-8.867499 F400.000000
G03 X416.702714 Y184.921425 Z-1.000000 I1.789232 J-1.427712
G03 X416.512769 Y183.910798 Z-1.000000 I5.437994 J-1.545225
G03 X416.296049 Y180.414970 Z-1.000000 I53.176586 J-5.051256
G03 X416.204385 Y173.380324 Z-1.000000 I218.487899 J-6.364879
G03 X416.324596 Y143.582277 Z-1.000000 I15359.917635 J47.065536
G01 X416.493086 Y109.914837 Z-1.000000
G01 X435.845946 Y110.127257 Z-1.000000
G01 X455.198816 Y110.339647 Z-1.000000
G01 X458.257956 Y112.529987 Z-1.000000
G03 X459.505456 Y113.553448 Z-1.000000 I-7.155576 J9.993975
G03 X460.936870 Y115.018568 Z-1.000000 I-15.815173 J16.883132
G03 X462.232725 Y116.605777 Z-1.000000 I-17.057318 J15.248810
G03 X463.081836 Y117.925957 Z-1.000000 I-9.221413 J6.864168
G03 X464.004685 Y119.875013 Z-1.000000 I-15.490346 J8.527454
G03 X464.533380 Y121.710147 Z-1.000000 I-8.817169 J3.533915
G03 X464.754592 Y123.670520 Z-1.000000 I-14.401894 J2.617808
G03 X464.841496 Y127.606757 Z-1.000000 I-86.058203 J3.869058
G03 X464.750429 Y131.365510 Z-1.000000 I-80.140828 J-0.061164
G03 X464.539906 Y133.375151 Z-1.000000 I-17.810192 J-0.849890
G03 X464.055178 Y135.277915 Z-1.000000 I-10.979630 J-1.783930
G03 X463.321936 Y136.959777 Z-1.000000 I-11.817390 J-4.151264
G03 X460.680831 Y140.750035 Z-1.000000 I-16.506713 J-8.686800
G03 X457.685665 Y143.206208 Z-1.000000 I-9.557018 J-8.599945
G03 X454.092933 Y144.669935 Z-1.000000 I-6.680164 J-11.255465
G03 X449.381306 Y145.233597 Z-1.000000 I-4.711627 J-19.410330
G02 X447.737361 Y145.286724 Z-1.000000 I-0.000000 J25.461422
G02 X446.546150 Y145.409441 Z-1.000000 I1.016389 J15.708987
G02 X445.375716 Y145.662467 Z-1.000000 I1.163899 J8.217451
G02 X445.154916 Y145.832207 Z-1.000000 I0.108231 J0.369269
G02 X445.131249 Y146.103339 Z-1.000000 I0.263157 J0.159569
G02 X446.157034 Y148.456737 Z-1.000000 I29.846669 J-11.609121
G02 X447.300280 Y150.707081 Z-1.000000 I60.050143 J-29.091796
G02 X449.076106 Y153.926167 Z-1.000000 I107.147524 J-57.009161
G03 X458.278920 Y170.145862 Z-1.000000 I-2557.472577 J1461.792463
G03 X461.672440 Y176.332060 Z-1.000000 I-274.758863 J154.746460
G03 X464.464726 Y182.128614 Z-1.000000 I-68.169074 J36.408876
G03 X464.670086 Y183.123098 Z-1.000000 I-2.305279 J0.994484
G03 X461.929010 Y187.265148 Z-1.000000 I-4.500072 J0.000000
G03 X456.899916 Y186.422850 Z-1.000000 I-1.853916 J-4.365567
G03 X456.367746 Y185.795651 Z-1.000000 I2.065420 J-2.291852
G03 X452.745891 Y179.970716 Z-1.000000 I211.876645 J-135.780102
G03 X449.362783 Y174.272885 Z-1.000000 I414.745194 J-250.109773
G03 X444.720426 Y166.226177 Z-1.000000 I704.486052 J-411.798969
G02 X440.096512 Y158.171955 Z-1.000000 I-1131.177607 J644.052542
G02 X436.809229 Y152.549672 Z-1.000000 I-646.206747 J374.057441
G02 X433.319693 Y146.759582 Z-1.000000 I-325.674359 J192.328834
G02 X432.929926 Y146.261087 Z-1.000000 I-2.405454 J1.479170
G02 X431.975283 Y145.660606 Z-1.000000 I-1.740008 J1.707175
G02 X430.206494 Y145.279994 Z-1.000000 I-2.516395 J7.393981
G02 X428.384682 Y145.284514 Z-1.000000 I-0.888001 J9.234605
G02 X426.786236 Y145.670307 Z-1.000000 I0.610394 J6.033328
G02 X426.520450 Y145.873229 Z-1.000000 I0.220936 J0.564902
G02 X426.198520 Y146.531128 Z-1.000000 I1.602780 J1.192005
G02 X426.039641 Y147.327879 Z-1.000000 I5.304246 J1.471927
G02 X425.860616 Y149.313924 Z-1.000000 I29.931399 J3.699154
G02 X425.729076 Y153.256535 Z-1.000000 I83.869590 J4.771695
G02 X425.669666 Y165.295447 Z-1.000000 I1219.757308 J12.038912
G03 X425.605923 Y176.939815 Z-1.000000 I-1063.605148 J0.000000
G03 X425.468182 Y181.258829 Z-1.000000 I-103.218595 J-1.130107
G03 X424.977646 Y185.123035 Z-1.000000 I-26.501238 J-1.400924
G03 X424.570796 Y186.082897 Z-1.000000 I-2.556682 J-0.517528
G03 X423.158934 Y187.255635 Z-1.000000 I-2.779702 J-1.910249
G03 X421.198406 Y187.697139 Z-1.000000 I-2.091629 J-4.714340
G03 X419.198287 Y187.369838 Z-1.000000 I-0.138099 J-5.431048
G03 X417.567896 Y186.260963 Z-1.000000 I1.379618 J-3.781496
G01 X417.567896 Y186.260963 Z-1.000000
G00 Z5.000000

(Change tool to Cylindrical cutter)

G00 Z5.000000
G00 X453.683286 Y133.596787

G01 Z-1.000000 F100.0(Penetrate)
G02 X454.961540 Y131.466792 Z-1.000000 I-3.260699 J-3.405363 F400.000000
G02 X455.450995 Y127.887244 Z-1.000000 I-12.639762 J-3.551555
G02 X454.973345 Y124.283264 Z-1.000000 I-14.061456 J0.029980
G02 X453.658086 Y121.764107 Z-1.000000 I-6.296338 J1.684406
G02 X453.057018 Y121.089588 Z-1.000000 I-12.826302 J10.824528
G02 X452.532509 Y120.635244 Z-1.000000 I-2.478226 J2.331018
G02 X451.928720 Y120.310605 Z-1.000000 I-1.666971 J2.376556
G02 X450.914826 Y120.013588 Z-1.000000 I-2.152566 J5.468960
G02 X448.851341 Y119.758554 Z-1.000000 I-2.799692 J14.177006
G02 X442.067736 Y119.475227 Z-1.000000 I-18.746868 J367.499116
G02 X437.816934 Y119.385828 Z-1.000000 I-6.016351 J184.964431
G02 X434.103957 Y119.392251 Z-1.000000 I-1.571553 J164.720390
G02 X430.320940 Y119.505266 Z-1.000000 I1.458693 J112.199711
G02 X428.903096 Y119.646377 Z-1.000000 I0.634585 J13.569718
G01 X425.669736 Y120.140567 Z-1.000000
G01 X425.669736 Y127.650837 Z-1.000000
G01 X425.669736 Y135.161117 Z-1.000000
G01 X438.859676 Y135.161117 Z-1.000000
G02 X447.673783 Y135.100429 Z-1.000000 I0.000000 J-640.098306
G02 X450.401704 Y134.938051 Z-1.000000 I-0.411990 J-29.916734
G02 X451.769754 Y134.708901 Z-1.000000 I-1.197438 J-11.347132
G02 X452.478057 Y134.470200 Z-1.000000 I-0.856462 J-3.711626
G02 X453.109558 Y134.090976 Z-1.000000 I-1.290881 J-2.865052
G02 X453.683366 Y133.596787 Z-1.000000 I-4.396032 J-5.684499
G01 X453.683286 Y133.596787 Z-1.000000
G00 Z5.000000

(Change tool to Cylindrical cutter)

G00 Z5.000000
G00 X507.627796 Y185.496096

G01 Z-1.000000 F100.0(Penetrate)
G03 X506.077820 Y184.079932 Z-1.000000 I5.987440 J-8.109487 F400.000000
G03 X503.992637 Y181.245691 Z-1.000000 I14.341051 J-12.735038
G03 X502.141491 Y177.910354 Z-1.000000 I45.699764 J-27.545212
G03 X497.815856 Y169.217227 Z-1.000000 I469.771061 J-239.177313
G01 X490.964486 Y155.124157 Z-1.000000
G01 X490.970486 Y148.919817 Z-1.000000
G01 X490.976486 Y142.715477 Z-1.000000
G01 X496.544616 Y131.204077 Z-1.000000
G03 X502.252716 Y119.792955 Z-1.000000 I431.980633 J208.953215
G03 X504.696217 Y115.642323 Z-1.000000 I38.949015 J20.134945
G03 X506.174267 Y113.681139 Z-1.000000 I17.394381 J11.571747
G03 X507.287397 Y112.574435 Z-1.000000 I7.156105 J6.084510
G03 X508.571265 Y111.694053 Z-1.000000 I5.129904 J6.104648
G03 X509.953696 Y111.047857 Z-1.000000 I5.575471 J10.125966
G03 X516.355931 Y110.197999 Z-1.000000 I4.943342 J12.699778
G03 X522.327956 Y112.380187 Z-1.000000 I-1.413997 J13.132666
G03 X523.740827 Y113.606021 Z-1.000000 I-4.324057 J6.410962
G03 X525.816594 Y116.390552 Z-1.000000 I-13.678128 J12.362513
G03 X527.665645 Y119.686563 Z-1.000000 I-46.119829 J28.039726
G03 X532.021026 Y128.323377 Z-1.000000 I-469.072224 J241.960812
G01 X538.964516 Y142.411987 Z-1.000000
G01 X538.964516 Y148.768087 Z-1.000000
G01 X538.964516 Y155.124197 Z-1.000000
G01 X532.376506 Y168.705067 Z-1.000000
G03 X529.515152 Y174.475789 Z-1.000000 I-334.187316 J-162.108664
G03 X527.274429 Y178.792159 Z-1.000000 I-220.371489 J-111.659920
G03 X524.845374 Y183.169477 Z-1.000000 I-123.197802 J-65.502103
G03 X524.258776 Y183.973086 Z-1.000000 I-4.069821 J-2.354887
G03 X522.310098 Y185.719963 Z-1.000000 I-9.387792 J-8.511945
G03 X520.262857 Y186.837545 Z-1.000000 I-5.375126 J-7.412505
G03 X517.987576 Y187.442475 Z-1.000000 I-3.824152 J-9.802124
G03 X514.752276 Y187.681910 Z-1.000000 I-3.235300 J-21.738381
G03 X512.284493 Y187.571118 Z-1.000000 I0.000000 J-27.539045
G03 X510.808317 Y187.281554 Z-1.000000 I0.649454 J-7.218374
G03 X509.439847 Y186.684720 Z-1.000000 I1.931468 J-6.295914
G03 X507.627296 Y185.496096 Z-1.000000 I9.778354 J-16.887471
G01 X507.627796 Y185.496096 Z-1.000000
G00 Z5.000000

(Change tool to Cylindrical cutter)

G00 Z5.000000
G00 X523.258956 Y164.794327

G01 Z-1.000000 F100.0(Penetrate)
G02 X526.236777 Y158.756402 Z-1.000000 I-1386.977419 J-687.791377 F400.000000
G02 X527.849810 Y155.174006 Z-1.000000 I-53.564838 J-26.272798
G02 X529.043224 Y151.545408 Z-1.000000 I-24.420129 J-10.042115
G02 X529.377750 Y148.823812 Z-1.000000 I-10.835854 J-2.713250
G02 X529.039119 Y146.102752 Z-1.000000 I-11.168866 J0.008345
G02 X527.840318 Y142.476701 Z-1.000000 I-25.590731 J6.449305
G02 X526.221910 Y138.897529 Z-1.000000 I-55.109686 J22.763664
G02 X523.235056 Y132.865627 Z-1.000000 I-1387.607237 J683.354570
G02 X519.006395 Y124.534369 Z-1.000000 I-541.207718 J269.459677
G02 X517.615699 Y122.174274 Z-1.000000 I-22.100912 J11.433282
G02 X516.763451 Y121.095601 Z-1.000000 I-7.060586 J4.702477
G02 X516.247684 Y120.683767 Z-1.000000 I-1.646711 J1.533403
G02 X515.636159 Y120.466513 Z-1.000000 I-0.885368 J1.522844
G02 X514.940856 Y120.412137 Z-1.000000 I-0.695302 J4.418206
G02 X514.243959 Y120.465916 Z-1.000000 I-0.000000 J4.542238
G02 X513.634948 Y120.682339 Z-1.000000 I0.266111 J1.713923
G02 X513.123189 Y121.094548 Z-1.000000 I1.115164 J1.908257
G02 X512.276257 Y122.181891 Z-1.000000 I6.210231 J5.710661
G02 X510.899154 Y124.559928 Z-1.000000 I20.882753 J13.680797
G02 X506.692456 Y133.002727 Z-1.000000 I554.348479 J281.478354
G02 X503.762396 Y139.030637 Z-1.000000 I1360.476947 J665.029696
G02 X502.170725 Y142.601435 Z-1.000000 I56.914820 J27.509737
G02 X500.972727 Y146.214428 Z-1.000000 I25.843478 J10.574304
G02 X500.615647 Y148.867664 Z-1.000000 I10.994430 J2.830306
G02 X500.900227 Y151.522118 Z-1.000000 I10.931621 J0.170520
G02 X501.977914 Y154.961788 Z-1.000000 I23.604350 J-5.506849
G02 X503.464624 Y158.358519 Z-1.000000 I49.924250 J-19.827536
G02 X506.208216 Y164.044177 Z-1.000000 I1138.741791 J-545.990643
G02 X508.666203 Y169.050411 Z-1.000000 I580.469420 J-281.895367
G02 X510.465634 Y172.629199 Z-1.000000 I347.842459 J-172.654990
G02 X512.385435 Y176.305931 Z-1.000000 I181.845125 J-92.610602
G02 X512.677276 Y176.746477 Z-1.000000 I2.489636 J-1.332333
G02 X513.573174 Y177.335984 Z-1.000000 I1.368024 J-1.103522
G02 X515.257226 Y177.465940 Z-1.000000 I1.171117 J-4.199589
G02 X515.796651 Y177.324161 Z-1.000000 I-0.236655 J-1.997459
G02 X516.421189 Y176.939234 Z-1.000000 I-0.909587 J-2.174905
G02 X516.950352 Y176.388917 Z-1.000000 I-2.580557 J-3.010930
G02 X517.829809 Y175.147375 Z-1.000000 I-11.244658 J-8.897507
G02 X519.326449 Y172.540651 Z-1.000000 I-30.233986 J-19.091733
G02 X523.258916 Y164.794327 Z-1.000000 I-410.250887 J-213.137603
G01 X523.258956 Y164.794327 Z-1.000000
G00 Z5.000000


(Start cutting path id: path4529)       ROBOT B_INICIO
(Change tool to Cylindrical cutter)

G00 Z5.000000
G00 X565.612356 Y187.611395

G01 Z-1.000000 F100.0(Penetrate)
G03 X565.456846 Y187.309668 Z-1.000000 I0.447642 J-0.421653 F400.000000
G03 X565.186489 Y185.393668 Z-1.000000 I16.926136 J-3.365441
G03 X565.058251 Y183.380186 Z-1.000000 I49.074424 J-4.136338
G03 X564.915174 Y179.062171 Z-1.000000 I215.920728 J-9.315930
G03 X564.791353 Y170.511380 Z-1.000000 I494.308765 J-11.434184
G03 X564.729986 Y149.465327 Z-1.000000 I3608.892010 J-21.046055
G03 X564.769118 Y133.617141 Z-1.000000 I3209.213406 J0.000005
G03 X564.855839 Y122.851938 Z-1.000000 I1726.842544 J8.527837
G03 X565.056750 Y111.640081 Z-1.000000 I831.201206 J9.287011
G03 X565.158466 Y111.117957 Z-1.000000 I1.592582 J0.039285
G03 X565.355928 Y110.836479 Z-1.000000 I0.646123 J0.243267
G03 X565.911925 Y110.522401 Z-1.000000 I1.080736 J1.264009
G03 X566.592097 Y110.359157 Z-1.000000 I1.292797 J3.887926
G03 X568.226244 Y110.178189 Z-1.000000 I3.089751 J20.431938
G03 X571.477344 Y110.043284 Z-1.000000 I3.948643 J55.916952
G03 X581.217466 Y109.983937 Z-1.000000 I9.542270 J766.781222
G03 X587.889284 Y110.049514 Z-1.000000 I-0.122809 J351.920540
G03 X593.019021 Y110.202921 Z-1.000000 I-4.679279 J242.313184
G03 X598.284204 Y110.515392 Z-1.000000 I-5.679949 J140.223548
G03 X599.443766 Y110.722767 Z-1.000000 I-0.465228 J5.946984
G03 X602.449800 Y111.947248 Z-1.000000 I-3.992572 J14.103615
G03 X605.815100 Y114.125598 Z-1.000000 I-12.488805 J22.982433
G03 X608.807717 Y116.792937 Z-1.000000 I-15.832337 J20.775519
G03 X610.777596 Y119.359907 Z-1.000000 I-10.483356 J10.084194
G03 X613.173938 Y125.255707 Z-1.000000 I-17.419329 J10.514964
G03 X613.906444 Y132.206419 Z-1.000000 I-27.512755 J6.413405
G03 X612.912687 Y139.126025 Z-1.000000 I-28.341866 J-0.539145
G03 X610.290406 Y144.969427 Z-1.000000 I-19.940782 J-5.438523
G02 X607.893324 Y148.839669 Z-1.000000 I83.434683 J54.353746
G02 X607.789286 Y149.221767 Z-1.000000 I0.649641 J0.382098
G02 X607.903181 Y149.595754 Z-1.000000 I0.670963 J0.000000
G02 X609.849496 Y152.290547 Z-1.000000 I40.280223 J-27.042146
G03 X613.130608 Y158.869624 Z-1.000000 I-14.827613 J11.502531
G03 X614.041345 Y166.827491 Z-1.000000 I-25.604009 J6.961294
G03 X612.544842 Y174.703739 Z-1.000000 I-26.770708 J-1.006194
G03 X608.764826 Y181.149209 Z-1.000000 I-18.429021 J-6.476750
G03 X606.845788 Y183.185819 Z-1.000000 I-31.964719 J-28.196980
G03 X605.203279 Y184.582208 Z-1.000000 I-9.789363 J-9.850587
G03 X603.366784 Y185.661268 Z-1.000000 I-6.540982 J-9.030022
G03 X600.918674 Y186.547479 Z-1.000000 I-6.232558 J-13.392627
G03 X595.927459 Y187.378486 Z-1.000000 I-6.898055 J-26.026577
G03 X582.730186 Y188.049404 Z-1.000000 I-23.298004 J-328.149004
G03 X573.339262 Y188.274338 Z-1.000000 I-21.329789 J-694.365071
G03 X569.591362 Y188.258605 Z-1.000000 I-1.506148 J-87.626006
G03 X566.182085 Y187.918441 Z-1.000000 I0.593788 J-23.205932
G03 X565.612356 Y187.611395 Z-1.000000 I0.176866 J-1.010273
G01 X565.612356 Y187.611395 Z-1.000000
G00 Z5.000000

(Change tool to Cylindrical cutter)

G00 Z5.000000
G00 X599.130206 Y176.647522

G01 Z-1.000000 F100.0(Penetrate)
G02 X601.238326 Y175.034756 Z-1.000000 I-3.885039 J-7.262506 F400.000000
G02 X602.727641 Y172.803993 Z-1.000000 I-5.862216 J-5.526300
G02 X603.522642 Y170.170601 Z-1.000000 I-9.814405 J-4.399592
G02 X603.859316 Y166.098027 Z-1.000000 I-24.463585 J-4.072574
G02 X603.500869 Y161.887967 Z-1.000000 I-24.903395 J-0.000000
G02 X602.651786 Y159.254016 Z-1.000000 I-9.638461 J1.653232
G02 X601.058651 Y157.066476 Z-1.000000 I-6.959802 J3.394774
G02 X598.589426 Y155.293957 Z-1.000000 I-7.385432 J7.682198
G02 X596.872461 Y154.581837 Z-1.000000 I-4.972774 J9.563746
G02 X594.522957 Y154.102743 Z-1.000000 I-3.433039 J10.835231
G02 X591.937283 Y153.975194 Z-1.000000 I-2.672673 J27.908182
G02 X585.368526 Y154.027837 Z-1.000000 I-0.916815 J295.448367
G01 X574.965396 Y154.226887 Z-1.000000
G01 X574.771706 Y165.868677 Z-1.000000
G01 X574.577936 Y177.510460 Z-1.000000
G01 X576.536426 Y177.800094 Z-1.000000
G02 X578.503555 Y177.960668 Z-1.000000 I2.209855 J-14.942532
G02 X587.671416 Y177.979046 Z-1.000000 I5.237210 J-325.874914
G02 X592.839529 Y177.838485 Z-1.000000 I-2.061018 J-170.859316
G02 X595.402430 Y177.635592 Z-1.000000 I-1.482972 J-35.020962
G02 X597.831680 Y177.164893 Z-1.000000 I-1.888014 J-16.247915
G02 X599.130206 Y176.647522 Z-1.000000 I-1.649702 J-6.028750
G01 X599.130206 Y176.647522 Z-1.000000
G00 Z5.000000

(Change tool to Cylindrical cutter)

G00 Z5.000000
G00 X598.163916 Y142.802667

G01 Z-1.000000 F100.0(Penetrate)
G02 X600.380619 Y141.469486 Z-1.000000 I-3.660859 J-8.596440 F400.000000
G02 X602.053216 Y139.654056 Z-1.000000 I-5.337190 J-6.595489
G02 X603.178775 Y137.430492 Z-1.000000 I-7.948377 J-5.420095
G02 X603.917126 Y134.365837 Z-1.000000 I-14.559953 J-5.129123
G02 X603.858372 Y128.916632 Z-1.000000 I-18.699267 J-2.523303
G02 X602.488375 Y125.051474 Z-1.000000 I-11.015487 J1.729042
G02 X599.793595 Y122.040486 Z-1.000000 I-8.607545 J4.992212
G02 X595.580566 Y119.991997 Z-1.000000 I-7.618501 J10.311994
G02 X594.313873 Y119.755869 Z-1.000000 I-2.026453 J7.355150
G02 X591.312399 Y119.538843 Z-1.000000 I-5.435586 J54.310609
G02 X588.344121 Y119.457098 Z-1.000000 I-3.877186 J86.854591
G02 X584.905895 Y119.466154 Z-1.000000 I-1.373175 J131.343204
G02 X581.463652 Y119.567546 Z-1.000000 I1.972531 J125.450035
G02 X578.812499 Y119.735387 Z-1.000000 I2.858701 J66.177140
G02 X576.128203 Y120.064372 Z-1.000000 I2.909136 J34.852103
G02 X575.483656 Y120.307997 Z-1.000000 I0.276324 J1.705496
G02 X575.204078 Y120.700159 Z-1.000000 I0.338138 J0.536802
G02 X574.811989 Y123.248121 Z-1.000000 I16.247366 J3.804354
G02 X574.678426 Y125.976072 Z-1.000000 I51.504506 J3.888942
G02 X574.612446 Y131.846087 Z-1.000000 I261.084152 J5.870015
G02 X574.655195 Y136.527007 Z-1.000000 I256.298925 J-0.000000
G02 X574.750692 Y139.748173 Z-1.000000 I141.647491 J-2.587413
G02 X574.966603 Y143.062733 Z-1.000000 I69.044095 J-2.833221
G02 X575.083076 Y143.315027 Z-1.000000 I0.411005 J-0.036711
G02 X575.537214 Y143.537447 Z-1.000000 I0.541956 J-0.531725
G02 X578.745114 Y143.785737 Z-1.000000 I4.811985 J-41.323677
G02 X581.893764 Y143.849505 Z-1.000000 I3.314805 J-85.907471
G02 X586.065196 Y143.807242 Z-1.000000 I0.334167 J-172.903037
G02 X590.228341 Y143.666382 Z-1.000000 I-3.975565 J-179.090860
G02 X593.664428 Y143.454549 Z-1.000000 I-4.850869 J-106.658554
G02 X597.159908 Y143.079745 Z-1.000000 I-4.685208 J-60.181929
G02 X598.163916 Y142.802667 Z-1.000000 I-0.530912 J-3.881376
G01 X598.163916 Y142.802667 Z-1.000000
G00 Z5.000000

(Change tool to Cylindrical cutter)         B_FIM


G00 Z5.000000
G00 X658.613726 Y186.911955

G01 Z-1.000000 F100.0(Penetrate)
G03 X657.420873 Y186.301027 Z-1.000000 I3.836733 J-8.961322 F400.000000
G03 X656.262371 Y185.453173 Z-1.000000 I4.136006 J-6.866824
G03 X655.249068 Y184.418246 Z-1.000000 I6.425861 J-7.305128
G03 X653.915190 Y182.653990 Z-1.000000 I15.970781 J-13.461192
G03 X651.677363 Y178.938836 Z-1.000000 I34.400641 J-23.252819
G03 X646.733096 Y169.335607 Z-1.000000 I330.114146 J-176.035187
G01 X639.943076 Y155.665807 Z-1.000000
G01 X639.925476 Y149.116507 Z-1.000000
G01 X639.907876 Y142.567197 Z-1.000000
G01 X645.779826 Y130.410467 Z-1.000000
G03 X651.003444 Y119.939337 Z-1.000000 I412.843020 J199.411975
G03 X653.266337 Y116.057801 Z-1.000000 I38.190772 J19.664417
G03 X654.627507 Y114.208056 Z-1.000000 I17.710138 J11.606644
G03 X655.680458 Y113.106523 Z-1.000000 I7.935537 J6.531523
G03 X656.885693 Y112.189513 Z-1.000000 I6.092059 J6.756331
G03 X658.209786 Y111.444147 Z-1.000000 I7.510197 J11.792589
G03 X662.292621 Y110.160617 Z-1.000000 I6.182041 J12.529318
G03 X666.064852 Y110.205691 Z-1.000000 I1.748880 J11.507692
